jkw0701/act-for-franka/real/actions_250422_1531.csv
joint1,joint2,joint3,joint4,joint5,joint6,joint7,gripper
0.0122433526036014,-0.7757393433107936,0.009000786988866,-2.362199343889458,-0.0087473928901672,1.5610261010625932,0.7913751444580863,0.0
0.0122470551789359,-0.7757417178772844,0.0089968734814708,-2.3622019855223755,-0.0087513463621518,1.5610291621778989,0.7913739959063391,0.0
0.012246288476711,-0.7757430062495106,0.0089930197532804,-2.362205745008572,-0.0087513468493219,1.5610249143811703,0.7913788596690965,0.0
0.012246288476711,-0.7757430062495106,0.0089930197532804,-2.362205745008572,-0.0087513468493219,1.5610249143811703,0.7913788596690965,0.0
0.0122451702900529,-0.7757392986424171,0.0089949086267993,-2.362201498676509,-0.0087505891892683,1.5610249757366077,0.791371759049495,0.0
0.0122434849116706,-0.7757436908918887,0.0089969274481418,-2.3622029888484226,-0.0087505891892436,1.561025258214937,0.7913753940196655,0.0
0.0122374864051282,-0.7757410195441694,0.008996908533377,-2.3622012063694133,-0.0087521088923784,1.5610255686821046,0.7913761957170475,0.0
0.0122418772392005,-0.775740933158192,0.0089955833342834,-2.362202197169341,-0.0087513468493219,1.5610257371660277,0.7913791626267341,0.0
0.0122434992834334,-0.7757351741576537,0.0090008923251444,-2.362205310128909,-0.0087521043470115,1.561025698565315,0.7913735357221034,0.0
0.0122455838389911,-0.7757393073445608,0.0089950568309881,-2.3622036765997163,-0.008752104509326,1.5610291491198047,0.7913800000621077,0.0
0.0122440635704753,-0.7757393072970228,0.0089969526911097,-2.3622039491847566,-0.0087498315291652,1.561025229087685,0.7913724296204546,0.0
0.012244291433796,-0.7757391945642814,0.0089949076529119,-2.3622030901523354,-0.0087505848047455,1.561027989913827,0.791373682209108,0.0
0.0122462894861016,-0.7757416175164993,0.008996924518016,-2.362203210271359,-0.0087498300676659,1.56102591607653,0.7913803532468102,0.0
0.0122451441470349,-0.7757388324689002,0.0089956192283788,-2.3622069526425435,-0.0087498314749366,1.5610260396257456,0.7913776443398182,0.0
0.0122476568567089,-0.7757379029858741,0.0089955040564166,-2.36220605973073,-0.0087521045094003,1.5610268779547238,0.7913733046953366,0.0
0.0122455082640616,-0.7757408337707035,0.0089969245340441,-2.362205076900583,-0.0087528621694704,1.561025510700872,0.7913752660952468,0.0
0.0122480073660843,-0.7757416958399683,0.0089969611353288,-2.362200113075633,-0.0087513468493219,1.5610260333358923,0.791380977186067,0.0
0.0122442126355574,-0.7757416833569335,0.0089969523785736,-2.362205311453512,-0.0087512284678747,1.5610286910631217,0.7913736555780384,0.0
0.0122479217740532,-0.7757400093552838,0.0089947937036434,-2.3621991917712357,-0.0087505848044485,1.561026743001929,0.7913737574702389,0.0
0.0122514805360575,-0.775743485797574,0.0089947946300487,-2.362202215476076,-0.0087521045094003,1.561026150392817,0.7913810548500305,0.0
0.0122432745306438,-0.775741720911668,0.00899479769736,-2.3622038948058024,-0.008749713147718,1.561024090200138,0.7913736876513258,0.0
0.0122477614135616,-0.7757400082377549,0.0089969274565899,-2.3622077828178893,-0.0087505891892436,1.5610264047614284,0.7913737955873398,0.0
0.0122462855509575,-0.7757417218718891,0.0089986837258303,-2.362203240171985,-0.008750576029735,1.5610248721783655,0.79137848194316,0.0
0.0122414585621589,-0.7757417218403492,0.008994556961571,-2.362204026340145,-0.0087521046717575,1.5610260107594651,0.7913776430625582,0.0
0.0122421432985636,-0.7757395377921135,0.0089951457539037,-2.3622030625719077,-0.0087502814162957,1.5610244684482284,0.7913811793798428,0.0
0.0122439803901199,-0.7757399303554948,0.0089969903653176,-2.3622058080495005,-0.0087513463621552,1.5610306926294018,0.7913748573071017,0.0
0.0122455386342301,-0.7757437069718898,0.0089976743470105,-2.3622032973847173,-0.0087505877277442,1.5610251056041562,0.7913761768033888,0.0
0.0122414589031663,-0.7757417205915872,0.0089979534172601,-2.362201882548397,-0.0087497920686828,1.561025527475591,0.7913791632369019,0.0
0.0122421669848356,-0.7757429369165126,0.0089978204983378,-2.362201968935439,-0.008749523756144,1.5610272442431332,0.7913791778321939,0.0
0.0122462091462765,-0.7757434829244622,0.0089930197848185,-2.3622035274817117,-0.0087513447382643,1.561028445619697,0.791379597524178,0.0
0.0122477726683797,-0.7757437168801868,0.0089986562667814,-2.362203694608103,-0.0087502340449018,1.561028290798622,0.7913740045915046,0.0
0.0122435784940774,-0.7757416926656607,0.0089976977670883,-2.362198354637894,-0.0087521045094002,1.5610288521744993,0.7913760193367748,0.0
0.0122418444100984,-0.7757436413871457,0.0089971102082692,-2.362207355940875,-0.0087513468493219,1.5610246136213162,0.7913732217014882,0.0
0.0122403783114439,-0.7757451973697341,0.0089993209817876,-2.3622042081752253,-0.0087513466869331,1.5610290602535135,0.7913792301696989,0.0
0.0122441318440353,-0.7757400082834012,0.0089951418445605,-2.362200061942979,-0.0087513468493219,1.561030596894181,0.7913780773443542,0.0
0.0122451615730301,-0.7757410185680699,0.0089997935211161,-2.362207432445494,-0.0087505891892436,1.561029971470809,0.7913799706062637,0.0
0.0122462679140387,-0.7757417131722348,0.0089968738184089,-2.362205361299441,-0.008751346849321,1.5610281137881032,0.7913783514057822,0.0
0.0122412229548332,-0.7757450118731927,0.0089930113393567,-2.3622060042364987,-0.0087520650491406,1.5610220683364442,0.7913823588733525,0.0
0.0122412229548332,-0.7757450118731927,0.0089930113393567,-2.3622060042364987,-0.0087520650491406,1.5610220683364442,0.7913823588733525,0.0
0.0122440632803332,-0.7757399745673972,0.0089932565103832,-2.362204005698373,-0.0087513424588095,1.561027243871611,0.7913724760097245,0.0
0.0122472993820581,-0.7757434584102124,0.0089937300495383,-2.3622012918104063,-0.0087505887020771,1.561028741441541,0.7913721230388009,0.0
0.0122442905715524,-0.7757416175138684,0.008995512717597,-2.3622019688809885,-0.0087513468493219,1.561026168500505,0.7913752660593045,0.0
0.0122440634603213,-0.7757408828745748,0.0089910373918089,-2.362201295066354,-0.0087505891892463,1.561024806770386,0.7913794616996785,0.0
0.01224257789489,-0.7757396127999878,0.0089930109784927,-2.362205161467995,-0.0087513468493219,1.5610253306617978,0.7913789508570074,0.0
0.0122497222717057,-0.7757437100677693,0.0089950304185547,-2.362205386027172,-0.0087513468493219,1.5610288650132658,0.7913769367254367,0.0
0.0122443002041135,-0.7757396155202717,0.008993011952842,-2.3622040339808947,-0.0087498183754483,1.56102648237529,0.791377996111013,0.0
0.0122431916828681,-0.7757414749853403,0.0089955039441953,-2.3622059663607886,-0.0087528621692559,1.561028101302972,0.7913757397007313,0.0
0.0122462719182815,-0.7757379754151464,0.0089971115194531,-2.3622013081105213,-0.0087509917049801,1.5610290965583713,0.7913736386763591,0.0
0.0122404564522857,-0.7757436937806211,0.0089947937771418,-2.362204216578765,-0.0087512281430654,1.5610284459736643,0.79137242935151,0.0
0.0122455605740341,-0.7757436414782953,0.0089969336153875,-2.3622019712246503,-0.0087473928901675,1.561025903961913,0.791379357356869,0.0
0.0122459464765488,-0.7757396129191682,0.0089990135174611,-2.362200041927549,-0.0087528616820637,1.561022997567783,0.7913751693585469,0.0
0.0122434302868989,-0.7757429905222574,0.0089952216360691,-2.36219912386338,-0.0087513468493219,1.5610303394166674,0.7913752617287678,0.0
0.0122470336826107,-0.7757385917607607,0.0089976435796878,-2.362205358464456,-0.0087502814162223,1.5610305590455689,0.7913799559879291,0.0
0.0122441829930991,-0.7757409114547831,0.0089968646793725,-2.3622022121631336,-0.0087495237562179,1.5610299218813797,0.7913763745035063,0.0
0.0122458792173469,-0.7757436937794986,0.0089969277818632,-2.362200175293104,-0.0087490738690868,1.5610277605643037,0.7913732338315287,0.0
0.0122458772812746,-0.7757395888289869,0.0089976188102059,-2.3622021875987085,-0.0087513466867104,1.5610281178883696,0.791373797058825,0.0
0.0122434462383979,-0.7757436384616727,0.008994819962951,-2.362203604342921,-0.0087513468493219,1.56102778631657,0.7913803272704019,0.0
0.0122479055652915,-0.7757430139502466,0.0089958610122643,-2.362209912811826,-0.0087505891892436,1.5610280233835292,0.7913760369954581,0.0
0.0122441639662582,-0.7757378243559794,0.008998682754648,-2.3622039330626667,-0.0087512284678747,1.5610266354042512,0.7913763272886122,0.0
0.0122462154474842,-0.7757415868209181,0.0089968734467533,-2.3622042922329314,-0.0087521044913543,1.5610270708963898,0.7913750037135447,0.0
0.0122438520863593,-0.7757399053497445,0.0089948024371367,-2.362202213423453,-0.0087513468493219,1.5610290437992935,0.7913780425185303,0.0
0.0122458678185022,-0.7757471959183087,0.0089947946298464,-2.3622059737344574,-0.0087513468493219,1.5610240606633057,0.7913738436190173,0.0
0.0122456165616987,-0.7757393529483918,0.0089947936555117,-2.3622071352879104,-0.0087505891892436,1.5610252670379274,0.7913768693677866,0.0
0.0122453426991871,-0.7757414780828417,0.0089950313928876,-2.3622043023075685,-0.0087495237562182,1.5610287987593738,0.7913781948583616,0.0
0.0122451349472614,-0.7757409929008642,0.0089939932183735,-2.362203601727156,-0.0087505492413717,1.561028440732953,0.7913760208603605,0.0
0.0122455608863066,-0.775741018898325,0.0089930140222964,-2.3622067411452337,-0.0087513468492972,1.5610245076763942,0.7913728981332294,0.0
0.0122490122395122,-0.775739614846427,0.0089957410378296,-2.3622060759282038,-0.0087521045094003,1.5610256427797975,0.7913736924014587,0.0
0.0122438260688127,-0.7757416063134842,0.008999356370422,-2.3622042677035022,-0.0087524076888839,1.5610252683821098,0.7913810562477681,0.0
0.0122472963475479,-0.7757362978237251,0.0089909578383891,-2.362206075890328,-0.0087519861279451,1.5610280222709343,0.7913768344923316,0.0
0.0122460235678865,-0.7757388095124361,0.0089950305280019,-2.3622060758903296,-0.0087517099045761,1.5610295691403224,0.7913804268597853,0.0
0.0122442739035527,-0.7757447187711554,0.0089969086416953,-2.362208147164818,-0.0087502419377709,1.5610298012206596,0.7913750641126669,0.0
0.0122462982135946,-0.7757399042835933,0.0089975848649066,-2.3622024606723504,-0.0087481505502208,1.561024769974927,0.7913782305844707,0.0
0.0122452725802049,-0.7757433817630011,0.0089948727013682,-2.362204293213309,-0.0087521045033856,1.5610264034720511,0.7913782434580274,0.0
0.0122433446567937,-0.7757408844875106,0.0089954606119523,-2.362206103814643,-0.0087521045094003,1.5610260970435397,0.7913792127264406,0.0
0.0122433446567937,-0.7757408844875106,0.0089954606119523,-2.362206103814643,-0.0087521045094003,1.5610260970435397,0.7913792127264406,0.0
0.0122439270778728,-0.7757430659818757,0.0089976889620042,-2.3622051807537194,-0.0087481505502459,1.5610238545799102,0.7913826395954155,0.0
0.0122462942368359,-0.7757409002183395,0.008993022995265,-2.362206075891707,-0.0087524120753867,1.5610258634297307,0.7913787553627154,0.0
0.0122462942368359,-0.7757409002183395,0.008993022995265,-2.362206075891707,-0.0087524120753867,1.5610258634297307,0.7913787553627154,0.0
0.0122411434076446,-0.7757454322288403,0.0089971700549405,-2.362208301130399,-0.0087521045094004,1.561029199279658,0.7913753410111162,0.0
0.0122435892567094,-0.7757453514356376,0.0089971103165212,-2.362206064552796,-0.0087521045094003,1.5610271494062642,0.7913779994386202,0.0
0.0122441417087358,-0.7757414878724426,0.008993013905501,-2.3622022135366625,-0.0087521045094003,1.5610256849443984,0.7913808368351503,0.0
0.0122472880297823,-0.775743484834472,0.0089972405315579,-2.3622022147801003,-0.0087513468493219,1.5610279850846005,0.7913776473248209,0.0
0.0122462982360628,-0.7757398952590168,0.0089990073627294,-2.3622059993609072,-0.0087528621694704,1.5610292166108464,0.7913776836473521,0.0
0.0122435629573928,-0.7757436822487283,0.0089902243560294,-2.362206076229639,-0.00875089675523,1.561026123441875,0.7913733176155372,0.0
0.0122455053766707,-0.7757393073331181,0.0089947975902678,-2.362202257594242,-0.0087528621614597,1.5610299196274016,0.7913749096329078,0.0
0.0122441417088917,-0.775741692558647,0.0089993664477998,-2.362209144675788,-0.0087521001249022,1.5610259205801509,0.7913827575600679,0.0
0.0122425790233213,-0.7757429137912907,0.0089932478897589,-2.3622089812130014,-0.008751346849321,1.5610257361404345,0.7913823562029871,0.0
0.0122480020081463,-0.7757436822607617,0.0089930110145797,-2.362206074947088,-0.0087505891892436,1.561029974729348,0.7913763613498265,0.0
0.0122461916375331,-0.7757377872916634,0.0089918783503084,-2.362206088137892,-0.0087513468493219,1.5610248837014578,0.7913808282876023,0.0
0.0122442184402125,-0.7757437168922217,0.0089969246792755,-2.362207344012304,-0.0087521045094003,1.561025510631939,0.7913750802205168,0.0
0.0122479201705343,-0.7757378657565086,0.0089930902248287,-2.3622040097091848,-0.0087513468493219,1.5610279842652597,0.7913788118089069,0.0
0.0122442970280967,-0.7757397662094708,0.0089930119525305,-2.3622045419695907,-0.0087513468433075,1.5610279448244415,0.7913732469673419,0.0
0.012245608299444,-0.7757377979318462,0.0089969027115916,-2.3622092272093127,-0.0087490738530481,1.5610264035241053,0.7913801189222156,0.0
0.0122477740807016,-0.7757396129166507,0.0089968747848708,-2.362205319857295,-0.0087514652077736,1.5610277862396504,0.791373760215616,0.0
0.0122472977221933,-0.775738653782296,0.0089969256042113,-2.3622014207595066,-0.0087505891892436,1.5610266622580764,0.7913819255378512,0.0
0.0122418281266833,-0.7757399052427959,0.0089948037276281,-2.3622065184594367,-0.0087513468493219,1.5610290568098968,0.7913759169259543,0.0
0.0122432741654469,-0.7757416175059463,0.0089986912391102,-2.36220718834099,-0.0087513468553352,1.5610236928651748,0.7913771248240348,0.0
0.0122420608295287,-0.775739614775111,0.0089969523703478,-2.362208304522484,-0.0087513468492898,1.561027156664019,0.7913805857601313,0.0
0.0122497232815176,-0.7757409934360627,0.0089975837715404,-2.362208302501642,-0.0087510390944146,1.5610251246121831,0.791376809869472,0.0
0.0122489254365264,-0.7757416958750314,0.0089969248521869,-2.362210417566472,-0.0087505497287609,1.5610276481517809,0.7913826903483067,0.0
0.0122441850500243,-0.7757400093075826,0.008993247741553,-2.3622045530908347,-0.0087505891892436,1.5610280406705397,0.7913756546783423,0.0
0.0122480020041599,-0.7757436417047653,0.0089990073547236,-2.3622047228853984,-0.0087513468493219,1.561029046483004,0.7913756961052775,0.0
0.0122421700548256,-0.7757436405159072,0.0089968735696651,-2.3622045409325665,-0.0087513468433048,1.561027581848931,0.7913713651373783,0.0
0.0122475024273738,-0.7757417218718341,0.0089969346017143,-2.3622004414169475,-0.0087513468493219,1.5610272700416927,0.7913845601268682,0.0
0.0122462685629759,-0.7757417218720026,0.0089948842738341,-2.36220444274603,-0.0087502814162966,1.561027748662012,0.7913757331714113,0.0
0.0122416409794562,-0.7757399833548984,0.0089947937637709,-2.3622060789818664,-0.0087513468493216,1.5610273432082515,0.7913790601097848,0.0
0.012246034124918,-0.775741721864072,0.0089970297388268,-2.3622068618122345,-0.0087513424648156,1.5610270447105286,0.7913771350529692,0.0
0.012246034124918,-0.775741721864072,0.0089970297388268,-2.3622068618122345,-0.0087513424648156,1.5610270447105286,0.7913771350529692,0.0
0.0122425868177095,-0.775739281296632,0.0089909432428899,-2.3622052174353647,-0.0087521030479009,1.5610284319763266,0.7913779719992586,0.0
0.0122425868177095,-0.775739281296632,0.0089909432428899,-2.3622052174353647,-0.0087521030479009,1.5610284319763266,0.7913779719992586,0.0
0.0122441675744629,-0.7757395348477215,0.0089968739198531,-2.3622073549937053,-0.0087505891892436,1.5610267925850947,0.7913781145484594,0.0
0.0122462979287502,-0.7757417218718327,0.0089950480712223,-2.362204722885777,-0.0087513468493219,1.561027537601856,0.7913768966884658,0.0
0.0122462718098067,-0.7757416405103996,0.0089969095357824,-2.362210638688927,-0.008751346830957,1.5610277489292024,0.7913767915366633,0.0
0.0122462719129703,-0.7757414095490924,0.0089969614980256,-2.362204727001313,-0.0087490329471051,1.5610299351664978,0.7913748611992693,0.0
0.0122462885133832,-0.7757417215175937,0.008993404046872,-2.362207628020955,-0.0087521045094003,1.561028860914911,0.7913747389576116,0.0
0.012242169943008,-0.7757429367723998,0.0089976351350257,-2.362205468829577,-0.008751333695825,1.5610303413917244,0.791380827784191,0.0
0.012246035218584,-0.7757454235517723,0.0089968763683827,-2.3622063548508265,-0.0087521045093233,1.5610266258745678,0.7913740972609896,0.0
0.0122479830669904,-0.7757407768269922,0.0089955039844404,-2.362209019906205,-0.0087513468492972,1.5610257358617483,0.7913763872445972,0.0
0.0122421690525917,-0.7757432472231759,0.0089976113419887,-2.3622094035378978,-0.0087521045094003,1.561029199581029,0.7913760600880476,0.0
0.012244209708544,-0.7757390357839645,0.0089968734814702,-2.362210742636181,-0.0087528621694814,1.5610272004477623,0.7913745578336088,0.0
0.0122439303046601,-0.7757409924385434,0.0089968734579974,-2.3622094137504352,-0.0087521045076182,1.5610288260124408,0.7913833969442166,0.0
0.0122494826932115,-0.7757432974015075,0.0089947939803076,-2.3622075472963235,-0.0087502814162966,1.5610259707462069,0.7913745040147019,0.0
0.0122470639869045,-0.7757378743237383,0.008994882324015,-2.3622091767223146,-0.0087473928915035,1.561024220964574,0.7913822493564273,0.0
0.0122412222654653,-0.7757437169261755,0.0089970034431213,-2.3622093766557257,-0.0087498315291649,1.561029200728562,0.7913792554427856,0.0
0.0122442905719474,-0.7757406727655742,0.0089968823226232,-2.362206888983323,-0.0087505891892436,1.561026089270972,0.7913722928646195,0.0
0.0122442096880695,-0.7757436154804882,0.0089948823211585,-2.3622034613814296,-0.0087505891892436,1.5610229592403406,0.7913791596680877,0.0
0.0122480106543551,-0.7757385754727811,0.008995151912848,-2.362207620894308,-0.0087524120753867,1.5610259825686144,0.791373757529867,0.0
0.0122414307627914,-0.7757415261551752,0.0089968768068005,-2.3622034025729097,-0.0087509917049546,1.5610284021038825,0.7913746237144185,0.0
0.0122459562539884,-0.7757446917963623,0.0089976624524495,-2.3622055508297937,-0.0087505848047537,1.5610256185663784,0.7913768963483712,0.0
0.0122473003668677,-0.7757414865886089,0.0089970112416516,-2.3622112157668385,-0.0087513467954068,1.5610244694770292,0.7913760194125428,0.0
0.0122435873085701,-0.7757417215431334,0.0089968854640704,-2.362204456992618,-0.0087505497287612,1.5610252145318932,0.7913746218080514,0.0
0.0122460342865328,-0.7757397663119681,0.0089948290683098,-2.362213582336288,-0.0087521045073955,1.5610272427331684,0.7913792157644409,0.0
0.0122440534411729,-0.7757371145269757,0.0089969523828184,-2.3622076339078397,-0.0087505891892436,1.5610303226572335,0.7913793166499263,0.0
0.0122441670346112,-0.7757416958636966,0.008993984337059,-2.362211493527729,-0.0087505892433627,1.5610267402227096,0.7913737602176181,0.0
0.0122440764463214,-0.7757453504839621,0.0089976612255616,-2.3622055522401766,-0.0087513468490909,1.56102954141287,0.7913736526788394,0.0
0.012247300643004,-0.7757376693166124,0.008994794016376,-2.362209414695676,-0.0087482689086975,1.5610291643719596,0.7913799559658148,0.0
0.0122480107746079,-0.7757399803589727,0.0089989026691513,-2.3622101283412595,-0.0087498310419979,1.5610287036629866,0.7913768229177646,0.0
0.0122479753355998,-0.7757444953450191,0.0089969010519116,-2.362207645969392,-0.0087498315291542,1.561025634198809,0.7913722405410418,0.0
0.0122453427113067,-0.7757385641514564,0.0089956101999921,-2.3622076340128184,-0.0087513468493219,1.5610281438888474,0.7913793205268483,0.0
0.0122462943574847,-0.7757388836564003,0.0089969552907389,-2.3622094421002973,-0.0087513468490992,1.561026791079632,0.7913737732985249,0.0
0.0122433428435592,-0.7757434077726136,0.0089977148303425,-2.3622096442852376,-0.0087513468493219,1.5610295565822203,0.7913760195023666,0.0
0.0122435639309974,-0.7757400003674962,0.0089937217140816,-2.3622071885121554,-0.0087513468492477,1.561025562521116,0.7913733046973142,0.0
0.0122489304188401,-0.7757409298804524,0.008991904547209,-2.362211530811741,-0.0087505891892436,1.5610276357197492,0.7913770983775069,0.0
0.0122435804736324,-0.7757407742696226,0.0089948066466888,-2.362209413856728,-0.0087517493650585,1.5610242919865094,0.7913777221757881,0.0
0.0122404562478061,-0.7757436291843031,0.0089918782402231,-2.3622096442873928,-0.0087502814142835,1.5610272267330274,0.7913752618960253,0.0
0.0122480103042852,-0.775739604289503,0.0089969332910041,-2.362207631073896,-0.008751346787173,1.5610288067089997,0.7913809397057794,0.0
0.0122480103042852,-0.775739604289503,0.0089969332910041,-2.362207631073896,-0.008751346787173,1.5610288067089997,0.7913809397057794,0.0
0.0122439759367939,-0.77574370793486,0.0089976655835098,-2.362209413867078,-0.0087513468492477,1.5610269260931575,0.7913713801572856,0.0
0.0122462979291792,-0.7757386005458554,0.0089969829328528,-2.3622055806075912,-0.0087505891892436,1.561031437865018,0.7913753152847383,0.0
0.0122442213058474,-0.7757378653388664,0.0089933539797614,-2.3622077113820885,-0.0087528621694786,1.5610255492497496,0.7913784020236743,0.0
0.0122431131016139,-0.7757399996183526,0.0089969010516201,-2.3622057818295903,-0.008751346993636,1.5610266399164354,0.7913724661475986,0.0
0.0122462719530628,-0.7757376664158423,0.0089969874543673,-2.362209439260836,-0.008749713147718,1.5610246262394123,0.7913767902565659,0.0
0.0122440631731512,-0.7757416399144955,0.0089938864888463,-2.3622076433559656,-0.0087513468493191,1.5610249231024442,0.7913781541026083,0.0
0.012244300296005,-0.7757352033680878,0.0089955404320072,-2.3622076314938107,-0.0087505891892436,1.5610287552186617,0.7913811741658837,0.0
0.0122439759180959,-0.7757395248969446,0.0089990130929606,-2.3622124366620407,-0.0087513468493192,1.5610253388212674,0.791378799801434,0.0
0.0122442738923967,-0.7757433147469824,0.0089968713292672,-2.3622085618663737,-0.0087505891892436,1.5610272816747386,0.7913733535610264,0.0
0.0122442881547171,-0.7757395115173688,0.0089976700364141,-2.3622097203351227,-0.0087513468493219,1.5610273426219388,0.7913749643803624,0.0
0.0122440548520695,-0.775741379421881,0.0089993240128978,-2.362212402504304,-0.0087498315291652,1.5610294531217268,0.7913721364255226,0.0
0.0122462193559095,-0.7757436376307376,0.0089948768032391,-2.362210041312916,-0.0087521044552707,1.5610282908026143,0.7913778758790676,0.0
0.0122442999878067,-0.7757434044476694,0.0089976199461107,-2.362208310277468,-0.0087505891890208,1.561026622489078,0.7913741400886931,0.0
0.0122442998737377,-0.7757386794590186,0.0089939585156946,-2.362210412423845,-0.008749827126624,1.5610303284719478,0.7913722420123677,0.0
0.0122421700272345,-0.7757437079277508,0.0089971980064877,-2.3622145920326885,-0.008750587727967,1.561024467861392,0.7913797086088785,0.0
0.0122440547078317,-0.7757433991414857,0.0089976198979753,-2.3622099651688773,-0.0087512284678004,1.5610296173236309,0.7913792774033805,0.0
0.0122421700535138,-0.7757392803816635,0.0089971627038635,-2.362205921240616,-0.0087521045094003,1.5610241045728277,0.7913791487716275,0.0
0.0122496442717723,-0.7757417209128362,0.0089971200598575,-2.3622145136179578,-0.0087513468492972,1.5610298147869095,0.7913787163208927,0.0
0.0122462154557045,-0.7757430620785332,0.0089987468494023,-2.362211746846661,-0.0087521001226747,1.5610294530177575,0.7913747370014872,0.0
0.0122497229586328,-0.775741694550275,0.0089930207224817,-2.3622117900602846,-0.0087520645555142,1.5610296567642667,0.791374293361988,0.0
0.0122462980971027,-0.7757409808705414,0.0089968734859308,-2.362210465866008,-0.0087509917049719,1.5610256198930443,0.7913760716812818,0.0
0.0122462881881937,-0.7757416920237098,0.0089947937082824,-2.362212513169516,-0.0087505891890208,1.5610248428064246,0.7913823894571282,0.0
0.0122458704121583,-0.7757388097814238,0.0089957524471998,-2.362208572935488,-0.0087513468493219,1.561029932744053,0.7913788760248283,0.0
0.0122442201157662,-0.7757409933852231,0.0089948033868173,-2.362208650725089,-0.0087513468332831,1.5610256297067469,0.7913808616984332,0.0
0.0122405770786881,-0.7757413834385275,0.0089997946041205,-2.3622100417497123,-0.0087487251741581,1.5610280878918867,0.791380269569565,0.0
0.0122456438235006,-0.7757406738711812,0.0089957407116117,-2.362210730479952,-0.0087513468493216,1.5610262740143497,0.7913793290888598,0.0
0.012246260157094,-0.7757417218639739,0.0089986561229865,-2.362208344603375,-0.0087520908687397,1.561025998604206,0.7913721232838316,0.0
0.0122459822954512,-0.7757377959662145,0.0089998056829819,-2.362209162731882,-0.0087528621674738,1.5610296099120924,0.791377345155725,0.0
0.0122414599855976,-0.7757406776469636,0.0089956189168148,-2.3622125101206604,-0.0087513468493219,1.561025236573195,0.7913816231278618,0.0
0.0122441670306332,-0.7757395368412694,0.0089971879656748,-2.362212207062596,-0.0087521045094003,1.5610252806755835,0.7913764138659511,0.0
0.0122462884771143,-0.7757408818759821,0.0089991213518214,-2.362212513191948,-0.0087521059706157,1.5610252537850695,0.7913736598479363,0.0
0.0122440369944275,-0.7757433817004701,0.0089948765986016,-2.3622079618551663,-0.0087519861278788,1.5610252684916992,0.7913747507473083,0.0
0.0122462981403065,-0.7757437183770259,0.0089971131795798,-2.362216375623845,-0.0087505891885753,1.5610240640409927,0.7913748703174833,0.0
0.0122462972676047,-0.7757437198048092,0.0089978208258059,-2.362208431797428,-0.0087513468493219,1.5610256069358348,0.7913784402826198,0.0
0.0122441921917142,-0.7757388084266259,0.0089958612325009,-2.362212426864521,-0.0087505891892436,1.561024494020176,0.791373657175272,0.0
0.0122462193518956,-0.7757407049584164,0.0090038258646673,-2.3622107273319406,-0.008751346849321,1.5610284441484232,0.7913792140085842,0.0
0.0122460440256356,-0.775741709844746,0.0089979375265412,-2.362208573880285,-0.0087513468493219,1.561026004931629,0.7913717184097913,0.0
0.0122460440256356,-0.775741709844746,0.0089979375265412,-2.362208573880285,-0.0087513468493219,1.561026004931629,0.7913717184097913,0.0
0.0122462894874371,-0.7757451160371186,0.0089952298958854,-2.362211824392181,-0.0087521045073955,1.5610291615293062,0.7913784943711917,0.0
0.0122435638833424,-0.7757392289858549,0.0089969255124513,-2.3622107335661022,-0.0087498315291652,1.5610263112984422,0.7913768953784606,0.0
0.0122462982164666,-0.7757388780938536,0.0089951192270697,-2.362210730514996,-0.0087498314750356,1.5610276299614712,0.7913736952990083,0.0
0.0122480104497107,-0.7757409331853213,0.0089970297508686,-2.3622089118086507,-0.0087513467951758,1.561026662111825,0.7913823547489943,0.0
0.0122462894874377,-0.7757413711138934,0.0089955167308336,-2.3622125131934104,-0.0087527306345372,1.5610268768578552,0.7913746219137087,0.0
0.0122462982538787,-0.7757377988535359,0.00899724324086,-2.362206868048072,-0.0087560578298525,1.5610248187511104,0.7913728995329281,0.0
0.0122441668769463,-0.7757429050193569,0.0089930110920988,-2.36221073051495,-0.0087502340449012,1.5610247998995896,0.7913714045990433,0.0
0.0122419304512636,-0.7757376606541393,0.0089937301820029,-2.3622107305149447,-0.0087495232690517,1.561025881279358,0.7913793597560727,0.0
0.0122443003120441,-0.7757453532647068,0.0089968765131736,-2.36220864222182,-0.0087521045094002,1.5610266782042692,0.7913767776409811,0.0
0.0122451701229855,-0.7757414010852642,0.0089991212732659,-2.3622065845437965,-0.0087505891892436,1.5610294640143587,0.7913733008189675,0.0
0.0122462719545549,-0.7757389563879553,0.0089990424553468,-2.362206859544368,-0.0087513468493219,1.5610259869815508,0.7913768995796646,0.0
0.0122462972758213,-0.7757371661655956,0.0089986574214824,-2.362211907861015,-0.0087513469094543,1.5610249240721024,0.7913745185681454,0.0
0.0122443003080359,-0.7757392292231624,0.0089947975546492,-2.362212956207232,-0.0087521040222338,1.5610284201885911,0.7913784987570209,0.0
0.0122443763112415,-0.7757436841391409,0.0089971404126043,-2.3622079785084718,-0.0087481505502459,1.5610256145000907,0.7913798134230549,0.0
0.0122470639628979,-0.7757369973837565,0.0089950317550883,-2.362214702870217,-0.0087505892433618,1.5610281034704163,0.7913775163262705,0.0
0.0122425877797331,-0.7757392746286053,0.0089950421224818,-2.362212513229671,-0.0087505891892353,1.561027357805485,0.791376779096427,0.0
0.012247683169462,-0.7757396883510271,0.0089923127095646,-2.362208678236424,-0.0087510390763749,1.5610276881193297,0.79137787738825,0.0
0.0122494778349429,-0.7757395811260348,0.0089971656645813,-2.3622086507629807,-0.0087498709819822,1.5610281183004138,0.791382352448735,0.0
0.0122480010100508,-0.7757396062095244,0.0089993956470693,-2.362212540701748,-0.0087512284678747,1.561026885362288,0.7913732731379494,0.0
0.0122443003004589,-0.7757392652091605,0.0089971623848915,-2.3622125417317945,-0.0087521044552697,1.5610287576411794,0.7913791988114721,0.0
0.0122443002002481,-0.775738564113862,0.0089954078855953,-2.3622107593609627,-0.008752104509326,1.5610282888608014,0.7913760811002511,0.0
0.0122462281208972,-0.775742901281101,0.008997829302628,-2.3622168181856016,-0.0087513468490992,1.5610249219972856,0.7913769093403777,0.0
0.0122462182736329,-0.7757378762167121,0.0089950313982998,-2.3622086507292823,-0.0087509912177394,1.5610276880440344,0.7913756337838644,0.0
0.0122473006808396,-0.7757405967272704,0.0089948813628641,-2.362208742311322,-0.0087521044552706,1.5610241830166651,0.7913750149365716,0.0
0.0122462982044359,-0.7757399040326605,0.0089960919799503,-2.362217448125946,-0.0087502814155541,1.5610255494031342,0.791376020950505,0.0
0.012245588135585,-0.7757413441167824,0.0089992421695833,-2.362213258342856,-0.0087521045093917,1.5610294878101354,0.7913721235170341,0.0
0.0122477652781853,-0.775737188469109,0.0089948200712544,-2.362215017223612,-0.0087513453878226,1.5610305576662575,0.7913788475839014,0.0
0.0122462891627473,-0.7757368622982556,0.0089951184710297,-2.362214776084725,-0.0087505891892436,1.561028859519873,0.7913802705504859,0.0
0.0122517208019474,-0.7757427027658312,0.0089997497843635,-2.362210759387597,-0.0087528626565504,1.5610249738410042,0.7913713656817157,0.0
0.0122458805293915,-0.7757368880216756,0.0089977225015993,-2.362214738445219,-0.0087513468486289,1.5610264560518643,0.7913816363174092,0.0
0.0122462982538785,-0.7757434819571345,0.0089951445598993,-2.3622116208187403,-0.0087513468473171,1.5610244677824316,0.7913777265537111,0.0
0.0122421690570467,-0.7757395894717344,0.0089952298646947,-2.362208650726562,-0.0087512284678747,1.5610240509780182,0.7913808277821864,0.0
0.0122479990738418,-0.7757388762431829,0.0089947950991667,-2.362209010915359,-0.0087513467951841,1.561027462317806,0.7913791081245996,0.0
0.0122440373192094,-0.7757399742243,0.008997637785375,-2.3622135053530604,-0.0087513463561411,1.561027748684687,0.7913753014596581,0.0
0.0122443003124896,-0.7757397451376279,0.0089976702475915,-2.362210733567402,-0.0087505891832292,1.56102179486487,0.791376361906074,0.0
0.0122462972783451,-0.7757415317898779,0.0089937212805607,-2.362214027167074,-0.0087513468493302,1.561026273525802,0.7913823414590316,0.0
0.0122462193558545,-0.775740650772923,0.008999639336721,-2.362207693718497,-0.008752104509326,1.5610252278441583,0.7913784449676875,0.0
0.0122462193558545,-0.775740650772923,0.008999639336721,-2.362207693718497,-0.008752104509326,1.5610252278441583,0.7913784449676875,0.0
0.0122440635103543,-0.7757400083746768,0.0089952588741549,-2.3622137263430147,-0.0087521045094003,1.5610276342801472,0.7913815431943962,0.0
0.0122421437666779,-0.775739736352811,0.0089952207789232,-2.362215759133436,-0.0087521045094012,1.5610262823583645,0.7913750509703236,0.0
0.0122462894874206,-0.7757414835886668,0.0089976134097036,-2.3622099267762158,-0.0087521040222338,1.561023738295973,0.7913702130206244,0.0
0.0122462969546959,-0.7757436817965022,0.0089990310528292,-2.362211832959896,-0.0087504708077963,1.5610319906059271,0.7913827034814114,0.0
0.0122443003124842,-0.7757393728051009,0.0089948063272521,-2.3622127303276783,-0.0087473928901427,1.5610282502840864,0.7913776841379254,0.0
0.0122462982538788,-0.7757405877697181,0.0089951694882136,-2.362213005546994,-0.0087521045093994,1.561026744886448,0.791378755667728,0.0
0.0122435785420302,-0.7757385628311628,0.0089937723573327,-2.362218621503499,-0.008749831529091,1.5610300148878444,0.7913763740010741,0.0
0.0122443001917913,-0.7757373421698928,0.0089969887432258,-2.362244866372173,-0.0087495237562182,1.5610284000512715,0.7913732216878919,0.0
0.0122496960099438,-0.7757406590727564,0.0089992800958115,-2.3622841860176624,-0.0087505887020028,1.5610275415229116,0.7913778047774784,0.0
0.012243352729645,-0.7757433165177566,0.0089969511711496,-2.362378552215889,-0.0087505891898375,1.5610294601368224,0.7913759364854089,0.0
0.0122441650853742,-0.7757413214657379,0.0089937255975448,-2.362551703232579,-0.0087513468493219,1.561025160016893,0.7913760195025726,0.0
0.0122421697425876,-0.7757433945187655,0.008995767030124,-2.362758262175648,-0.0087514652077736,1.561024222504453,0.7913777223543303,0.0
0.0122462979291951,-0.7757412419928166,0.0089993492252664,-2.363021648911736,-0.008749831529091,1.5610252269997342,0.7913757726805215,0.0
0.0122462952074648,-0.7757406033210134,0.0089976890748841,-2.363376408427217,-0.0087505891892188,1.5610244562956646,0.7913745042029615,0.0
0.012246061451298,-0.7757412391038355,0.0090015353166954,-2.3638273542500468,-0.0087505848045228,1.5610240577562642,0.7913799560777199,0.0
0.0122442973863342,-0.7757433165176038,0.0089991196614349,-2.3643462410177087,-0.0087505497287612,1.5610228439385394,0.7913725483271398,0.0
0.0122442204400255,-0.7757450260948459,0.0089955843265053,-2.36496847786627,-0.0087505891892463,1.5610225091359509,0.7913760338945055,0.0
0.0122462982525426,-0.775741318576302,0.0089997497297125,-2.3656114693272543,-0.0087505891892436,1.561024962494478,0.7913745613517645,0.0
0.0122476951827331,-0.7757326771064913,0.0089930199045124,-2.366357368076617,-0.0087505843166881,1.561021900044281,0.7913808237983826,0.0
0.0122462982538787,-0.7757339497685958,0.0089930113193765,-2.367154721894764,-0.0087505891892436,1.5610214333412369,0.7913763770690843,0.0
0.0122442740131666,-0.7757425252780648,0.0089999605051068,-2.368089049368036,-0.0087513468492944,1.561019649398319,0.7913763744854345,0.0
0.0122442740131666,-0.7757450011853264,0.0090015776549078,-2.36917251124108,-0.0087513466869084,1.5610171247871285,0.791377604980828,0.0
0.0122497232951927,-0.7757378921892588,0.0089948233684501,-2.370266814854208,-0.0087505496563656,1.5610204052698191,0.7913804149428373,0.0
0.0122462982538788,-0.7757368560999728,0.0089950304705823,-2.3714423098777915,-0.0087495237542134,1.561038172657124,0.7913764161541086,0.0
0.0122462953317317,-0.775741317579005,0.0089955160029007,-2.372774111903795,-0.0087505890268547,1.5610529755711775,0.7913754380456788,0.0
0.0122480078524629,-0.775725291343234,0.0089968822306004,-2.374127854950161,-0.0087521001249013,1.5610591281959352,0.7913800087936002,0.0
0.0122421694179833,-0.7757267401476061,0.00899908653367,-2.3753782847167386,-0.0087521044552707,1.5610644426600784,0.7913771746240079,0.0
0.0122462982538779,-0.7757213389502249,0.0089975871387133,-2.3766900483471765,-0.008751342464823,1.561077109370236,0.7913792042275588,0.0
0.0122462894874377,-0.7757127652628533,0.0089990056120137,-2.378017193210703,-0.0087505497287612,1.5610897328206723,0.7913772615654522,0.0
0.0122463771748436,-0.7757201469805185,0.0089960928301526,-2.379483330143688,-0.0087505891891693,1.561116349996945,0.791379203274524,0.0
0.0122441680087593,-0.7757286443837581,0.008995457565898,-2.381003709481954,-0.0087490607155928,1.5612897459180155,0.7913793616931141,0.0
0.0122473006928863,-0.7757502605646057,0.0089976349225155,-2.3827633651715057,-0.008749831528497,1.5618147086584595,0.7913787543101359,0.0
0.0122462985786563,-0.7757669032732482,0.0089930198575357,-2.384819506700277,-0.0087489065864269,1.5624449260559203,0.7913734088025929,0.0
0.0122462982538788,-0.7757528624006191,0.0089969541891953,-2.386940619188766,-0.0087509206768835,1.563226962437369,0.7913754775913013,0.0
0.0122479844752869,-0.7757450301248217,0.0089958317897893,-2.3890521566702074,-0.0087513468492226,1.564084411709319,0.7913725881135886,0.0
0.0122443003124402,-0.7757260966288354,0.0089940374005809,-2.3913541870376185,-0.008752104508732,1.5651024285984714,0.7913781989633839,0.0
0.0122480107746099,-0.7757029140694917,0.0089986682476162,-2.39360890461736,-0.0087521045094003,1.5661467217900544,0.7913718038290185,0.0
0.0122518541613919,-0.77569577567442,0.008997200583062,-2.395977232859884,-0.0087495061637994,1.56730034174404,0.7913815453584372,0.0
0.0122518541613919,-0.77569577567442,0.008997200583062,-2.395977232859884,-0.0087495061637994,1.56730034174404,0.7913815453584372,0.0
0.0122462982538788,-0.7756742201510217,0.0089976437396994,-2.401065623701982,-0.0087528621634641,1.5699984929469557,0.7913765016103397,0.0
0.0122462982538788,-0.7756742201510217,0.0089976437396994,-2.401065623701982,-0.0087528621634641,1.5699984929469557,0.7913765016103397,0.0
0.0122443003124897,-0.7756370639894417,0.0089931413049375,-2.403386267939049,-0.0087521045094003,1.5712887030207427,0.7913780401942834,0.0
0.012242587793095,-0.7756113339909705,0.0089871574343422,-2.4058516963533547,-0.0087481490887465,1.5727421428660076,0.7913766791105047,0.0
0.0122497223212921,-0.7756383534669709,0.0089996304554506,-2.4082616418971563,-0.0087498310417504,1.5741385992811068,0.7913814271356805,0.0
0.0122497232953411,-0.7756549729010954,0.0089978994238578,-2.410930980004253,-0.0087490502304264,1.5758107646896178,0.7913741979168145,0.0
0.0122480370816037,-0.7756681065602762,0.0090017460582784,-2.4135736842923587,-0.0087521001409367,1.5776523327701395,0.79137764881095,0.0
0.0122517241591947,-0.7756601973685991,0.0090010630895269,-2.416269570477474,-0.008750601852711,1.5795732142679884,0.7913765891725985,0.0
0.0122443003499694,-0.7756006000415469,0.0089972503997811,-2.418859180443773,-0.0087528495031278,1.5815231594158203,0.7913782886796232,0.0
0.0122462982538953,-0.775577762399904,0.0089969600470921,-2.421557794378553,-0.0087524120753867,1.583578470191731,0.7913815586125634,0.0
0.0122497536079202,-0.7755072952731508,0.0089911956057519,-2.4244848313379173,-0.0087505891899109,1.5859145069791676,0.7913817813866542,0.0
0.0122462982538849,-0.7754701644036507,0.0089919056476215,-2.427388822766037,-0.0087543278668165,1.588133812084871,0.7913815453146249,0.0
0.0122443003124897,-0.7754499171345182,0.0089891515603996,-2.42999810414132,-0.0087553001815802,1.5900612364360274,0.7913780059724715,0.0
0.0122443003126382,-0.7753587665158538,0.0089912587103219,-2.4325637210421664,-0.0087521045094012,1.5921021439767646,0.7913815454209494,0.0
0.0122425877917585,-0.7753425206081872,0.0089969245255739,-2.435362592523207,-0.0087527437878086,1.5942824583251505,0.7913857938388447,0.0
0.0122497496063885,-0.7753724374264117,0.0089955169394758,-2.4381237955082518,-0.0087519729744643,1.5963569860730162,0.7913829416543919,0.0
0.0122480107870898,-0.775355165597981,0.0089969884663176,-2.440857353280669,-0.0087535802969017,1.5985052135302065,0.7913824766334382,0.0
0.0122509308503097,-0.7753619071460884,0.00899775275865,-2.443644459430657,-0.0087521040222338,1.6007192344885477,0.7913832344645275,0.0
0.0122480107750618,-0.7753251173506711,0.0089932857539417,-2.446240847073512,-0.0087528621611624,1.6027640264474736,0.7913831452572857,0.0
0.0122443003124897,-0.7753098056431487,0.0089954140457952,-2.4490018099818327,-0.0087513468493219,1.6050178241880464,0.7913841586908471,0.0
0.0122481189255618,-0.7753142233272904,0.0089950406125932,-2.4516283617633268,-0.0087521045093755,1.6070296547586709,0.7913880028367783,0.0
0.0122425848696133,-0.7752808397193326,0.0089957495248685,-2.454051198174375,-0.0087542174066348,1.6087884314620853,0.7913990945866077,0.0
0.0122484382150562,-0.7752830806099,0.0089917588718095,-2.456458038403809,-0.0087521045093919,1.6106427701674266,0.7913957704835123,0.0
0.0122425887661099,-0.7752655598791162,0.0089937508219433,-2.4587778094153103,-0.0087505890268548,1.6124604925798076,0.7913936437280359,0.0
0.0122484291079042,-0.7752728438577952,0.0089935356634727,-2.4610329548419183,-0.0087470376916219,1.614243114450959,0.7913975801691252,0.0
0.0122498025424203,-0.775309522901611,0.0089969508406353,-2.4634999857710604,-0.0087505891712,1.6163038980604416,0.7913959711466827,0.0
0.0122491394090586,-0.7753043915482712,0.008996979697124,-2.4658946899982666,-0.0087544681887972,1.618297541328116,0.7913992706185992,0.0
0.0122480370815985,-0.77530586675337,0.0089993331366868,-2.4682603640033403,-0.0087527290106491,1.6203052268720306,0.7914015859601656,0.0
0.012242590726852,-0.7752623150834703,0.0089919699893018,-2.470549513667545,-0.0087521045027203,1.622288959409832,0.7914047423515744,0.0
0.0122497232966777,-0.7752558960526448,0.0089955044153176,-2.472852948267346,-0.0087528577843123,1.6242996411583046,0.7914055802103706,0.0
0.0122464342142589,-0.7752411527791505,0.0089919985841547,-2.475227988637452,-0.0087528621674738,1.626347697869614,0.7914000333838872,0.0
0.0122463772831048,-0.7752496958893915,0.0089910482668138,-2.47755902077674,-0.0087536191799769,1.6282403132139318,0.7914038376936696,0.0
0.0122487561767504,-0.7752169078131016,0.008995467708846,-2.479655007671305,-0.0087536198295487,1.6300173526724604,0.7914046033199291,0.0
0.0122443003260201,-0.775185231277981,0.0089892303597918,-2.4816907148811707,-0.0087528227089962,1.6316529618754525,0.7914044400068946,0.0
0.0122463245622036,-0.7751413547449385,0.0089893853159946,-2.4836634191468185,-0.0087521045094003,1.6332636114765675,0.7914078280440634,0.0
0.0122443032476657,-0.7751302126312676,0.0089909438716027,-2.485520651742177,-0.008751981743455,1.634743502469033,0.7914076320260878,0.0
0.0122463859604721,-0.7751595478354835,0.0089947947876215,-2.48748593323689,-0.0087520999624391,1.6363391095649993,0.7914056823041384,0.0
0.012248019555685,-0.7751846416912951,0.0090032089309164,-2.489611883673768,-0.0087513467771491,1.6381002879214384,0.791411200124954,0.0
0.0122499994700904,-0.775173987343173,0.0089940403611932,-2.4916980642472693,-0.0087534882946156,1.6398210584791466,0.7914171639112237,0.0
0.0122443280443791,-0.775148758920605,0.0089911209063776,-2.493768322817168,-0.0087519861279503,1.641511320126939,0.7914159536506624,0.0
0.0122443280443791,-0.775148758920605,0.0089911209063776,-2.493768322817168,-0.0087519861279503,1.641511320126939,0.7914159536506624,0.0
0.0122480370857563,-0.7751160597916446,0.0089901836142262,-2.495815451606524,-0.008752064994714,1.643224145279111,0.7914191532841156,0.0
0.0122498064428703,-0.7750586362456919,0.0089916721268715,-2.4977532615504257,-0.0087521045032869,1.644825228550992,0.791418871441204,0.0
0.0122425908244104,-0.7750546595966501,0.0089870687580469,-2.499802686286036,-0.0087521045093994,1.6464528452125256,0.7914319225347263,0.0
0.0122534465721106,-0.7750519735059558,0.008999094962015,-2.5017273698747484,-0.0087510390703523,1.6479734134141208,0.7914302187375807,0.0
0.0122405898674058,-0.7750478810887022,0.0089938089972388,-2.503769886175065,-0.0087513468466488,1.649702218428459,0.791431031451226,0.0
0.0122501416408263,-0.7750318451734981,0.0089930123149828,-2.5057154682558087,-0.0087504279141272,1.6513063162032682,0.791436277204338,0.0
0.0122465743162224,-0.7750331319414346,0.0089951388999933,-2.507417804058045,-0.0087528626564753,1.6526780553400249,0.7914333806713566,0.0
0.01224292979469,-0.7750402918916544,0.0089913701488038,-2.50919644922812,-0.0087521040222338,1.6541659289554198,0.7914359190336889,0.0
0.0122521829945369,-0.7750567173707108,0.0089990950731859,-2.510944952748773,-0.0087527436247515,1.6557198726693203,0.7914351613742998,0.0
0.0122434075845618,-0.775072840830255,0.0089933265499156,-2.5127958815246303,-0.008751986127953,1.6573870741439236,0.7914346528798394,0.0
0.0122485081625356,-0.7750650908143185,0.0089979067698774,-2.514692620769194,-0.0087545423651274,1.6591714779644544,0.7914346305498907,0.0
0.0122474576364603,-0.7750518864107626,0.0089910190390343,-2.5168447876160807,-0.0087528621634636,1.661201900130215,0.791443885397496,0.0
0.0122501445772401,-0.7750299692922054,0.0089892278099803,-2.518964294611014,-0.0087532646310856,1.66324713809285,0.7914449647005024,0.0
0.012246301658549,-0.7750190611196082,0.0089911708866086,-2.5210318393095466,-0.008752862007065,1.6651258059348195,0.7914530701245688,0.0
0.012248364506972,-0.7750014325424662,0.00899324773352,-2.523198703075608,-0.0087528490159845,1.6670320995504595,0.7914628546815228,0.0
0.0122463785862401,-0.7750092868196662,0.0089898715749435,-2.5253911943518093,-0.0087520913498835,1.6689709019066343,0.7914570218280711,0.0
0.0122528929452266,-0.7750075232380034,0.008999349231064,-2.527605861786947,-0.0087528621694676,1.670972469421144,0.7914673128285138,0.0
0.0122522092696307,-0.7750140716638093,0.0089952562921269,-2.529730602663008,-0.0087528621692559,1.6728516428342124,0.791467149388307,0.0
0.0122434150182773,-0.774995691826671,0.0089968767457214,-2.5318666327898827,-0.0087484989842693,1.674750822090719,0.7914773492647534,0.0
0.0122512037771996,-0.774998437045546,0.0089938077817769,-2.5338550152283736,-0.0087513468492968,1.676497210222558,0.7914742317183024,0.0
0.0122432981305456,-0.7749918363008975,0.008989867931702,-2.5358409020895247,-0.0087528621694759,1.6783533015678989,0.7914822065236442,0.0
0.012252603537162,-0.7750092102792172,0.0089954867588354,-2.5377167227377364,-0.0087521040222338,1.6800718323605792,0.7914782754006789,0.0
0.0122467775532694,-0.775024825415563,0.0089849384779302,-2.539838666296532,-0.0087509916989657,1.6820466209846758,0.7914820452747777,0.0
0.0122494671218923,-0.7750263328830928,0.0089931497969389,-2.5420780321187557,-0.0087502813982533,1.684129396593279,0.7914866262891027,0.0
0.0122528142580564,-0.7749964263812797,0.0089931500832378,-2.544264728921339,-0.0087502813561523,1.6860220602901723,0.7914889722035515,0.0
0.0122450460560007,-0.7749886401006959,0.0089919933678888,-2.546371822730638,-0.0087513332084355,1.687810323356619,0.7914901839198292,0.0
0.012244654469083,-0.7749836279646971,0.0089970331096123,-2.548483104220188,-0.0087502808747695,1.689694348028916,0.7915029131491993,0.0
0.0122526000131759,-0.7749762958791448,0.0089958547040392,-2.5506850202679283,-0.0087528621694785,1.691729709490776,0.7915091937173375,0.0
0.0122494945516164,-0.7749848775308301,0.0089931450226836,-2.552828147555618,-0.0087525070251368,1.6937380737728351,0.791506129191373,0.0
0.0122473333622962,-0.7749868843022194,0.0089937245630702,-2.554983486483381,-0.0087502814162965,1.6958311469137228,0.79151489001272,0.0
0.0122474962826292,-0.7749623604101612,0.0089916716818129,-2.557260363859869,-0.0087525070251285,1.698135886404169,0.791526914150886,0.0
0.0122464315529925,-0.7749162070437146,0.0089873844541826,-2.5593856997377387,-0.0087528621694786,1.7002265898751745,0.7915507629999814,0.0
0.0122522063822158,-0.7748793403502965,0.0089921826072621,-2.561389336732796,-0.008751981743455,1.702256729047607,0.7916275558649004,0.0
0.0122522063822158,-0.7748793403502965,0.0089921826072621,-2.561389336732796,-0.008751981743455,1.702256729047607,0.7916275558649004,0.0
0.0122529397281704,-0.7748878976928341,0.0089918793270334,-2.5655512790854544,-0.0087530138914754,1.7062467974526778,0.791835967727504,0.0
0.0122529397281704,-0.7748878976928341,0.0089918793270334,-2.5655512790854544,-0.0087530138914754,1.7062467974526778,0.791835967727504,0.0
0.0122509384900224,-0.7748941595514711,0.0089961272218134,-2.567798952046671,-0.0087512284738855,1.7082759141207604,0.7919475192668197,0.0
0.0122558858574347,-0.7748629117607134,0.0089940121856906,-2.572231775005817,-0.0087521001249022,1.7123698407950747,0.7920810962042766,0.0
0.0122558858574347,-0.7748629117607134,0.0089940121856906,-2.572231775005817,-0.0087521001249022,1.7123698407950747,0.7920810962042766,0.0
0.0122519263271054,-0.7748469388493743,0.0089891777460842,-2.574415029459419,-0.0087528620070898,1.7143727040107346,0.7921040622488913,0.0
0.0122558740419826,-0.7748293510775887,0.0089894451201548,-2.5765694673755104,-0.0087513468673616,1.7164282853191286,0.7921328434980618,0.0
0.0122556231011704,-0.7748347333198242,0.0089951723792022,-2.5786854430437063,-0.0087513467951923,1.7184359015349762,0.7921830079238485,0.0
0.0122575870444452,-0.7748435132352927,0.008991019364426,-2.580878223636338,-0.0087513468433075,1.7204968119080482,0.7922401849953618,0.0
0.0122613092020999,-0.7748238917996251,0.0089961282463912,-2.582955253132614,-0.0087521045094003,1.7225110630593783,0.7922840935276783,0.0
0.0122558862197789,-0.7747920432933643,0.0089911719746687,-2.584893282531186,-0.0087513424648239,1.7242823695938347,0.7923240337407536,0.0
0.0122575987399216,-0.7747733093544044,0.0089938122184848,-2.586798767695657,-0.0087521045093755,1.7259494580925103,0.7924053055771966,0.0
0.0122578472313874,-0.7747855313663633,0.0089951711953214,-2.588676524139525,-0.0087513336958278,1.727656686513422,0.792450529138568,0.0
0.0122576104291037,-0.7747998491833495,0.0089901594545441,-2.5904666490349064,-0.0087513468493192,1.7292975066234897,0.7924859165535275,0.0
0.012253897153064,-0.7748109391613682,0.0089899408006637,-2.5924638887911047,-0.0087480277843005,1.7311478391872188,0.7925139814549141,0.0
0.0122593113708106,-0.7748073986307362,0.0089951457779671,-2.5944674284884277,-0.0087505891892426,1.733076590430009,0.7925437585877682,0.0
0.0122558862198339,-0.7747875687959861,0.0089930912005049,-2.5966884311791603,-0.0087513468492972,1.7353383056266152,0.7925678671452152,0.0
0.0122580427644415,-0.7747787698090188,0.0089940123705811,-2.59878315366961,-0.008749831528497,1.7374857367101089,0.7926068291271936,0.0
0.0122580164651076,-0.774773454203313,0.0089961795266568,-2.601022886957421,-0.0087504703206299,1.7397845822719131,0.7927109945643347,0.0
0.0122586638612684,-0.7747712685513561,0.0089901787563896,-2.6032826207192272,-0.0087513336958278,1.742088146398752,0.7927875665490401,0.0
0.0122590815514449,-0.7747638485344647,0.0089972792915202,-2.605465448538986,-0.0087513467931875,1.7442765674344909,0.7928293648917815,0.0
0.0122570748275982,-0.7747638485346133,0.0089923404788179,-2.6077614323630747,-0.0087505891892436,1.746435185452545,0.7929042596858231,0.0
0.012259081588869,-0.7747299404232448,0.0089923155807071,-2.6099924424764214,-0.0087528607079793,1.7486762915325609,0.7929734222323327,0.0
0.0122607941082691,-0.7746525492407251,0.0089891781885196,-2.6119536696524643,-0.0087489077231577,1.7506399119902898,0.7930196171100062,0.0
0.0122588448936303,-0.7746125264373448,0.0089892260516434,-2.6139551676554005,-0.0087489082083191,1.7525795533197988,0.7930556730384498,0.0
0.0122590815353782,-0.774609265116114,0.0089871480054396,-2.6159032022672304,-0.0087505877277439,1.7544259510876292,0.7930862581998994,0.0
0.0122600840265461,-0.7746259077438871,0.0089951681675884,-2.6179343335518546,-0.0087502340448991,1.756440005886007,0.7931063390692705,0.0
0.0122644167972152,-0.7746328963792701,0.008989415478899,-2.6199638894966357,-0.008750589188996,1.7584383226746043,0.7931361688553801,0.0
0.0122645308648163,-0.7746216467482617,0.0089910111966491,-2.622198835891451,-0.0087513468493219,1.7606663257972004,0.7931535985196725,0.0
0.0122570047486178,-0.7746089271837737,0.0089891846116089,-2.6243873765508448,-0.0087513468493219,1.7628231147210842,0.7931972198310572,0.0
0.0122590815875379,-0.7745908467808316,0.0089913087338894,-2.626392293391955,-0.0087512153083661,1.7646162328070123,0.7932537141781544,0.0
0.0122569517754058,-0.7745568573712482,0.0089891616524318,-2.6284412668143804,-0.0087506938889914,1.7664618959255525,0.7932942418225276,0.0
0.0122590815875373,-0.7745566773276157,0.0089910130487948,-2.6304479394745703,-0.0087512284678747,1.7683532753984748,0.7933339237791335,0.0
0.0122625066290003,-0.7745613132818162,0.0089878095453902,-2.632570677526432,-0.0087513466909159,1.7704017476356522,0.7933670568951581,0.0
0.0122625066290003,-0.7745613132818162,0.0089878095453902,-2.632570677526432,-0.0087513466909159,1.7704017476356522,0.7933670568951581,0.0
0.0122570875440745,-0.7745087878215987,0.008990969235791,-2.6367292773852498,-0.0087513468493219,1.7744819738459574,0.7934313882875158,0.0
0.0122570875440745,-0.7745087878215987,0.008990969235791,-2.6367292773852498,-0.0087513468493219,1.7744819738459574,0.7934313882875158,0.0
0.0122617411598472,-0.7744148866010906,0.0089891835933995,-2.638731386002369,-0.0087498315291652,1.776498901167156,0.7934635220543873,0.0
0.0122612126099633,-0.7743519340975392,0.0089894655106337,-2.640657233767877,-0.0087513454960503,1.77849358288833,0.7934809193747485,0.0
0.0122593180310962,-0.7743291624167934,0.0089894146289476,-2.642643111846648,-0.0087490733819204,1.780543583497206,0.7935056971643737,0.0
0.0122590903578877,-0.7743291264172114,0.0089910131769524,-2.644935610389512,-0.0087505716512514,1.7828989015633248,0.7935276864566037,0.0
0.0122629260930503,-0.7743286306771489,0.0089891868514342,-2.647408789166515,-0.0087473928901675,1.7852272652258592,0.7935947073516748,0.0
0.0122591089051657,-0.7743006630203891,0.0089881211514389,-2.6499476652015224,-0.0087519861279527,1.787675011636379,0.7936509155181446,0.0
0.0122561908766434,-0.7742920503397079,0.0089873176231115,-2.652506990370504,-0.0087505891892436,1.7901238981170682,0.7936897095591923,0.0
0.0122612127917538,-0.774196622431489,0.0089919925947155,-2.6549684709530603,-0.0087513468473171,1.7925411781690106,0.7937154033794238,0.0
0.0122625420658508,-0.7741137459118598,0.0089909578250069,-2.657667925285065,-0.0087505891890208,1.7952795391137983,0.7937295073178382,0.0
0.0122625976917025,-0.7740776389124804,0.0089891524096096,-2.660350055335332,-0.0087505843175791,1.7979994260125725,0.7937485810739779,0.0
0.0122592535390007,-0.773999945305705,0.0089901759398439,-2.663014695093445,-0.008751347336391,1.8007027609966826,0.7937662042882282,0.0
0.0122621986033972,-0.7738615182018503,0.008991642503801,-2.665734445757177,-0.0087505760357494,1.8034161112636096,0.7938231993280752,0.0
0.0122639900825126,-0.773739709208949,0.008990960857224,-2.668441563610343,-0.0087505891892436,1.8061151127318875,0.793900195741697,0.0
0.012267700851549,-0.7736676836406169,0.008989910852784,-2.671156923049013,-0.0087498315291652,1.8089719622954243,0.7939560313210796,0.0
0.0122602799452249,-0.7735790203291703,0.0089881578742655,-2.674042276905117,-0.0087490738690841,1.8118986370273191,0.7940291044432615,0.0
0.0122602799572447,-0.773488719218351,0.0089816692180194,-2.676999776589952,-0.0087498315291652,1.815128962336551,0.7940747541207511,0.0
0.0122640956407134,-0.7732879326306806,0.0089870697096642,-2.6801360875568383,-0.0087513468493219,1.8185396648949312,0.7941569523062857,0.0
0.0122622808102456,-0.7730213065597604,0.0089853679971366,-2.6833858572863063,-0.0087498315289425,1.82209081837606,0.7942272912308349,0.0
0.0122639907841378,-0.7727155148238355,0.0089892817580394,-2.686697848647829,-0.0087498315291652,1.825651312425332,0.7943013927790812,0.0
0.0122671765377164,-0.7723413067194954,0.008992016302178,-2.689823182396619,-0.0087459959284625,1.8291886270009183,0.7943760022563613,0.0
0.0122643410690133,-0.7719385266431428,0.0089920258376038,-2.693037778930679,-0.0087513470116789,1.8328036560673064,0.7944429857766199,0.0
0.0122631496438785,-0.7715203373181813,0.0089912895915238,-2.696257377610938,-0.0087474503117019,1.836558671500596,0.7945268582482387,0.0
0.0122653930518537,-0.7710726929425767,0.0089832336449634,-2.6996350715953805,-0.008745877407622,1.8405349247968803,0.7946200190971401,0.0
0.0122668408129889,-0.7704899410628595,0.0089862872563669,-2.7030185031613705,-0.0087498313667761,1.84432292646388,0.7947486772772895,0.0
0.0122634723547555,-0.7698155448173953,0.0089842450060826,-2.706351023876062,-0.0087498315291652,1.848242015903983,0.7948049699149545,0.0
0.0122654731100084,-0.7689597287191987,0.0089835549295787,-2.709676284701461,-0.0087498709819825,1.8523587057599915,0.7949480466316492,0.0
0.0122671857750987,-0.7679222599159787,0.0089832033813024,-2.713032572699664,-0.0087490753303024,1.856821037676955,0.795067562078673,0.0
0.0122634753129729,-0.7668412961048383,0.0089892873298989,-2.716132875687044,-0.0087539017643902,1.8611072272492477,0.7952000901413852,0.0
0.0122654761765145,-0.7656357631981711,0.0089863474199864,-2.719266008134636,-0.0087498315291656,1.8653746993883005,0.7953077624838261,0.0
0.0122654761765145,-0.7656357631981711,0.0089863474199864,-2.719266008134636,-0.0087498315291656,1.8653746993883005,0.7953077624838261,0.0
0.0122638288932633,-0.7632011091851559,0.008990149937232,-2.725173620462265,-0.0087482079718548,1.873819914019193,0.7955751564664851,0.0
0.0122638288932633,-0.7632011091851559,0.008990149937232,-2.725173620462265,-0.0087482079718548,1.873819914019193,0.7955751564664851,0.0
0.0122679574165338,-0.7619153858309898,0.0089880461037477,-2.7283913646353906,-0.0087466970353689,1.8784405760176377,0.7957338430510053,0.0
0.0122675406937056,-0.7605360403508958,0.0089822390991112,-2.7313274726450816,-0.0087474519355716,1.882581933884319,0.7958472928473257,0.0
0.0122662187666226,-0.7590348645266681,0.0089815291363968,-2.7343746940360223,-0.0087518491195056,1.8870057825317208,0.7959698636013834,0.0
0.0122655005397871,-0.7575186498989059,0.0089814235658435,-2.737310866822747,-0.0087511179364593,1.891365939200706,0.7961173412026985,0.0
0.012265552260565,-0.7557828014026007,0.0089832062549373,-2.740389107258917,-0.0087521238450105,1.896315639122946,0.7962517549762734,0.0
0.0122659211620661,-0.7540221941699886,0.0089814265133418,-2.743169282656591,-0.0087522438291419,1.9008522799739256,0.796406087444763,0.0
0.0122671864262469,-0.7524382300628238,0.0089873064710187,-2.745882044330598,-0.0087554926542879,1.905115480278455,0.7965671643504283,0.0
0.0122654732543675,-0.7507453901061185,0.0089832063631532,-2.748726613637535,-0.008753249043886,1.9096449619883484,0.7966990069282941,0.0
0.012265236560458,-0.7491595540402763,0.0089855237798929,-2.751679755298388,-0.0087536041213225,1.9142506414980347,0.7968831418300399,0.0
0.0122671857750931,-0.7477193981493652,0.0089852773157767,-2.7545545582518174,-0.0087609367423593,1.9186512605712536,0.7970677224700254,0.0
0.0122585684513204,-0.746172050544433,0.0089791158671112,-2.7572827070526147,-0.0087620236188795,1.9227041346617508,0.7972183128045925,0.0
0.01226027848974,-0.7445487716277525,0.0089767427855704,-2.760039744610893,-0.0087631912248677,1.9270696528443891,0.7973952561558849,0.0
0.012254198915651,-0.7428347689567696,0.008974365744627,-2.7626112023961937,-0.00876631452982,1.93140205703224,0.7975587270580508,0.0
0.0122570836640429,-0.7408572511333629,0.0089722872521666,-2.7650972682416257,-0.0087743512244066,1.9359532118940883,0.7977597588924992,0.0
0.0122590806094805,-0.7388820193454031,0.0089778799809876,-2.7675892946896434,-0.0087773359141533,1.94069508663126,0.7979805806068189,0.0
0.0122607940000414,-0.737063158765086,0.0089782292923858,-2.7697319973590746,-0.008783256012285,1.944677461066556,0.7981927706996518,0.0
0.0122576896937766,-0.7352946131153008,0.0089838733540254,-2.771807254508855,-0.0087884550542298,1.9487138667945616,0.7984312905118869,0.0
0.0122579154165002,-0.7332382250323085,0.0089841279390196,-2.773861242496188,-0.0087906255746969,1.9529941449802,0.7986491933248244,0.0
0.0122630217228311,-0.7312587380693119,0.0089821699357181,-2.7758453342260627,-0.0087964069499085,1.9572091551942088,0.7988784407126911,0.0
0.0122507182922999,-0.729240362214209,0.0089715756648518,-2.77779411785245,-0.0088035392022047,1.961380151452782,0.7991149596667833,0.0
0.0122359725852085,-0.7269913913475013,0.0089650977982252,-2.779786958016342,-0.0088091495577983,1.965789269890488,0.79930622016534,0.0
0.0122384235956821,-0.7247078545555433,0.0089533008524544,-2.7815137734446127,-0.0088159845883117,1.970015867392364,0.7995814982726411,0.0
0.0122267274432645,-0.7224630395541634,0.0089517781731432,-2.783184008998832,-0.0088237632499322,1.9744415255051324,0.799744184871451,0.0
0.0122239556460358,-0.7200738856315965,0.0089608723116268,-2.784844267569118,-0.0088375419808795,1.978937875333844,0.7999659766718278,0.0
0.0122252223897341,-0.7177640020877523,0.0089710890458387,-2.786308774531394,-0.0088460643790565,1.9829742688733616,0.8001872742691237,0.0
0.0122241580534355,-0.7152915467441663,0.0089718090784756,-2.7877464781894115,-0.0088659174040414,1.987257182499349,0.800359725010218,0.0
0.0122230421455873,-0.712658200258946,0.0089655627827658,-2.7889875678883858,-0.0090721804676534,1.991445928262447,0.8006133069233796,0.0
0.0122048504545713,-0.7101218246499795,0.0089629606185885,-2.7900198544594823,-0.0093827844935344,1.9954484923187237,0.8009418651263915,0.0
0.0121773311768464,-0.7075406423034816,0.0089517456191639,-2.791000182072426,-0.0095515378306135,1.99932863084399,0.8010798259330291,0.0
0.0120948539276625,-0.7046397692043129,0.0089425609035853,-2.7918157332972475,-0.0096902780687469,2.0031969479638767,0.8012508580367097,0.0
0.0119816556513354,-0.7016501545429034,0.0089289974069653,-2.792397808339738,-0.00983636297614,2.0070717987718623,0.8014010774763529,0.0
0.0118555677766709,-0.6985572390718066,0.0089151613744457,-2.7928675348364185,-0.0099744065144615,2.0111248849631886,0.8014965166430348,0.0
0.0117393511115481,-0.6954137144011141,0.0089154402303745,-2.7931554042976163,-0.0101001996854928,2.015065901173257,0.8016088743902336,0.0
0.0115978957798343,-0.6918928803727873,0.0089213703077756,-2.793208916229681,-0.0102042861012986,2.0190107448942007,0.8016802507362208,0.0
0.0114427624292823,-0.6884186934461793,0.0089300670704205,-2.7931602722936755,-0.0102971995060265,2.0226893878885237,0.8018012223436959,0.0
0.0112521853876458,-0.6849807119071365,0.0089214590822619,-2.7931836430082053,-0.0103947998361753,2.026661059028048,0.8018696764896123,0.0
0.0109909400917336,-0.6816187706535111,0.0089154280510405,-2.793183183745521,-0.0105440098964487,2.0304948651359065,0.8018948345285637,0.0
0.0106816100775128,-0.6779263238471817,0.008901230376468,-2.793163661477945,-0.0106888448995571,2.034532334482843,0.8019023831193777,0.0
0.0103866440290083,-0.6742345270162515,0.008828996553937,-2.7931846881530658,-0.0108839531630665,2.038595721069449,0.8019009986195212,0.0
0.0100648132068607,-0.6705349757530217,0.0087270653412457,-2.7932096668807174,-0.0111505745277888,2.042724260376904,0.8019010388199415,0.0
0.009679130974991,-0.6670307975832941,0.0086471155522196,-2.793145341603124,-0.0113682146732234,2.0466251058345573,0.8018962100208397,0.0
0.009679130974991,-0.6670307975832941,0.0086471155522196,-2.793145341603124,-0.0113682146732234,2.0466251058345573,0.8018962100208397,0.0
0.0092336272418333,-0.6629749499149348,0.0085735915269279,-2.793132792034056,-0.0115804187678164,2.051298594322567,0.8019016291872012,0.0
0.008754930112604,-0.6587704269001841,0.0085505899193679,-2.7931642264105268,-0.011863521789778,2.0562656402501767,0.8019034727923515,0.0
0.0082330735993672,-0.6548276465281012,0.0085219391693066,-2.7931608251126803,-0.0120926063645384,2.0607840532197272,0.8018923830615033,0.0
0.0077458074994622,-0.6508976236322556,0.0084963786156409,-2.793120195042065,-0.0123132601851715,2.0651781742922544,0.8018914488003868,0.0
0.0072986682842221,-0.6466325008818726,0.0084267370541577,-2.7931480319821715,-0.0125619051677616,2.0699020739043354,0.8018953853688741,0.0
0.0068045438721653,-0.6422892089660559,0.0083359577307489,-2.7931658674103983,-0.0128160899677064,2.074961732760542,0.8018953453322465,0.0
0.0062294162212117,-0.6378094260207912,0.0082907460760008,-2.7930286614437945,-0.0131226942540867,2.07976154936819,0.8018910998688478,0.0
0.0056509408934921,-0.633376578799864,0.0082152983866006,-2.79296387196656,-0.0133967381811144,2.0847229373240785,0.8018926514485403,0.0
0.0049995426407659,-0.6291705009134657,0.0081534362570666,-2.793004486672504,-0.0136871038878875,2.0897685965446566,0.8018874814111218,0.0
0.0042113184206852,-0.6247230345985374,0.0081216658422479,-2.792917877957816,-0.0139865857827012,2.0948175023105766,0.8018708893802328,0.0
0.0033050371881331,-0.6197952427416298,0.0081021519522701,-2.7929355052756155,-0.0143537037456931,2.100457203938125,0.8018584899534545,0.0
0.0023422306025437,-0.6150905833622344,0.008068410597285,-2.792976422329268,-0.0147948958635958,2.105898613325365,0.8018478418962781,0.0
0.0012596996328059,-0.6100696919661175,0.0080387129996955,-2.792806362097292,-0.015281189261187,2.1114867286213728,0.8018099985128586,0.0
-6.136550444353343e-06,-0.605049827822869,0.0080388026339344,-2.7926782784284168,-0.0158466523766515,2.1172879178454567,0.8017111190593019,0.0
-0.0012827624590675,-0.6006241689803359,0.0079947976257072,-2.792690756035249,-0.0164292444664737,2.1224951274272605,0.8015399278929707,0.0
-0.0027110199853415,-0.5954629395874895,0.0079296168627747,-2.792599450972234,-0.017046029710136,2.128296432268027,0.8013249137514189,0.0
-0.0042761846477401,-0.5902503810284051,0.007900502198785,-2.792605067052679,-0.0177205461007928,2.134591962669884,0.8010673087338229,0.0
-0.0059435802635682,-0.5850505702106358,0.007859502096815,-2.7925242106064,-0.0184633966140689,2.140517624179539,0.8006765015882322,0.0
-0.0075796942927276,-0.5798983514855685,0.0078339742843373,-2.7923403350393325,-0.0191855338582543,2.146372275723489,0.8003250676120197,0.0
-0.0094392095361935,-0.5748615108823107,0.0078085276829122,-2.79222903423636,-0.0199742118371438,2.152328555141513,0.7999335608547161,0.0
-0.0112633401911058,-0.569756625750389,0.0077309567831794,-2.792083287228304,-0.020749095637996,2.1579541812265024,0.7994142521846784,0.0
-0.0133254100744413,-0.5643324370118789,0.0076676879332549,-2.7919199326906705,-0.0216054045585753,2.164047692375695,0.7987875491170515,0.0
-0.0154333620756157,-0.5590009348159843,0.0075543557882486,-2.7918006690557813,-0.0225188268604701,2.1703555734307742,0.7980176814460929,0.0
-0.0174244523111919,-0.5536741674240822,0.0073899679882381,-2.791604966828708,-0.0232966484866929,2.17658872976316,0.7972111993958714,0.0
-0.0194919986760227,-0.5485310138555517,0.0071552012952845,-2.79142473693478,-0.0241229802917084,2.1826487580935066,0.7962188047189929,0.0
-0.0216234518422738,-0.5430732324161327,0.0069054760702009,-2.7911411665254464,-0.0248229065269137,2.1887341146378194,0.7951672660845824,0.0
-0.0237825045381057,-0.5377951422500636,0.0067132603228441,-2.7908673402445414,-0.025541146358853,2.194820347997663,0.7940136791582819,0.0
-0.0262226834440132,-0.5323732802221305,0.0065856615717135,-2.790497185816834,-0.0261899931092765,2.200958682879215,0.7927036774926554,0.0
-0.0287712842179697,-0.527006635596863,0.0065468628965334,-2.789981025699349,-0.0268247613175005,2.206977498696932,0.7912850250130362,0.0
-0.0316062178682774,-0.5218831993657848,0.0065205568205354,-2.789541930502497,-0.0274125291848652,2.2132431197523705,0.7896905746048847,0.0
-0.0316062178682774,-0.5218831993657848,0.0065205568205354,-2.789541930502497,-0.0274125291848652,2.2132431197523705,0.7896905746048847,0.0
-0.0374337687374478,-0.511158700125823,0.0064677693286642,-2.7881961677542573,-0.0288552424755766,2.224757313998314,0.7865321773959424,0.0
-0.0374337687374478,-0.511158700125823,0.0064677693286642,-2.7881961677542573,-0.0288552424755766,2.224757313998314,0.7865321773959424,0.0
-0.0406351851562527,-0.5056870594783672,0.0064176788492567,-2.7872738268462074,-0.0296699925757499,2.230603217605493,0.7849198340604134,0.0
-0.043660930129801,-0.5003179217139008,0.0063027656792555,-2.7861398878378485,-0.030473295650496,2.2360375965630968,0.7832794420267695,0.0
-0.0467548721302357,-0.4951454457890837,0.0060984122957283,-2.7848691627101245,-0.03137627977162,2.241160588907969,0.7815706456557224,0.0
-0.0497342573130846,-0.4897480060011967,0.0058874948673867,-2.783347701139381,-0.0322577482498582,2.24604337909567,0.7800174665979636,0.0
-0.0528426591900474,-0.4842914312599553,0.0057123978407995,-2.781729237356217,-0.033127731440087,2.251114560114397,0.7785056336435288,0.0
-0.0561743415590526,-0.4784384600068918,0.0055371269730528,-2.779728361594352,-0.0341135420676428,2.256168230912573,0.7764950115214507,0.0
-0.0595946370451359,-0.4727218629108916,0.0054198507659119,-2.7775491659412888,-0.035095563085947,2.2609123468987584,0.7743511794324996,0.0
-0.0631167010828839,-0.4673910754237613,0.0051945015424687,-2.77546107169844,-0.0360452333462056,2.265389236995696,0.7721675838020338,0.0
-0.0668144612485582,-0.4615419354368389,0.0049245585411752,-2.773136141879028,-0.0370268642003195,2.269933508327316,0.7697830519319103,0.0
-0.0702239194743832,-0.4561473480399152,0.0045442580515935,-2.7707918341064293,-0.038105657006383,2.274155067130148,0.7676273659499655,0.0
-0.0736080715602944,-0.4502331641440439,0.0039017721233731,-2.767954011710159,-0.0394837574857774,2.27825286364373,0.7654343182890364,0.0
-0.076722075952567,-0.4447885768324216,0.0031485356875277,-2.7650775488872057,-0.0408553851614474,2.2819044570006817,0.7633787596440668,0.0
-0.0800477717646273,-0.4391007411564285,0.0022086149623379,-2.762082694503333,-0.0424856527292172,2.285743642122516,0.7613792869900501,0.0
-0.0832883667749137,-0.4332732827343549,0.0013846631827477,-2.7591496522222974,-0.0441289476259563,2.2896172441057123,0.7595176565133823,0.0
-0.0864453878806118,-0.4274929910499014,0.00056080127582,-2.7561391305959537,-0.0456444748940478,2.293407178111338,0.757302960475126,0.0
-0.0897754411479499,-0.421283844896248,-0.0004947140712622,-2.7527118407034004,-0.0469514325291698,2.297107665299368,0.7547293340451069,0.0
-0.0931120194708078,-0.4156259096282514,-0.0017543895784591,-2.7494378171199845,-0.0481867748453214,2.300601885143057,0.7518807161345038,0.0
-0.0963745274056476,-0.4094979293377019,-0.0031919383643517,-2.745901191473056,-0.0493805769894059,2.303901098505798,0.7489609675544759,0.0
-0.0993268820846984,-0.4036325604577302,-0.0046628121120262,-2.74234759779351,-0.0506910330201031,2.307080213425976,0.7462563798575496,0.0
-0.1021888579276856,-0.3974816359134678,-0.0062306356261028,-2.738437445410548,-0.0520536363118733,2.3100633797260985,0.7435513328251383,0.0
-0.1051709843657759,-0.3917173197530228,-0.0077658251985159,-2.7346607506224423,-0.0532935611325991,2.312910365265552,0.7410411608593859,0.0
-0.1081537237717834,-0.3858274484551564,-0.0093574120721731,-2.730794690069258,-0.0546831731618675,2.315292828380062,0.7382345358048185,0.0
-0.1112727990053267,-0.3793998616907711,-0.0110173635985478,-2.7266483070040404,-0.056153443750171,2.3180634347538502,0.7351951294935918,0.0
-0.1142590364674398,-0.3732202950322308,-0.0126074547975569,-2.7226752242240475,-0.0574179168879008,2.32098219544216,0.7323061624957431,0.0
-0.1172312890679499,-0.3670398448740788,-0.0142751549043151,-2.718562141551061,-0.0585923138044592,2.3239468034913817,0.7294166675129244,0.0
-0.1203774245269489,-0.3608458679696464,-0.0159528979743371,-2.7142072651204545,-0.059871931360536,2.3265792577035307,0.7263475763168366,0.0
-0.1233386237892149,-0.35445059437316,-0.0177889639162116,-2.7099076398876574,-0.0611349659199393,2.3292045009472604,0.7232816133626468,0.0
-0.126056233969504,-0.3479957919977828,-0.0197628832777869,-2.7056852395092537,-0.0625364182668107,2.3319844096714046,0.720578985255753,0.0
-0.1287724552454401,-0.3412286738635259,-0.0216354621520731,-2.7013017976735663,-0.0638923257541393,2.3347298794587563,0.7177595984483831,0.0
-0.1314349501354627,-0.3350105502431069,-0.023648624521998,-2.697150930985043,-0.064971364423328,2.337245570824662,0.7146023227954337,0.0
-0.1342196813280538,-0.3284526406836812,-0.0255828618521881,-2.69289645860698,-0.0659390678174092,2.339829188325213,0.7111273529288773,0.0
-0.136841878508043,-0.3220322920999948,-0.0274080731755195,-2.6885886050248518,-0.0667020157863129,2.3422048375212023,0.707876256321668,0.0
-0.1394033165703946,-0.3155404555538673,-0.0292183584404632,-2.6842058513076914,-0.0675292563961926,2.344579600147094,0.7049301152306324,0.0
-0.1421161304292949,-0.3092478600663912,-0.0310851191027227,-2.679956745461076,-0.06848801908546,2.3469140649504063,0.7019520496244562,0.0
-0.1447787123613746,-0.302616596084647,-0.0329762432545373,-2.6756012706413586,-0.0695310209783718,2.3490983164149464,0.6989091563673746,0.0
-0.1474366601880331,-0.2961429498806287,-0.0348567706802717,-2.671402038323043,-0.0703064144439336,2.351489825122368,0.6956046542049392,0.0
-0.1474366601880331,-0.2961429498806287,-0.0348567706802717,-2.671402038323043,-0.0703064144439336,2.351489825122368,0.6956046542049392,0.0
-0.1499619002637949,-0.2894914696851828,-0.0368968585785443,-2.667041564364437,-0.0708715543511578,2.353943290398376,0.6920303911122314,0.0
-0.1523622532427853,-0.2831710049655701,-0.039071965659623,-2.6626545854612758,-0.0715158367798026,2.3559853497355894,0.688758577319585,0.0
-0.1545772695649379,-0.2770713184824304,-0.0412705013724453,-2.6585109899845434,-0.0723535613192934,2.3578786006164023,0.6856879278454393,0.0
-0.1569876053860449,-0.2708278527616056,-0.0434476341693693,-2.654382284002195,-0.0731722472914496,2.359931492709532,0.6822897022227872,0.0
-0.1594038584830417,-0.2640717682826861,-0.045544014431256,-2.6500363968093565,-0.0740497706982548,2.362194071587235,0.6789794154165424,0.0
-0.1619846469791911,-0.2579523128845439,-0.0474445832146088,-2.646061019863267,-0.0748445915069499,2.364602310295876,0.675670480907332,0.0
-0.1645129872884442,-0.2518723219837606,-0.0493707370075299,-2.642273305459641,-0.0756078250706732,2.3670479301321308,0.6722097600042555,0.0
-0.1670498239530583,-0.2457155479653281,-0.0512595447887316,-2.6384173490901204,-0.0763633433187568,2.369425878595202,0.6689529862947808,0.0
-0.1693759439965439,-0.23960207605909,-0.0532178664200653,-2.634573519106705,-0.0772225098442122,2.371682109476161,0.665969874655536,0.0
-0.1715999684496015,-0.2341304340417929,-0.0554031219186508,-2.6310481426775856,-0.0781742159635996,2.373724758155127,0.6629689703934089,0.0
-0.173654387920166,-0.2282433769440829,-0.0579441832730116,-2.627395443190207,-0.0791128897773318,2.375670139273595,0.6595995874068423,0.0
-0.1756158293846283,-0.2222603616344021,-0.0605676892876918,-2.6238076513689936,-0.0799323938137055,2.3778997695998507,0.6561840562004593,0.0
-0.1773020641572828,-0.2163458763199989,-0.0633938263650731,-2.620220215239612,-0.0808527232602834,2.380053541366262,0.652773200196846,0.0
-0.1789715883227123,-0.2105496718293317,-0.0661956632313578,-2.6166859247717027,-0.0818065604767551,2.3823264455941238,0.6496375620927678,0.0
-0.1805903831393939,-0.2052697947858845,-0.0690045860041016,-2.613329337798679,-0.0828852912812716,2.38429051594953,0.6466069723232364,0.0
-0.1821181985058305,-0.1999904024064573,-0.0717169006226528,-2.6100015867092354,-0.0838446560652278,2.386076152757288,0.6437960079308453,0.0
-0.1838860313812252,-0.1949662770545942,-0.0741630340972345,-2.60682949697628,-0.0847603749171447,2.3878114938740578,0.6411711606296278,0.0
-0.1857238772839486,-0.1895953500977898,-0.0767291329446369,-2.6035227916654766,-0.085647106863035,2.3897878573090003,0.6377854447349044,0.0
-0.1875800728334535,-0.1846554111044588,-0.0790582978500176,-2.600422048607971,-0.086159513379258,2.391549499164024,0.6343287001559719,0.0
-0.1894281670569834,-0.1798650761237734,-0.0816213670415928,-2.5973387609685323,-0.086587451016362,2.392953105571454,0.630654235636884,0.0
-0.1912669335568016,-0.1746890675939761,-0.0841664416740331,-2.5940936769240945,-0.0870716814056864,2.394461387703454,0.6272319391627184,0.0
-0.193248778964665,-0.1699598680860059,-0.0865115958721847,-2.591164490760436,-0.0875920463424415,2.3962947288375034,0.6239941622683195,0.0
-0.1950585100803646,-0.1655159761539885,-0.0887807475629046,-2.5883957571127976,-0.0882534161925047,2.3979259223130858,0.6209407181532905,0.0
-0.1970454249052475,-0.160728382543925,-0.0910658776663092,-2.5852329319468343,-0.0888004636402867,2.3994988240721256,0.6175598211010921,0.0
-0.198807583099194,-0.1566423303701977,-0.0935251902690102,-2.582309245013626,-0.0890961598463634,2.400664893752433,0.61368953634941,0.0
-0.2007380339508123,-0.1523839488136705,-0.0961074348737478,-2.579379237871129,-0.0892965557642063,2.401884533555568,0.6098014751935215,0.0
-0.2024567730087053,-0.1477726518991363,-0.0987403397849254,-2.576355436156343,-0.0895714377048601,2.403286997536446,0.606077873170722,0.0
-0.2040977602948304,-0.1436421156417746,-0.1014554011219982,-2.5735677119168687,-0.0899435680145358,2.4045959041209164,0.6024838726882156,0.0
-0.2056341535654306,-0.1397279458230481,-0.103978459564717,-2.57085202487582,-0.090217272209542,2.4057298725176883,0.598813766904355,0.0
-0.2056341535654306,-0.1397279458230481,-0.103978459564717,-2.57085202487582,-0.090217272209542,2.4057298725176883,0.598813766904355,0.0
-0.207176512810489,-0.13549603321722,-0.1067078733354995,-2.5678512666791606,-0.090312164852648,2.4069029891764666,0.5948400946815325,0.0
-0.2086820990527663,-0.1319559836411308,-0.1093283468571113,-2.565313304649326,-0.0903698175152557,2.4080264091492563,0.591039370436299,0.0
-0.2104031213223665,-0.1283150719449989,-0.112003743091645,-2.562769001833952,-0.0905713447879848,2.4091231173688508,0.5870542780580796,0.0
-0.2121016331035079,-0.124433593851506,-0.1145068895106224,-2.5600153878171974,-0.0906724369910405,2.4101141441645098,0.58330262973909,0.0
-0.2140495784788471,-0.1206505299913517,-0.1169758963121901,-2.5571883197354865,-0.0908239628434037,2.411063231905177,0.5791869606369506,0.0
-0.2160387846526118,-0.1172841887267857,-0.1193751624986671,-2.55453409501881,-0.0908656379724179,2.411741639448317,0.5749357291535815,0.0
-0.2179685866486788,-0.1138460063219044,-0.1215761219526523,-2.5518850747817003,-0.0908941579354739,2.4122674272683207,0.5708774957909936,0.0
-0.2199418767378118,-0.1102822722984179,-0.1237273291548424,-2.549179651015073,-0.0909505712011032,2.4129499542747896,0.5671216941300972,0.0
-0.2221243871050797,-0.1069537039044179,-0.1258820912870085,-2.5464250498264414,-0.0910236693998891,2.413436955899861,0.5633414817703207,0.0
-0.2243291834663325,-0.1037413008601445,-0.1279981354164729,-2.543616021978493,-0.0911553622056018,2.4137055279144977,0.5592005330198471,0.0
-0.2262763555460782,-0.1006164300151484,-0.1301299752176209,-2.540979857146309,-0.0911630000329167,2.4140235764177027,0.5552182414974773,0.0
-0.2281570334209585,-0.0973873459149157,-0.1325597141332419,-2.5383081625921298,-0.0912131749128238,2.4144378967634585,0.5508814405243108,0.0
-0.2297311062163547,-0.0944210350329678,-0.1349799572056062,-2.535730057275404,-0.0912376223912799,2.414706942787437,0.547173899111997,0.0
-0.2312144597425956,-0.0916127469000048,-0.1374218892283555,-2.533115732295625,-0.091306246750199,2.414796502044984,0.5433953373434108,0.0
-0.2328828280892033,-0.088643554222629,-0.1398550480619499,-2.530228343186671,-0.0913311920047961,2.41480457380071,0.5392048374533727,0.0
-0.2345415852243828,-0.0855108916067695,-0.1422185578223273,-2.527299337657329,-0.0913226526104581,2.414870345976172,0.5349663788521875,0.0
-0.2363861883147821,-0.0825802227157146,-0.1442766604818813,-2.5245635126344235,-0.0913469278335321,2.414939292778001,0.5312375491582905,0.0
-0.2383062857682145,-0.079691618769547,-0.1463830189629495,-2.5217853585396925,-0.091355266019436,2.4149718336902826,0.5272803647570297,0.0
-0.2404013092869328,-0.0766763080126901,-0.1482284971890142,-2.5189935537473027,-0.0913554196301096,2.414982671775879,0.523582704241106,0.0
-0.2424152689463941,-0.0733970747725868,-0.1500024240504595,-2.516071645821443,-0.0913607707964565,2.4150508428847424,0.5196437405752542,0.0
-0.2445711284426936,-0.0704249997035061,-0.151638557132057,-2.5133666151928207,-0.0913616469688522,2.415183867810007,0.5156407304424874,0.0
-0.2467385274348456,-0.067746857583067,-0.1531129924472272,-2.510973848320805,-0.091356709965968,2.415289155455691,0.5119674121995839,0.0
-0.248783302643352,-0.0649646273038391,-0.1545971459598795,-2.5084891285766475,-0.0913613220050764,2.4153674888064347,0.5085624686141178,0.0
-0.2507562352510926,-0.0620487155624955,-0.1560076244435252,-2.5059346378165928,-0.0913574183448706,2.4154448598826743,0.5053313796454115,0.0
-0.2525327397815251,-0.059054388387728,-0.1574663633505749,-2.503285477217272,-0.0913569676846594,2.415523634887364,0.5022453259157398,0.0
-0.2541181215728815,-0.0561802419469749,-0.1592101958654113,-2.5006904428882715,-0.0913621341180745,2.415639122268629,0.4987414454076161,0.0
-0.2554070627303986,-0.0533426283139414,-0.1611722624233902,-2.4982858576490963,-0.0913599488832534,2.415718815235885,0.495355672068773,0.0
-0.2564633861252131,-0.0503729630756284,-0.1631620938917545,-2.495920159815845,-0.0913513617927308,2.4158076098584678,0.4920068327923291,0.0
-0.2574810826291079,-0.04739749775138,-0.1648656061399694,-2.493628738682663,-0.0913534605750296,2.4159718965500847,0.48923191446006,0.0
-0.2584572278290347,-0.0444833347179134,-0.1664254987782261,-2.491312943708176,-0.0913510231122017,2.41613993401621,0.4866419680917995,0.0
-0.2592973256030933,-0.04171709011834,-0.1680543512755848,-2.489133301735099,-0.0913511670634759,2.4162740958911053,0.4842467364293348,0.0
-0.2602821346891883,-0.0390083114240654,-0.169393783025267,-2.487169852934697,-0.0913348379909898,2.41651002180896,0.4816099353013762,0.0
-0.2612534543510434,-0.0363063748399244,-0.1705053528346413,-2.4853887078733674,-0.0913348842890164,2.416854487139233,0.4791443439520691,0.0
-0.2622549136796487,-0.0335449669256891,-0.1714647077206868,-2.483553800733338,-0.0913416681701952,2.417303927888624,0.4769436458699793,0.0
-0.2622549136796487,-0.0335449669256891,-0.1714647077206868,-2.483553800733338,-0.0913416681701952,2.417303927888624,0.4769436458699793,0.0
-0.2641835749219572,-0.0280850319475719,-0.1730249948748649,-2.479645179728225,-0.0913406832828845,2.417829626869202,0.473059419101606,0.0
-0.2641835749219572,-0.0280850319475719,-0.1730249948748649,-2.479645179728225,-0.0913406832828845,2.417829626869202,0.473059419101606,0.0
-0.2651967371378728,-0.0252910695853407,-0.1734929611309189,-2.477624693522008,-0.0913398736361331,2.417940166811204,0.4715737372222434,0.0
-0.266226929205662,-0.0225126632086268,-0.173730529290121,-2.4758060701427205,-0.0913372870151129,2.418229385659156,0.4702652767681481,0.0
-0.2671624360394774,-0.0196808323551768,-0.1738347838259966,-2.4740660835862966,-0.0913390904915446,2.4186360446924966,0.4691809402988059,0.0
-0.2678531356891369,-0.0172832183245522,-0.173969124991672,-2.47261671420542,-0.0913526080642823,2.418989360358055,0.4682792523689597,0.0
-0.2684965749347085,-0.0149274130885917,-0.1740619623135557,-2.471272782666929,-0.0913426947169177,2.4192817302410856,0.4674448734272948,0.0
-0.2690134099131183,-0.0123335732836707,-0.1741276987472844,-2.469765106907907,-0.0913389064190514,2.419566693004015,0.4667859463858499,0.0
-0.2693474134409559,-0.009790109895249,-0.174148622713467,-2.468258650011438,-0.0913380975452549,2.4197989716803576,0.4661898304631196,0.0
-0.2695418032826451,-0.0072951536415627,-0.1741561092469171,-2.466699600246612,-0.0913362372554717,2.419975893201379,0.4657736194408961,0.0
-0.2696327796528605,-0.0046639496765354,-0.1741613772332537,-2.464936213345859,-0.0913347465819322,2.420071431264176,0.465516142322483,0.0
-0.2696466383073977,-0.0022614528175123,-0.1741635183889018,-2.463418654637358,-0.0913373834649252,2.4201365251209426,0.4653044824500519,0.0
-0.2696263200892417,-0.0001286333872361,-0.174145460118187,-2.4622378408055625,-0.0913365075065988,2.4203080620358803,0.4651695450965151,0.0
-0.2696000943724477,0.0020098168242761,-0.1741409571948451,-2.4611924405245547,-0.0913373829754709,2.4205187329246507,0.4650593398305254,0.0
-0.2695841937898783,0.0040264677299904,-0.1741396682722957,-2.4602892361902837,-0.0913365464503359,2.420853102922628,0.4649196597010244,0.0
-0.2695854128025819,0.0060640412031323,-0.174141630436236,-2.4594718498165604,-0.091340410524986,2.421217933870254,0.4648227873383999,0.0
-0.2695705404224576,0.0079244173410246,-0.1741392208275631,-2.4587555092862434,-0.0913376347709269,2.4216312476463484,0.4646938154366179,0.0
-0.2695453431195027,0.0098112344050682,-0.1741397875271811,-2.4580871461815845,-0.0913376899204684,2.421997680973718,0.4646063540953932,0.0
-0.2695038252246634,0.0115190842654352,-0.1741355527878799,-2.45752424856994,-0.0913390875483493,2.422352697087398,0.4644967493795813,0.0
-0.2694303411463835,0.0129170405152834,-0.1741299635762932,-2.4570892661643047,-0.0913390927325926,2.422607762496812,0.4644314723968534,0.0
-0.2693693473896655,0.0142423213269635,-0.1741288452404517,-2.4567522711552585,-0.0913407658739113,2.4228470235231643,0.4643975371584069,0.0
-0.2693370136614512,0.0154307256895922,-0.1741306275933926,-2.4564827660679747,-0.0913415729372316,2.423031234878084,0.4643514408174211,0.0
-0.2693216878175848,0.0165026633776801,-0.1741277044461995,-2.4562825312764622,-0.0913411204171211,2.4232409651340667,0.4642589945222918,0.0
-0.2693089916588848,0.0175359791623128,-0.1741257390297407,-2.4560910873461723,-0.0913372646799922,2.4233960801324863,0.4641263353441355,0.0
-0.2692705841736514,0.0186363331571662,-0.1741245111616674,-2.455901831833498,-0.0913365201637607,2.423572566436984,0.4640748790974667,0.0
-0.2691985378241553,0.0196902431857913,-0.174122567247852,-2.4557528127925488,-0.0913366257960635,2.423800296596605,0.4640192663468649,0.0
-0.2691126208884848,0.020622963162901,-0.174119336153205,-2.4556746892295136,-0.0913380227786777,2.4240137068753453,0.4639721625250339,0.0
-0.2690416287598789,0.0215948225463166,-0.1741168666076007,-2.455619005698872,-0.0913340722886454,2.424243312924789,0.4639485963555609,0.0
-0.2689707407423969,0.0225357221816205,-0.1741176149635083,-2.4556029557356984,-0.0913380266676387,2.424481232144046,0.4639109106350586,0.0
-0.2689177772849129,0.0234148661737336,-0.1741107917659508,-2.455580924084752,-0.0913355608122676,2.4246619188802336,0.4638853704126465,0.0
-0.2688750797484367,0.0242638639660998,-0.1741127567880699,-2.4555786628144007,-0.0913365202955294,2.4248441906465645,0.4638463391820623,0.0
-0.2688314691549827,0.0250363996538806,-0.1741132681043477,-2.455577355643292,-0.0913375847322094,2.4249702830847943,0.4638079814456285,0.0
-0.2687756151586279,0.0258079833911894,-0.1741074173488062,-2.4555769605254185,-0.0913365070198879,2.4250662714796087,0.4637446312679736,0.0
-0.2686957457737137,0.0264993486222881,-0.1740955891745129,-2.455577627777753,-0.0913373011355634,2.4251498709301287,0.4636894571218818,0.0
-0.2686076649675923,0.0271393853189298,-0.1741032481499054,-2.455573423873704,-0.0913372646258016,2.425181508087462,0.4636668637021921,0.0
-0.2685400006350434,0.0277109552646148,-0.1740923472508707,-2.4555701539523875,-0.0913368134240373,2.4252097967017696,0.4636294081608735,0.0
-0.2685400006350434,0.0277109552646148,-0.1740923472508707,-2.4555701539523875,-0.0913368134240373,2.4252097967017696,0.4636294081608735,0.0
-0.2684930038878337,0.0288175805106568,-0.1740844237767612,-2.4555645151246264,-0.0913368618341204,2.425233521502856,0.4635256072322385,0.0
-0.2684930038878337,0.0288175805106568,-0.1740844237767612,-2.4555645151246264,-0.0913368618341204,2.425233521502856,0.4635256072322385,0.0
-0.2684880246388589,0.0293713600640809,-0.1740813047062254,-2.455562531996629,-0.0913387799461893,2.425238912292029,0.463425395858591,0.0
-0.2684802185669206,0.0306697171601911,-0.1740809052886318,-2.455556220594532,-0.0913377153407753,2.425273679169577,0.4632850639736555,0.0
-0.2684802185669206,0.0306697171601911,-0.1740809052886318,-2.455556220594532,-0.0913377153407753,2.425273679169577,0.4632850639736555,0.0
-0.2684746775851935,0.0314353542980933,-0.1740748744956508,-2.4555487357973758,-0.0913380227725936,2.4253159874369485,0.4632446449464263,0.0
-0.2684679192991051,0.0322396082018356,-0.174070972987503,-2.455559719017176,-0.09133650696372,2.4254500622780952,0.463210540450987,0.0
-0.2684615345715744,0.0331359577172688,-0.1740699320551894,-2.455551219214376,-0.0913372646260242,2.425669707811366,0.4631779441668071,0.0
-0.2684632202682468,0.0339691177388975,-0.1740688807586206,-2.455558955875126,-0.0913405767308074,2.425853812730262,0.4631276271044726,0.0
-0.268461508728662,0.0348896597375078,-0.1740689254826231,-2.455553282190166,-0.0913347101808663,2.4260129316031334,0.4630633720710312,0.0
-0.2684563508020942,0.0357703798701145,-0.1740601140870008,-2.45556460397111,-0.0913383009459507,2.4262060144932174,0.462980279910043,0.0
-0.2684492938157832,0.0366828704336862,-0.1740558985180806,-2.455552433379789,-0.0913373208562576,2.4264370328187432,0.4629196517479938,0.0
-0.2684453693904472,0.0375421168341972,-0.1740500642030048,-2.455560272718644,-0.0913387668026813,2.4265996690216896,0.4628838013870343,0.0
-0.2684401405229429,0.0384595781258167,-0.1740355465845093,-2.4555469315088385,-0.091337653732435,2.426768715821185,0.462843517798618,0.0
-0.2684311348464656,0.0393487222164482,-0.1740139411394624,-2.455559624527036,-0.0913367350150878,2.4269781028952875,0.4627952851956812,0.0
-0.2684258492387843,0.0403066237146122,-0.1739885835149809,-2.455552316107747,-0.0913372091768102,2.427183145420231,0.4627472449081612,0.0
-0.2684303351887797,0.0413119894559323,-0.1739663468575591,-2.455550231345009,-0.0913399155012968,2.42742336175485,0.4627247347058209,0.0
-0.2684242273724315,0.0423675520823549,-0.1739541433457689,-2.4555427303029878,-0.0913381673934614,2.4276811700004157,0.4626750836491525,0.0
-0.2684158425772211,0.0434860796803219,-0.1739397584579695,-2.4555428127193344,-0.0913367385298962,2.4280316215526194,0.4626473858545541,0.0
-0.2683988068923774,0.0448076542785119,-0.1739310622884769,-2.455535087772924,-0.0913356127800195,2.4285341688163555,0.4626298194761124,0.0
-0.2683634938420383,0.0462775388576187,-0.1739268513462423,-2.455536540795792,-0.0913320659053354,2.4292366322511545,0.4626148129557563,0.0
-0.2682979789619352,0.0478477140743303,-0.1739229024750094,-2.455536870462557,-0.0913389120120673,2.429998279758232,0.4626050175664741,0.0
-0.2682437920957276,0.0495378685410146,-0.1739024203198284,-2.4555389511972194,-0.0913320213256452,2.4308600968834657,0.4625962399841615,0.0
-0.2681697796056412,0.051313561116884,-0.1738930700146837,-2.4555458260258503,-0.0913305675050389,2.431801599640897,0.462593913410415,0.0
-0.2680921014815119,0.0531589138591745,-0.1738664894429631,-2.4555495681645687,-0.0913261418710561,2.432807020390383,0.4625923294093393,0.0
-0.268039235959398,0.0550175822626368,-0.1738325308436965,-2.4555389793848077,-0.0913203875764459,2.433976738892753,0.4625889035466187,0.0
-0.2679795988916622,0.0571111326621639,-0.1737851958495093,-2.4555276921997167,-0.0913209853286129,2.4353722874754107,0.462589895048536,0.0
-0.2678952633693002,0.0593253079397259,-0.1737509416173104,-2.455540258333396,-0.0913167343551829,2.4369439082131423,0.4625867432506219,0.0
-0.267795337549784,0.061595149109433,-0.173711800641649,-2.455544671968127,-0.0913098087016553,2.43852013047124,0.4625875139926534,0.0
-0.2677079150134356,0.0638409641662837,-0.1736571236989246,-2.4555669243860363,-0.0913089956859622,2.440241669428406,0.4625883406621985,0.0
-0.2675880996246872,0.0661997295952886,-0.1735985466246685,-2.4556238603332763,-0.0913025058911281,2.4421801078670784,0.462587871620522,0.0
-0.2674390852987506,0.0687561625592756,-0.1735511767896379,-2.455645939047314,-0.0912914975213885,2.444377450472756,0.462588089917211,0.0
-0.2672957014287946,0.0713205738149549,-0.1735053809738678,-2.455637294734873,-0.0912850157343536,2.4465496495772223,0.4625844499880745,0.0
-0.2672957014287946,0.0713205738149549,-0.1735053809738678,-2.455637294734873,-0.0912850157343536,2.4465496495772223,0.4625844499880745,0.0
-0.2671950393967015,0.074102661014419,-0.1734335464936785,-2.4556563180867235,-0.0912800025044123,2.4490072470396185,0.4625897112981928,0.0
-0.2671100139852687,0.0768888528399006,-0.1733387305794921,-2.455653500932145,-0.0912736620601774,2.451293801595808,0.4625904685100934,0.0
-0.2670108466723154,0.0798547208044506,-0.1731986747857923,-2.455695639556496,-0.0912649485618913,2.4537065107266294,0.4625862074613221,0.0
-0.2669134400856195,0.083040777549592,-0.1730156688142259,-2.4556981144893006,-0.0912354263757564,2.456345494100387,0.4625869208497088,0.0
-0.2668599352412702,0.0861397863419226,-0.1727866526202894,-2.45570777052501,-0.0912078840201138,2.4589416237294137,0.4625806582958808,0.0
-0.2668659319640386,0.0891142953309323,-0.1725398611570892,-2.455810318815659,-0.0910817802544402,2.4614559300123964,0.4625874471528408,0.0
-0.2668391726310026,0.0923133615541392,-0.1722792319330908,-2.455941330726566,-0.0910323339131736,2.464241521792197,0.4625818885973551,0.0
-0.2668040559604976,0.0955749483010452,-0.1720052099362413,-2.4559717975098003,-0.0909861672159354,2.4670367510698097,0.4625830395317939,0.0
-0.2667587960823652,0.0991190196253251,-0.1717168752333804,-2.4559936069792183,-0.0909216463368698,2.4700706604570573,0.4625803159826488,0.0
-0.2667136178450495,0.1024204692839111,-0.1714564330061626,-2.456076779207267,-0.0908456649650417,2.472774297895286,0.4625859604199812,0.0
-0.2666770583836199,0.1056826126340197,-0.171191557512215,-2.456206644825522,-0.0908012522902909,2.475502925924367,0.4625812000643211,0.0
-0.2666245694656857,0.1092039365146159,-0.1708864758463385,-2.456263356317049,-0.090762904556091,2.4783757316147006,0.4625846988102934,0.0
-0.266564944394449,0.1126210236805532,-0.1705760203526141,-2.456313822331164,-0.0907072787515918,2.481358367138858,0.4625801779191101,0.0
-0.266543190070616,0.1157584998927981,-0.1702663594808497,-2.4565532798920264,-0.0906654280863178,2.484308160747968,0.4625803031264572,0.0
-0.266528652984435,0.1189146550253777,-0.1699519908628744,-2.4569363786525025,-0.090644223517148,2.487318427586368,0.4625809709274271,0.0
-0.2665114823447797,0.1221973160019633,-0.1696120023994322,-2.457191065130518,-0.090616623181615,2.490318901104975,0.4625863878909779,0.0
-0.2665101980754136,0.1257100909387516,-0.1692126675381438,-2.457360469654569,-0.090572482456211,2.493347118385664,0.4625795104301375,0.0
-0.266510177660576,0.1289200068759596,-0.168815559484165,-2.457642881216356,-0.090517386296809,2.4962651274752057,0.4625827075056922,0.0
-0.266502166946104,0.1318311130871282,-0.1684357645090187,-2.458029834015101,-0.0904477474470616,2.498973081766984,0.4625818951184079,0.0
-0.2664930544078067,0.1350003473073697,-0.1680164026949067,-2.458443174715641,-0.0903710599049803,2.5019589962846425,0.4625800665474069,0.0
-0.2664645152891865,0.1381421209257468,-0.1676152669518334,-2.4588364877569715,-0.0903069158228845,2.5050210793698136,0.4625826192035346,0.0
-0.2664569124837033,0.1409037255622864,-0.1672356885699082,-2.459465247449472,-0.0902770831872974,2.508045739141844,0.4625749449494682,0.0
-0.2664279248349055,0.1435985267450898,-0.1669073209631814,-2.4603077021558746,-0.0902680913056422,2.5110558347121974,0.4625790798813672,0.0
-0.2663558876534832,0.1461511894376076,-0.1666571655733706,-2.461142744822242,-0.0902673637005396,2.513965186103996,0.4625826204260669,0.0
-0.2662300333093718,0.1488443874223756,-0.1664454074415746,-2.4619175499788346,-0.0902632276119406,2.516987568100729,0.4625836784291737,0.0
-0.2661210074580218,0.1514278088863505,-0.1662504495287752,-2.462748676151836,-0.0902616351032915,2.520217401068224,0.4625774052538224,0.0
-0.2660401554459218,0.153881821756407,-0.1660617374869029,-2.4637805942832784,-0.0902592543546524,2.5236956299046107,0.4625826055455678,0.0
-0.2659743257586818,0.1563353082631999,-0.1658830942506885,-2.4648034538628285,-0.0902578023856561,2.52702815082932,0.4625818080992878,0.0
-0.2659118649034012,0.1587158501158038,-0.1656873025623488,-2.4656609578520943,-0.0902584966945732,2.529990917436375,0.4625779491842917,0.0
-0.2658819174210729,0.1612439764185417,-0.1654419582010684,-2.466303688148785,-0.0902583784051093,2.5328281700490884,0.4625794310523951,0.0
-0.2658800032901787,0.1635871605572023,-0.1652062712095428,-2.4667460958867062,-0.0902604836137472,2.5354092176045926,0.4625820157895297,0.0
-0.2658837834840286,0.1659377579780412,-0.1649806605156122,-2.467072573581364,-0.0902592543546514,2.537817318569398,0.4625809689063048,0.0
-0.2658781244008809,0.1682114664843964,-0.1647586926243364,-2.467232043709261,-0.0902584966224298,2.5398954739865105,0.4625794666681002,0.0
-0.2658788822115108,0.1704863368771331,-0.1644848524136975,-2.467342129919883,-0.0902598132526925,2.5420487627704604,0.4625818350189121,0.0
-0.2658709559944487,0.1726096170036985,-0.1642228235499431,-2.4673675162000994,-0.0902552215267876,2.543940168153604,0.462581416421099,0.0
-0.2658719531125673,0.1747924036337382,-0.1639305232427279,-2.46734949170688,-0.0902544636502481,2.545864764593619,0.4625792912855915,0.0
-0.2658670794333047,0.1769858384195552,-0.1636743573166962,-2.4673339690044376,-0.0902544636313286,2.547762241583809,0.4625818523006733,0.0
-0.2658670794333047,0.1769858384195552,-0.1636743573166962,-2.4673339690044376,-0.0902544636313286,2.547762241583809,0.4625818523006733,0.0
-0.2658655753795741,0.1810699052569898,-0.1632240210441941,-2.4673547659104527,-0.090249749527826,2.550955247136458,0.4625794666681252,0.0
-0.2658655753795741,0.1810699052569898,-0.1632240210441941,-2.4673547659104527,-0.090249749527826,2.550955247136458,0.4625794666681252,0.0
-0.265861671311862,0.1830199476038903,-0.1629918885591338,-2.4673730218665937,-0.090254459399667,2.5525176451262785,0.4625811012157491,0.0
-0.2658584357017516,0.1848740261750796,-0.1627670794612057,-2.4673550609592536,-0.0902537059712502,2.553955334263915,0.4625794666741576,0.0
-0.2658450271142485,0.186628549066136,-0.162581317884815,-2.467344267860129,-0.0902510848990827,2.5553437943039765,0.4625778431107896,0.0
-0.2658322691237454,0.1883708130272491,-0.1623782468626262,-2.467315048981966,-0.0902509458836581,2.556602109061533,0.4625844829572784,0.0
-0.2658179005343731,0.1900999862440351,-0.162199056278939,-2.4673306288814207,-0.0902501473744314,2.558002019813099,0.4625809805912337,0.0
-0.2658135163674108,0.1916893108231943,-0.1620305496168096,-2.467333819437345,-0.0902537054295243,2.559279684103664,0.4625791267553752,0.0
-0.2658015751793178,0.1933021118192845,-0.1618564558385242,-2.467348800237075,-0.0902497495105117,2.5605310855209806,0.4625829212839691,0.0
-0.2657787972674407,0.1948162510674001,-0.1616565930030781,-2.4673521429242213,-0.0902504289710515,2.5617289808990846,0.4625812972117856,0.0
-0.2656890080464659,0.1961498991515572,-0.1614847216468112,-2.46735751447056,-0.0902496650250308,2.562697707286213,0.4625802262987711,0.0
-0.2655459001979679,0.1973295799387988,-0.1613432956893229,-2.467368362956826,-0.0902464584424114,2.56347081391201,0.462578931202476,0.0
-0.2653896041129142,0.1984623626743832,-0.1611746733221054,-2.467345800549156,-0.0902394571251563,2.5641917923805884,0.4625819114020614,0.0
-0.2652038410298992,0.1994718154814601,-0.1610055426769646,-2.4673632055287738,-0.0902270201430556,2.5648331237587576,0.4625811958576155,0.0
-0.2650022703748004,0.2004775540474751,-0.1608012920389324,-2.467339430163862,-0.0902030283166936,2.5654121513150927,0.4625754478678987,0.0
-0.2647489977192941,0.2015148329909952,-0.1605608985502915,-2.4673507293255303,-0.0901786828508329,2.5659764274366554,0.4625836452664088,0.0
-0.2644717406931756,0.2026100915178268,-0.160286892810578,-2.4673490373161666,-0.0900913046703197,2.566561439486967,0.4625779256372512,0.0
-0.2641578983790977,0.2036183505201307,-0.1599964289411386,-2.4673625199132068,-0.0897701250725115,2.567079315953922,0.4625790333998236,0.0
-0.2638252169022795,0.2046281064005568,-0.1596422154118607,-2.467369224906593,-0.0895834059716531,2.5675033427666456,0.4625851839022836,0.0
-0.2635059730454538,0.2055917803167801,-0.1592369784222423,-2.467379161142248,-0.0893393153110536,2.5678561463940848,0.462584924533838,0.0
-0.263122900908039,0.2065473463807294,-0.1588136143162393,-2.4673763324278446,-0.0891335419718197,2.568126999329805,0.4625924585218834,0.0
-0.2626631899588449,0.2074104922086268,-0.1584547448635359,-2.4673883194100497,-0.0888459560441357,2.568347977408948,0.462601533367048,0.0
-0.2621864454279451,0.2082118555936014,-0.1580385267444518,-2.4674247550296,-0.0885337074490357,2.5684438277924686,0.4626065625610766,0.0
-0.2617876525627415,0.2089482526086315,-0.1575169682080285,-2.467499430423157,-0.0883038141574191,2.568521868396841,0.4626188094260394,0.0
-0.2614423024157996,0.209608649674638,-0.1568687632416416,-2.467633178916507,-0.0880509533974734,2.56854976885295,0.4626783267191967,0.0
-0.2612132375355776,0.2101059570854279,-0.156038701015197,-2.4678553198088475,-0.0878584134081137,2.5685651539787413,0.462815952979836,0.0
-0.2611007162816769,0.2104705847354208,-0.1550510619946255,-2.4682041885319785,-0.0877247573241088,2.5685713597472186,0.4630484693789594,0.0
