jkw0701/act-for-franka/real/actions_250422_1612.csv
joint1,joint2,joint3,joint4,joint5,joint6,joint7,gripper
0.027316670470730706,-0.8275721759893787,0.005819571831176311,-2.376676081083121,-0.0008236496355274112,1.5485582979045858,0.8420776113024407,-0.004637600425072885
0.02714963328624137,-0.8269190917118003,0.0057514674333062205,-2.375779244239874,-0.0009038710951593393,1.5488349237433767,0.8416591467380733,-0.005028441886901769
0.026842045788240912,-0.8265118959260475,0.005900666871453342,-2.3757310346059595,-0.0009026548728723952,1.5487400212604099,0.8415059264128631,-0.0057977849110464885
0.026642526435027708,-0.8266148850394355,0.005726707839000828,-2.3758378716597037,-0.0009623997422474433,1.5486029047805,0.8411646768918456,-0.005754068916326016
0.026327403562796475,-0.8265205444725492,0.005592928849938641,-2.375954500806514,-0.0009781403301114232,1.5491321825197109,0.8407966916419054,-0.005705440354974722
0.02615267210729616,-0.8262643412004923,0.005534369151565036,-2.37595317642332,-0.000991347707393158,1.549509805910546,0.8406465118505727,-0.005702662415510873
0.026167229496929317,-0.8261026371842483,0.005535625747516624,-2.375922527901997,-0.0009521286395813983,1.5498070195382203,0.8406901035895853,-0.005523032077338286
0.025992699718111578,-0.8259483122030928,0.0054764707174190415,-2.375803114422014,-0.0009458249055700682,1.5500430115831625,0.8404573858043479,-0.005573034987687464
0.025825754204841594,-0.8257830376859995,0.0054989440052014005,-2.3757216283568154,-0.000947336395695459,1.5500998988945507,0.8402810590346843,-0.005569642977394762
0.025486338459481978,-0.8257522520342317,0.00551410266346309,-2.3758004447991974,-0.0009836707435934844,1.550334762222997,0.8399114607694246,-0.005787667363104487
0.02529906026975963,-0.8256427566748515,0.005539250096025145,-2.3758140744750627,-0.0010128694520623246,1.5505818608382578,0.8397077691948637,-0.005978146285920138
0.02490039435962524,-0.825583168982899,0.005484741368242389,-2.3759106084532484,-0.0010481047474505678,1.5507922084444155,0.8392514955514044,-0.006080491424061751
0.024611636130079773,-0.8254777201911481,0.005421040873776709,-2.3759200459870344,-0.001097845661251498,1.5511201683094353,0.8389332476288446,-0.006118300642238117
0.02443154496395465,-0.825271979997762,0.005393859229558456,-2.3758570595736996,-0.0011102422236752701,1.5514515594726026,0.838782704909065,-0.006181900835226128
0.024202800826011894,-0.8251478852571312,0.005394503041064518,-2.375947096774483,-0.0011149383883439327,1.5518130196432178,0.8385524469721901,-0.006216581216322126
0.02384865045999504,-0.8250411669539672,0.005305375870491985,-2.375998549582992,-0.0011733522090504184,1.5521282024375052,0.8381571936982719,-0.006269683722283592
0.02349376672422336,-0.8248494707305886,0.005267848640777235,-2.3760326706996198,-0.0012231657681131894,1.5524692102652167,0.837746963577111,-0.006355858328598862
0.023185250291200138,-0.824780441047501,0.005186447208277441,-2.376107232430637,-0.001279470532830753,1.5527401473728688,0.8373905113867061,-0.0064276753741062675
0.022938807496507743,-0.82456525886298,0.005156721345095476,-2.376027081176847,-0.0013081279169291048,1.5529523912227392,0.8371200248477599,-0.0065378572256827305
0.022636072461718337,-0.8244057764917089,0.005091799160121306,-2.3760253292368736,-0.0013574821704654023,1.553290012900963,0.8367635968525848,-0.006676140128046126
0.022267578605580138,-0.8242799361728851,0.005021472449040533,-2.3761050007928137,-0.0014266381163421243,1.5536278151738265,0.8363667466935002,-0.006838196343926406
0.02175908446324694,-0.8241056957314367,0.004935971566167804,-2.376186080157661,-0.0014995505252746698,1.5540909049777238,0.8358356694645939,-0.006978730839328873
0.0213612619283306,-0.8239006696382204,0.004865794172815848,-2.3761851207619613,-0.0015597687605494528,1.5544539453514332,0.8354152854119961,-0.007063998960134876
0.02093571801668208,-0.8237280160860384,0.004786927263323346,-2.376276638769151,-0.0016190097998827063,1.5548927000276809,0.8349571326056895,-0.007145202516883276
0.02050449660084834,-0.8235099775008379,0.004734256888877176,-2.3763892530535227,-0.0016791952276198827,1.5554118644670896,0.8345306513551835,-0.007227663456757405
0.02008617026987017,-0.823341846583065,0.004647493592479006,-2.3765064557521103,-0.0017321278461507154,1.55592515958072,0.8340945404032194,-0.007302346166132789
0.019791600085017763,-0.8232275905558857,0.004600625278352519,-2.376520585982254,-0.0017717218572493934,1.5561815136712465,0.8337845430540194,-0.007359279304407551
0.019404906436130798,-0.8230011414575733,0.004536341087310564,-2.3765854911869884,-0.001828790568914055,1.5566609472900028,0.8333721918177133,-0.007437266299671508
0.019066492962769438,-0.8228157134467969,0.00447737997634131,-2.376559921205946,-0.001866500489995964,1.5569874172492484,0.8330014402464999,-0.0074707185391098
0.018629435145970263,-0.8226328244588467,0.0043930872096380885,-2.376636422584791,-0.0019277474759142356,1.5574404389020031,0.8325208342669443,-0.007550752437136543
0.018163983696830338,-0.8224595361509581,0.004320858151908382,-2.3766702725678517,-0.0019895451597851666,1.557871879495358,0.8320228803076262,-0.007605580189712413
0.017800849551316944,-0.8221847662744846,0.004262478798324126,-2.3766864362997504,-0.0020420536237226727,1.5583211538093467,0.8316469186969305,-0.007694971357512126
0.017397636748702677,-0.8219819618262413,0.00418749608897211,-2.3766905033032604,-0.0021143684667916905,1.558694713820797,0.8312098399357748,-0.007800533057138237
0.01702778004710344,-0.8218045476062601,0.004120514482855057,-2.3766763835013305,-0.002165168595378169,1.5589863290146522,0.8308109896376937,-0.00787044940722298
0.016501165560411576,-0.8215883339437159,0.004036526169183315,-2.3767637302228692,-0.0022384629777842634,1.5594737990948588,0.8302648065203192,-0.007911007323395114
0.01602635753548308,-0.8213652173128629,0.003964380496678792,-2.376744448454946,-0.0023083031951596153,1.5598528220941486,0.829745504303246,-0.007991421360506401
0.015599530226763636,-0.8211886758819783,0.0038917868709878213,-2.3767718850863173,-0.002362543428403578,1.5602404684874667,0.8293079738978008,-0.00805560638285524
0.015171908434143136,-0.8209583389049633,0.0038236960474567136,-2.376746002258851,-0.0024173109256447715,1.56062937904326,0.8288758551587527,-0.008110931240387809
0.01465053754119823,-0.8207330006291375,0.0037379682792038384,-2.376743395205319,-0.002479157820822111,1.5610645669753809,0.8283287284274162,-0.008145699345887936
0.014204997080901643,-0.8204955226504238,0.003658963687130222,-2.376712423409358,-0.0025399642483782507,1.5614079225334034,0.8278503967994613,-0.00820333427939568
0.013762848455721094,-0.8202944637803736,0.003575136326334997,-2.376694059324278,-0.0025963744658952584,1.5617944853588854,0.8273664599432706,-0.00821254534182847
0.013323339961657896,-0.8201106226588636,0.0034886600302467576,-2.376728503715544,-0.002661113111172963,1.562196759917989,0.8268829182758333,-0.008269273789826947
0.012927833652883858,-0.8198996457308985,0.0034242711228755045,-2.3766623054122573,-0.0027064789054946567,1.5625363229885858,0.8264444361913494,-0.008305065346708496
0.012418092781967469,-0.8197092983633962,0.0033220485935667315,-2.3766692088900103,-0.002774263964978582,1.5629525936322373,0.8259015194299971,-0.008334950127045826
0.01197733755932108,-0.819477136463725,0.0032486502034931863,-2.376631125052014,-0.002829947729877186,1.5633236253187368,0.8254420278209752,-0.008387438562178495
0.01145775119944624,-0.819263461824007,0.003159342688131308,-2.3766140019244153,-0.002892731983271824,1.5637682041721028,0.8248995143134528,-0.008422499082359036
0.011123585159248203,-0.8190685124776322,0.0031000150700095062,-2.3765763977842687,-0.0029366987704541984,1.5640470422952255,0.8245378359534123,-0.008464840728081624
0.010473086186723504,-0.8187570854591054,0.0030101684594708647,-2.3765061846185427,-0.0030163460981780313,1.564570857046597,0.8238561192238072,-0.008494579301078775
0.009994941329410575,-0.8185093720446236,0.002933370667077665,-2.376459132516396,-0.003067460241767305,1.5649762920118886,0.8233589475769192,-0.008516305711832817
0.009597516036444764,-0.8183421139159472,0.002850470239715866,-2.376442770648429,-0.0031254686550448094,1.5653306186942506,0.8229294580528421,-0.00857935031692808
0.00897613184318638,-0.8180171189941927,0.0027633132874871832,-2.376336861705742,-0.0032013524895261915,1.5658295565340545,0.8222681056416472,-0.008645085137083064
0.008449676253274724,-0.8178046345214245,0.0026830986400527765,-2.3762602560447554,-0.0032644882522523157,1.5661841541083752,0.8216829278789209,-0.008684502636001623
0.00799867829971937,-0.8175321656343872,0.002612397665054323,-2.3761663291201023,-0.0033135448945546195,1.5665243492602097,0.8212090159129417,-0.008720031019670782
0.007548810957869342,-0.8172925453551639,0.002538925585712011,-2.3761167846747786,-0.003367302388316673,1.566888247458456,0.8207260871913259,-0.008771232830209641
0.0070822350084386865,-0.817005001020096,0.0024454837145341003,-2.37603410979317,-0.0034179665999616443,1.5672811310963144,0.820207962475436,-0.008792023513986391
0.006480010100024969,-0.8167682371415522,0.0023384868962858033,-2.3759629580881723,-0.0034894870319415044,1.5677249424224633,0.8195479004764967,-0.008835447094026505
0.006059410322806852,-0.8165414706653866,0.0022665041158490794,-2.375933164680408,-0.0035426000919291656,1.568084416052046,0.8190864974443212,-0.008899719840779474
0.005350846799944339,-0.8162085412973002,0.002156232003523259,-2.375862357106477,-0.0036283285310877225,1.568632791674366,0.8183404617288464,-0.008910422218082303
0.004816501373753751,-0.815928137963931,0.0020515544580498105,-2.375819684854264,-0.00369815820318313,1.5690874838275346,0.817773688470917,-0.008947734331301915
0.004297795057584694,-0.8156578113774033,0.0019622353075402325,-2.375713942763003,-0.00375628847302888,1.5695011809975754,0.8172116252177208,-0.00898949114766373
0.003702060471501123,-0.8153536047050385,0.0018542708328415612,-2.3756407366998227,-0.00383107442669825,1.5699830526439629,0.8165697580315868,-0.009023615940866925
0.003150566415877021,-0.8150684407038701,0.001731516146225031,-2.375548843276924,-0.003902772956739395,1.5704215815769116,0.8159558121406353,-0.009064875652272042
0.002596462786208689,-0.8147367015027336,0.0016399494730180847,-2.375410544301155,-0.0039639168332537625,1.5708503583993365,0.8153444148138888,-0.009094555742333088
0.0020215986810643433,-0.8144390804208241,0.0015410255080822374,-2.3753584970844406,-0.0040363429876110815,1.5712879392104286,0.8147148791298732,-0.009143652167173055
0.0014658083009599226,-0.8141739905688755,0.0014262816206570897,-2.3752517851692656,-0.004105247018466908,1.5716880014852004,0.8141008445230791,-0.0091883331303389
0.0008933459817626194,-0.813819638195693,0.0013367956996971457,-2.375128002267563,-0.004163681929733282,1.5721245438771163,0.8134752768567497,-0.00918926885731619
0.00028859094769476124,-0.8135019429645639,0.0012267834390032907,-2.375009808888633,-0.004234593078871893,1.5725589191333604,0.8128082385665532,-0.009223861514008058
-0.0002931973902180057,-0.8131131550943009,0.001122334718101272,-2.37486126940659,-0.00429928954302982,1.5730446735644934,0.8121626453150308,-0.00925085138900944
-0.0009053227903217942,-0.8128187077909242,0.0010017422297656405,-2.3747711383518793,-0.004375403030274439,1.5735160255731397,0.8114861547550613,-0.009287578672868224
-0.0015032574856698178,-0.8124231756412792,0.0008867850312993288,-2.3746556875932647,-0.004450525261204267,1.5739880096630239,0.8108396824101897,-0.009313164957403641
-0.0021763075781552205,-0.8120894528285597,0.0007810506265764731,-2.3745544713469355,-0.004530479573744264,1.574498505559745,0.810118567781403,-0.009335768612198925
-0.002840630570558278,-0.8117424001460025,0.0006607238074466532,-2.3744455277939376,-0.0046112833671686886,1.574965929634986,0.8093807745742115,-0.00938679497392958
-0.0034815346221240967,-0.8113341728822265,0.0005623505728352685,-2.374285319140285,-0.004681786765482778,1.5754692017461338,0.8086906943601742,-0.009392730991941767
-0.00417718472588717,-0.8109448296007203,0.00043083849838327845,-2.374157698655783,-0.004768324847801528,1.5759895851993577,0.8079260767082175,-0.009424487226233735
-0.00483319619440227,-0.8105508049958784,0.00031779528171359955,-2.374040318677555,-0.004852717551500432,1.5765112328150572,0.8072016957234086,-0.009459343056137937
-0.005398868731952874,-0.810208909703437,0.000198738632874354,-2.373868670273003,-0.004918905586921634,1.5769530576001736,0.8065531103284684,-0.00949484219833907
-0.006039344984495057,-0.8098060778631666,6.573919870806258e-05,-2.373715730084598,-0.004999459808720706,1.5774380445040894,0.8058320279599881,-0.009526247535014576
-0.006768956219320887,-0.809371587582032,-5.083722447982164e-05,-2.3735564495420025,-0.005086564992760917,1.577959601822469,0.8050261413110791,-0.009536920670849325
-0.0074411446023443795,-0.8089086919830292,-0.000159272922660339,-2.3733423895905914,-0.005163620525013922,1.5784672082049607,0.8042860293943657,-0.00954741835787587
-0.008004947047020192,-0.8086167837024787,-0.00027158506421620654,-2.3732325179265357,-0.005230315905570236,1.5788677219663307,0.8036510497836464,-0.009558296183986903
-0.008745858287484878,-0.8081904659010659,-0.00039813862655675367,-2.3730796090227724,-0.005319506711643936,1.579406345478127,0.8028368077153818,-0.0095666884853145
-0.009536681451179627,-0.8076874220036236,-0.0005177363097640456,-2.3729248334686805,-0.005410703464302658,1.5800047006668811,0.8019782561162874,-0.00956575275833721
-0.010170465704709072,-0.8073130748256848,-0.0006348654024676721,-2.3727523195223563,-0.005483314746907896,1.5804383986932278,0.8012651743037924,-0.009579028384827604
-0.010853880756395914,-0.8068092374836094,-0.000746875030183343,-2.372539364961643,-0.005564844992950728,1.5809730942716185,0.8005094242035553,-0.009585256817520205
-0.011644795591310028,-0.8063545937087917,-0.0008796049167612563,-2.3723887815496303,-0.005658994423993938,1.5815296418013682,0.7996428478532458,-0.009572507537454589
-0.012396145127951633,-0.8058908253206924,-0.0010039128955957217,-2.3721924704186654,-0.005746159364620501,1.5820349907508682,0.7988303921994476,-0.009564612341083634
-0.013060107546891894,-0.8054766472221674,-0.0011417389768661919,-2.3720043975768617,-0.005832976311008896,1.582508690489826,0.7980743477239147,-0.009583385363565622
-0.01368774371731011,-0.8050738947263604,-0.0012820142567274914,-2.37184866262707,-0.0059189461199084074,1.5829936773937416,0.7973638668986226,-0.009611808070500993
-0.014399100156655568,-0.80459766925752,-0.00142741094076803,-2.3716363859002745,-0.006005998577548896,1.5835228648356332,0.7965542582168637,-0.009633037376298337
-0.014999937773949763,-0.8042005502186086,-0.001543630552759783,-2.371452692908405,-0.006075648979885245,1.5839507838335212,0.7958744125850292,-0.009626721219201606
-0.015678720373351995,-0.8037249595054747,-0.0016649250283399739,-2.371220341869413,-0.006153944168380623,1.5844420464011537,0.7951134927706928,-0.0096310489564716
-0.016442793875239718,-0.8032328651439705,-0.001787912417910504,-2.370953567295583,-0.00623882078325921,1.5849208027900126,0.7942580704213185,-0.009619615542467763
-0.017141450794997556,-0.8027572744308367,-0.0019139966959604883,-2.3706883569538726,-0.006323572026476234,1.585393780150413,0.7934602488490076,-0.009633271308042646
-0.01792118174115067,-0.802203132699017,-0.0020518770745868928,-2.370373216322916,-0.006409838274911966,1.5858914086790818,0.7925722556877919,-0.00962809556819949
-0.018660027323472606,-0.8016589090251123,-0.0021781184271308235,-2.3701050026555364,-0.006490568251376779,1.5864079544962202,0.7917435166443423,-0.009615814151622493
-0.019314364264380865,-0.801238462713985,-0.0023110422328370683,-2.3698821517196147,-0.006572173486076992,1.5868327582365798,0.7909941903776155,-0.009629645366005635
-0.019995432532852284,-0.8007555723102259,-0.002466057305642859,-2.3696111954319194,-0.0066556042259053975,1.587317654843176,0.7901929653429802,-0.009638827186970345
-0.020645222581280667,-0.8003210820290912,-0.0026048374690247206,-2.369395873666599,-0.00673374943708601,1.5877564546680836,0.7894440584602366,-0.009647219488297998
-0.021376196661567544,-0.7998553300294089,-0.0027567672884987564,-2.369161770687633,-0.006818614334986879,1.5882333599618894,0.7886016894373362,-0.009646897832149559
-0.022159423336885295,-0.7992527088305014,-0.002902825236766906,-2.3688459000816873,-0.006905780447311216,1.5887688682161571,0.7877064256095674,-0.009645903622236163
-0.022957042393641373,-0.7986763506489525,-0.0030416034609574844,-2.368535525144587,-0.006996990088645426,1.5892766551932882,0.7867940194614893,-0.009642219197263047
-0.023687967582611255,-0.79815656506975,-0.0031833059856033047,-2.368226339023898,-0.007074131154835756,1.5897118431254094,0.7859521787011061,-0.009630317919770592
-0.024443955682952094,-0.7975881413345328,-0.003347623358995168,-2.367918279150334,-0.007165761435669979,1.590238005607092,0.7850785050833904,-0.009647453420042307
-0.02517252186587731,-0.7969087146951326,-0.003530015934338826,-2.3675286393576447,-0.007253372793147531,1.5908020929630333,0.7842037749406402,-0.009641692850838324
-0.026033577406425264,-0.7962429353034232,-0.0036922157108493087,-2.3671831213389325,-0.007351611449413705,1.5913497010581361,0.7832186621270306,-0.009643330373048598
-0.02680350564352229,-0.7956401554155891,-0.003849288265606699,-2.3668466654382976,-0.0074377195186502675,1.5917898553428387,0.7823203980907674,-0.009644909412322766
-0.027579349729974854,-0.7950269020585967,-0.003999329312770781,-2.3665261021359942,-0.007525090678084639,1.5922846395059382,0.7814318403741898,-0.009641108021477496
-0.028358713991250555,-0.7943965896419909,-0.004189850977974106,-2.366136608338303,-0.0076099333137278485,1.5928012756203962,0.7805085826655491,-0.009631516819960217
-0.029205789670847263,-0.79372120957022,-0.004354903304862344,-2.3657983275001953,-0.007710926631455107,1.5933516829324086,0.7795419993654236,-0.009640552433584748
-0.02988859663677907,-0.7930921666650272,-0.0045387405777120755,-2.365375995256214,-0.007790319700762497,1.59379757109691,0.7787202164505397,-0.009651459501163862
-0.0306766818867225,-0.792382668474029,-0.00471794318339468,-2.3649191143388255,-0.007876401992648083,1.5942435495587306,0.7777981281780058,-0.009672220943472587
-0.0314571400912158,-0.7917683836390136,-0.004890434248045722,-2.3645715002490735,-0.007965288157301163,1.5947000025096327,0.7768960614581264,-0.009681519730309451
-0.03233138406452125,-0.7910429372108884,-0.005087715934062691,-2.364128113440767,-0.008070091836181738,1.5951949672673713,0.7758749663052745,-0.009703889453360426
-0.033179630080018355,-0.7902337823739616,-0.0052907104776003105,-2.3636405318609848,-0.00816635149491164,1.5957505215266046,0.7748664929972986,-0.009721668265929018
-0.03399699206171563,-0.7895044480671337,-0.005487650865951415,-2.363174244694453,-0.008259290562156763,1.5962422807294951,0.7738925704774687,-0.009741493981260452
-0.03480906461405627,-0.7887668619361206,-0.005681376075154777,-2.3627211805034354,-0.008354392583488301,1.59676514735901,0.7729244951381726,-0.009757196649598177
-0.03566394762583448,-0.7879623090780663,-0.005872591970837528,-2.3622853437221583,-0.008460899910928818,1.5973426438669218,0.7719184615158676,-0.00977854292126773
-0.0365532195676991,-0.7871729903569693,-0.006070447657474359,-2.361816220081383,-0.008568600026700846,1.5978754883502595,0.7708757035672732,-0.00980331044469801
-0.03745737280417193,-0.7863899398484745,-0.006285370166595659,-2.361352685963381,-0.0086763856764102,1.5984173174169038,0.7698057179200838,-0.009810533087304008
-0.03835731527596917,-0.7855666616970769,-0.006491492625673272,-2.3608523298212916,-0.008781591247626444,1.59892903232744,0.7687601291296036,-0.009814890066042026
-0.03924461017520309,-0.7847156129835177,-0.006734203745884505,-2.3602182631176496,-0.00887872733628952,1.5994076081216597,0.7676721321501015,-0.009824335060219125
-0.04010190719575758,-0.7839297060743434,-0.006944832885504543,-2.3597316617899957,-0.008977171039665726,1.5999224834383843,0.766660751382012,-0.009841236628746475
-0.04098215868963793,-0.7830677078248461,-0.007175003255686565,-2.3591757858358875,-0.00907729378594867,1.6004442665000633,0.7656126402388257,-0.00984407305114643
-0.041857661614355814,-0.7822145168107774,-0.007396561677379378,-2.3585663610022305,-0.009176616262653594,1.6009018933161208,0.764569513312977,-0.009865214632539698
-0.042799583393201834,-0.7812379451562476,-0.007656841870617465,-2.3579184769148687,-0.009282037426259814,1.6014852140011508,0.7634354304695244,-0.009853868942939992
-0.04372646803636674,-0.7803377028754307,-0.007903887083346911,-2.3572687783182484,-0.009383696268321353,1.6019761605281644,0.7623303677879408,-0.00986208579545933
-0.04467938730582774,-0.7792871821810876,-0.008162559687011128,-2.3564954845277795,-0.009489371690344018,1.6024933384265405,0.7611820077426406,-0.009861296275822273
-0.04564254930619771,-0.7783317161538006,-0.008406036787779275,-2.355852678980698,-0.009596041883774787,1.6030285306401895,0.7600417934247042,-0.009854746186981178
-0.04656335003610494,-0.7774528968780798,-0.008644169477370591,-2.3552179970124225,-0.009701243939897715,1.6034799269411901,0.758949398962187,-0.009857933506997596
-0.047493617347263956,-0.7765487667185602,-0.00888521483226946,-2.3545784763527915,-0.009807608320210093,1.6039707380222243,0.757855145499514,-0.009865857944836576
-0.04847700201862307,-0.7754565901809747,-0.009165420215943628,-2.3537724379699596,-0.009915983333898575,1.604513018575467,0.7566520578606883,-0.009844862570783486
-0.04944256274923277,-0.774468116856947,-0.00940983394610161,-2.3530628605678148,-0.010023483089351656,1.6050163809839344,0.7555128436122502,-0.009844277741422713
-0.05048680183170532,-0.7734029967813534,-0.009692089054962248,-2.352286073325613,-0.010140250974178271,1.6055506702243867,0.7542611679194595,-0.009833663088524014
-0.05146803834082428,-0.7723992099759052,-0.009958720099653196,-2.3515768609109626,-0.010254343872992273,1.6060774196386471,0.7530913406565243,-0.009812813921811159
-0.052520103089722214,-0.771246652301734,-0.010251045428848093,-2.35070713742445,-0.010374233160682493,1.6066236281252952,0.7518172450589254,-0.009788017156912854
-0.05350337317205714,-0.7701416219610907,-0.01054874231789778,-2.349844984821394,-0.010489914881674816,1.6071229271543777,0.750616485202833,-0.009766875575519585
-0.0546010168512171,-0.768870523658721,-0.010861429155567506,-2.348898843381749,-0.010623332591836192,1.6077211468971524,0.7492828884944973,-0.009732195194423587
-0.055651213035093905,-0.7677308197876074,-0.011145951179038337,-2.348044345087863,-0.010743965907611392,1.608231462199234,0.7480175142691047,-0.009698333574432727
-0.05670096766926417,-0.7666007959410187,-0.01141515359137096,-2.3472369301807667,-0.010869891782221013,1.608768776399895,0.7467705193451446,-0.009683976013624862
-0.057813468197373846,-0.7653253336931664,-0.011743497459462193,-2.346233600414842,-0.011000971955328002,1.6093086640741665,0.7454043750120628,-0.009639879879819846
-0.05883333954188887,-0.7641508769471191,-0.012038743210729761,-2.3453523433235035,-0.011124341185399941,1.609846204018127,0.7441656987105463,-0.009608708474888705
-0.05990797221713772,-0.7629428574930879,-0.012356095742627148,-2.344413334782322,-0.011257633523899755,1.6103508757377294,0.7428593322211422,-0.009566630002378451
-0.06096054726915672,-0.7618041850999975,-0.012637984344335235,-2.3435331517970384,-0.011380911361545508,1.6108406032509275,0.7415892341291659,-0.009540780544630645
-0.06204647995004441,-0.7605402277993264,-0.012956003958034087,-2.342547132866567,-0.011515231278991034,1.611365411272815,0.7402656192132886,-0.009494228127510218
-0.06312987181030238,-0.7592700022860531,-0.013286884288323895,-2.341524114632368,-0.011647638985673272,1.6118595633546768,0.7389295157783329,-0.009440745482464208
-0.06422376613659084,-0.7579842252579694,-0.013608134594700744,-2.3405089175587657,-0.011778564494674407,1.6123823396868722,0.73758012916222,-0.009386824215397604
-0.0652741884428087,-0.7567764438373281,-0.013906843741600321,-2.3395987951707196,-0.011910625378816245,1.6129064704788623,0.7363088108493578,-0.009337757032025717
-0.0663686282128523,-0.7554314758396083,-0.014241928238592359,-2.338515960700281,-0.012049757459009826,1.613424822242394,0.7349606951128933,-0.009268133096621334
-0.06740226017131895,-0.7542471803801095,-0.014523200177472353,-2.3376344011907326,-0.012178585628999757,1.613927191380345,0.7337121847106337,-0.00923365740580162
-0.06757836058369493,-0.7541300679522508,-0.014550841410024756,-2.3375839912036365,-0.012187947494195025,1.6140090910492804,0.7335236287645109,-0.009227984561001767
-0.06775591627667814,-0.754016208647388,-0.014576741248804734,-2.337534853458664,-0.012196633289776064,1.614087423974089,0.7333345231330114,-0.009221609920968932
-0.0679343543051476,-0.7538975093302629,-0.014603901561918872,-2.3374813671484,-0.012205571000378003,1.6141663889801352,0.7331435229646122,-0.009216317215253622
-0.06811661960702503,-0.7537776991906513,-0.014630926131643174,-2.3374292052213304,-0.012214494650606682,1.6142518553931973,0.7329495583764958,-0.009211229199814597
-0.06830236077596957,-0.7536518588718274,-0.014659614527488565,-2.3373749263667927,-0.012224106087427303,1.614338992306673,0.7327518440318287,-0.009209620919072348
-0.06849125849056716,-0.7535222100187642,-0.014686774840602702,-2.3373164866548177,-0.012233155109317547,1.614426671004067,0.7325520191574293,-0.009207135394288912
-0.06867959624679985,-0.7533990674116932,-0.014714470370511035,-2.337261258832794,-0.012242282634958489,1.614509473646199,0.732351662996109,-0.009202953864359154
-0.06887317224929171,-0.7532660067467073,-0.014744648065262014,-2.337203444813667,-0.01225233345844347,1.614600041857822,0.7321461769420051,-0.009198245988004616
-0.06906992007597317,-0.7531361992047174,-0.014774135407916136,-2.3371466110466677,-0.0122621593159563,1.6146893007583099,0.7319380793152852,-0.009195789704689206
-0.0692717258621824,-0.7529982191830058,-0.01480409979162595,-2.337085407857949,-0.012272104686641834,1.6147864155256086,0.7317257873446671,-0.009198012056260307
-0.06948170490152372,-0.7528538916042286,-0.014837690463035565,-2.337024840790292,-0.012283369389018216,1.614887909712911,0.731504339495841,-0.009195438807072742
-0.06969120419481709,-0.752705993524602,-0.014871327675035979,-2.3369600920087694,-0.012294385691467014,1.6149901714274306,0.7312831577945427,-0.009195614255880946
-0.0699033898368009,-0.7525576193781955,-0.014903859548004907,-2.336897408013644,-0.012304865356336408,1.615090085411639,0.7310603207362725,-0.009196725431666497
-0.07011867434796225,-0.7524078170314493,-0.014937535543830986,-2.3368321586778436,-0.012315635602253166,1.6151899993958472,0.7308339446215777,-0.009196023636433515
-0.07033688584476483,-0.7522557136952669,-0.014970649174184909,-2.3367635201724513,-0.012326262901041784,1.6152912226911906,0.7306054443673339,-0.009196257568177879
-0.07055715497847846,-0.7520979769021888,-0.015005527468606648,-2.3366933800042244,-0.012337544007186969,1.6153996697721071,0.7303751370318649,-0.009198187505068511
-0.07078087935323485,-0.7519317502515356,-0.015040386371115554,-2.3366205285003243,-0.012348457200231864,1.615513489543544,0.7301420739605357,-0.009200731512788052
-0.07101423760921834,-0.7517653649119558,-0.015076424301924716,-2.3365500650574593,-0.012359734791283734,1.6156278510988984,0.7299010803985742,-0.009200848478660206
-0.07124320977931924,-0.7516031054844684,-0.015111593475038949,-2.3364758370292944,-0.012370407786285446,1.6157344922334216,0.7296625355954947,-0.009200497581043743
-0.07148280129625528,-0.7514261673312672,-0.015148849217974037,-2.336397104012626,-0.01238212242060613,1.6158534138034193,0.7294148762477248,-0.009200731512788052
-0.07172584423459995,-0.7512455793327533,-0.01518628724488975,-2.3363144395592306,-0.012393725743638511,1.6159692652645483,0.7291655000467743,-0.009205761045291028
-0.07196968853218712,-0.7510635631338995,-0.015224120866827267,-2.3362315665415534,-0.012404197206623505,1.616087915942587,0.7289181476759824,-0.00920769098218166
-0.07222383591090267,-0.7508771036451,-0.015263048192648575,-2.3361458361932046,-0.012415829822100176,1.6162097270268136,0.7286583886970464,-0.009213363826981513
-0.07247334167021169,-0.7506933418680533,-0.015301409274615149,-2.336059428010938,-0.012426426656746734,1.6163257590825821,0.7284039314978389,-0.009216287973785597
-0.07272543752343082,-0.7505037086007209,-0.015340747708988519,-2.335968973681589,-0.012436866483891893,1.61644729927485,0.7281452078731111,-0.009217750047187612
-0.07298596980257425,-0.75030574416474,-0.015381792631691201,-2.3358723667059045,-0.012448025733468829,1.616567665601962,0.7278786611240832,-0.009220147847566917
-0.07324885421242093,-0.7501070656285894,-0.015421964918316395,-2.3357772613930545,-0.012459537664075024,1.616692637092377,0.7276087966041697,-0.009221726886841086
-0.07352285986902869,-0.7498911693438985,-0.015465755735876264,-2.335676649983145,-0.01247191899442776,1.6168293472343487,0.7273309748780576,-0.009228627873298645
-0.0738025514330168,-0.749675352403671,-0.015511031973959147,-2.3355740050714804,-0.012484760802004748,1.616969578971787,0.727046246421974,-0.009236230654989186
-0.07407807730401217,-0.7494564410293739,-0.01555474910225024,-2.3354681899827208,-0.012496584404218193,1.6171037607888077,0.7267675486269165,-0.009242488329149867
-0.07436020579458139,-0.7492373709661503,-0.015600099029601893,-2.3353642832571464,-0.012508497055462283,1.6172429089584102,0.7264835893775133,-0.009250617457265076
-0.0746425447469917,-0.7490109218678379,-0.015645010699723513,-2.3352528682174,-0.01252032065767573,1.6173828698038895,0.7261979042017181,-0.00925734299491443
-0.07493152909887824,-0.748780584890823,-0.015693292684295538,-2.335141932875503,-0.01253281915780563,1.6175286096778274,0.7259047588300698,-0.009266290884134776
-0.07522435371092882,-0.7485508826695146,-0.015739972896867547,-2.3350315606571694,-0.012544926310879808,1.6176724081593923,0.7256085174771423,-0.009274536978122194
-0.0755219692900808,-0.7483099928788782,-0.015788902571328197,-2.3349114276304115,-0.012556309354731125,1.6178185543712686,0.7253066315787308,-0.009279683476497325
-0.07582931118560607,-0.7480545037069912,-0.015840993127580656,-2.3347937139493316,-0.012569687799887513,1.6179820828171803,0.7249964951069594,-0.00928874833158988
-0.07614809212145288,-0.7477983004349342,-0.015892843224113985,-2.334664028678432,-0.012582353852798756,1.6181357688552485,0.7246741077838357,-0.009298514981915362
-0.07646395275601818,-0.7475370191172249,-0.015945069523756277,-2.3345357825010824,-0.012595055056643148,1.618295324219095,0.7243545170260222,-0.009307813768752227
-0.07678726645169853,-0.7472638361300177,-0.016000099893994247,-2.334404804131631,-0.012608646750793973,1.618466843977797,0.7240281213598291,-0.009317697384949919
-0.0771210558759704,-0.746986051163938,-0.01605776368599496,-2.3342732939232596,-0.012623831953914205,1.6186469871305267,0.7236912673055576,-0.009324218232322934
-0.07744345782498162,-0.746721596067696,-0.01611092855421838,-2.3341332325793025,-0.012635652041034336,1.6188005377226156,0.7233633271771959,-0.00933170404814132
-0.0777804857260588,-0.7464292117203656,-0.01616885995461619,-2.3339871958686498,-0.01265009555946513,1.6189750372928664,0.7230226825369233,-0.009341324491126624
-0.07811784803610491,-0.7461399218071046,-0.016224103635895323,-2.333839678351591,-0.012664904647600672,1.619154728958998,0.7226815257642866,-0.009345944643077031
-0.07846572980955344,-0.7458341282454733,-0.016285149377494142,-2.333686414888548,-0.012679489941461832,1.6193373552880186,0.7223282552465995,-0.009357758196165356
-0.078817485073983,-0.7455326192848613,-0.016344174481775744,-2.3335258516756148,-0.012692450090513752,1.6195147895211583,0.7219716236082403,-0.00936167655288278
-0.07918200269098179,-0.7452073863297168,-0.01640871076768453,-2.333365173752326,-0.012707932904867977,1.619712450353903,0.7216020697009018,-0.009374308867076298
-0.07954258684874353,-0.7448975462004563,-0.016469252319549686,-2.333204839960104,-0.012723648887078753,1.619896882629317,0.721236786251622,-0.00938384158565747
-0.0799047362925757,-0.7445577932085246,-0.016534913336402796,-2.333030334224881,-0.012737064826563836,1.6200950400973197,0.7208704160332706,-0.009388871118160447
-0.08027944927702015,-0.7442276408966543,-0.016600574353255914,-2.3328584668278327,-0.01275194070147236,1.6202908046863516,0.7204887362832669,-0.009395772104618005
-0.08067441854523415,-0.7438769383687845,-0.016669144157033997,-2.332678204718411,-0.012768062091112118,1.6204986239675585,0.7200872950793288,-0.009406532964856884
-0.08105088856138283,-0.7435182220501195,-0.016739342881490076,-2.332481789305305,-0.01278107379486599,1.6206922214209183,0.7197057846959337,-0.009414340436823654
-0.0814478807078372,-0.7431535548967055,-0.01680995271449821,-2.3322878036660906,-0.012795475132177004,1.6208946680116052,0.7193069142351612,-0.009426387921656343
-0.08184829219077343,-0.7427853965869056,-0.01688222637362743,-2.3320951945511412,-0.01281212144241845,1.621109756227045,0.7188993778495841,-0.009438493889425081
-0.08224482445327738,-0.7424137471207195,-0.01695418588376876,-2.331899509113024,-0.012827518722835347,1.6213240769152677,0.7184945432646673,-0.009445891980839338
-0.0826620446182087,-0.7420143270923719,-0.017030764547546946,-2.3317003510796024,-0.012845510142118615,1.6215592562843328,0.7180703968538366,-0.009454255040698911
-0.0830693765142792,-0.7416098290183718,-0.017107967630918357,-2.331480065484356,-0.012860995299868382,1.6217716355801826,0.7176557107778553,-0.009469285155271734
-0.08349149497803125,-0.7412045374997386,-0.017184790632798246,-2.331264785431892,-0.012877820879868886,1.622005144448834,0.7172272757625434,-0.00947934422027763
-0.08390562887857769,-0.7407736177194533,-0.01726560836872176,-2.331034342756085,-0.012892830328323375,1.622232829140367,0.7168069602630966,-0.009499433108821453
-0.08434275697664505,-0.7403438087616544,-0.017352297975851163,-2.330808999476987,-0.012911379475745936,1.6224699950504646,0.7163576810573171,-0.009516685574965322
-0.08478799721369826,-0.7399056686352071,-0.01743430249684007,-2.330563654883191,-0.012927075539094595,1.6226991696477722,0.7159028188022625,-0.009530253616136075
-0.08524290265297851,-0.7394442805810073,-0.017519805318904087,-2.3303050351728096,-0.01294200296870507,1.6229315046512678,0.7154365343824759,-0.009545400696581052
-0.08570247797695796,-0.7389885259837032,-0.017606390209704188,-2.3300585851883158,-0.012958766448723678,1.6231699347238409,0.7149638382267939,-0.009558179218114748
-0.0861504920323234,-0.7385333267976424,-0.017691741774848096,-2.3298024786775393,-0.012973570850068132,1.6233985675372302,0.7145061229508927,-0.009571513327541192
-0.08661020791883918,-0.7380543242725858,-0.01777899374744966,-2.3295360169501333,-0.012989134511568598,1.6236422800030037,0.714036991559067,-0.009582859017140899
-0.08708963311751573,-0.73755191513085,-0.017873936552680863,-2.3292580946154007,-0.013007117728967465,1.6239004400399233,0.7135391908362043,-0.009604029840002193
-0.08758425511258042,-0.7370253059278021,-0.017973541173757154,-2.328965718775886,-0.013024775214385822,1.624174718148403,0.7130315507198919,-0.009621837894038865
-0.08806891473788199,-0.7364992521359974,-0.01806956604772444,-2.328666992153967,-0.013041442615187157,1.6244297629277942,0.7125301872494421,-0.009637686769716769
-0.0885452651310761,-0.7359741504777525,-0.01816381850085878,-2.3283666804435006,-0.013055928314737729,1.624679525313985,0.7120384958221023,-0.009653769577139037
-0.0890474263200057,-0.7354196913680796,-0.018263558865324905,-2.3280529371932372,-0.013073871694412362,1.62494427705524,0.7115209114663446,-0.009678887998185781
-0.08953405229296238,-0.7348812598399972,-0.01835998709107912,-2.327735544068029,-0.013086626796354247,1.6251955744958653,0.7110238124051459,-0.009699883372238871
-0.09004459834275542,-0.734291413099684,-0.01846586693514823,-2.327405272098372,-0.0131031407047475,1.6254766700519796,0.7104938703357707,-0.009725352690902134
-0.09056157207287871,-0.733700376192421,-0.018569877398820215,-2.3270664489931296,-0.013119112117072491,1.625746433294476,0.7099575104816926,-0.009747488482208744
-0.09108192999884977,-0.7330699844313519,-0.018680038977242883,-2.3267103150524346,-0.013134422691854285,1.62602757399925,0.7094143880608871,-0.009779390923840892
-0.09161480715767706,-0.732433959213387,-0.018796925671036097,-2.326348529019682,-0.013152039167850635,1.6263119202588723,0.7088519901070122,-0.009808193769860751
-0.09214480125665571,-0.7317933320165498,-0.01891207484943946,-2.3259705271139604,-0.013167476285991766,1.6265857468807536,0.708296628932469,-0.009840593316449597
-0.09268605563707814,-0.7311580208987548,-0.019025812296588566,-2.325599470398848,-0.01318410736416218,1.6268675648154252,0.7077308839718058,-0.009869162230725148
-0.09323307919290516,-0.7305012867758638,-0.01913889817546648,-2.3252123542339778,-0.0131985333071264,1.6271429716404007,0.7071579207675874,-0.00989612286425845
-0.09378691239247641,-0.7298182102911509,-0.019260473833782755,-2.324797780581308,-0.013213274436791187,1.627429439887035,0.7065717429353631,-0.009942061210550024
-0.0943285456806055,-0.7291371967624842,-0.01937905538075758,-2.3243926340342096,-0.013226699749858442,1.6276976229264373,0.7060054818097976,-0.009978963943217123
-0.09491040735549375,-0.7284319831725052,-0.01950120116131115,-2.3239634817381885,-0.013244484950333904,1.6279940690268944,0.7053903059946649,-0.010012884046144033
-0.09547591182914221,-0.7276950317971987,-0.019623517590697654,-2.32352693583835,-0.013256556952474935,1.62828022123291,0.7047958856541573,-0.010055459623610985
-0.09605792323368872,-0.7269344357718232,-0.019753742042137517,-2.323072338699856,-0.01327048023709513,1.628581001604711,0.7041843854976841,-0.010108211231955988
-0.09665105435714269,-0.7261648738220926,-0.019884172047853418,-2.3226148633742625,-0.013286375489064965,1.6288918952763143,0.7035602191384137,-0.010154120336779482
-0.09723065786432755,-0.7253988030287479,-0.02001559104112381,-2.3221571273433153,-0.013298597468520763,1.629180936996559,0.7029482088658457,-0.010205292905850316
-0.09782134442193213,-0.724598058704933,-0.020148588536098817,-2.3216775754884122,-0.013311138149770441,1.6294783763675327,0.7023277302628498,-0.010256991821345873
-0.09842513538034313,-0.7237943786359753,-0.020284483182851105,-2.321193268367866,-0.013323027367059098,1.6297787052527353,0.7016935450621754,-0.01031146867630528
-0.09903785969908002,-0.7229683234283615,-0.020421079816847956,-2.320693454492912,-0.013337459168512178,1.6300835490039214,0.7010367776470264,-0.010354979980749468
-0.09966460665867051,-0.7221282242507403,-0.020558293113672892,-2.320179760664953,-0.013352083128399802,1.6303893408769636,0.700368231187506,-0.010398111146109168
-0.10028311848705584,-0.7212573394213514,-0.020701917376880482,-2.3196451686958803,-0.013364337915393204,1.6307031692114562,0.6997027817173992,-0.01044489749497396
-0.10092018457023812,-0.7204028392236379,-0.020842291555497227,-2.319123903984464,-0.013378180352867157,1.6310032723533598,0.6990302228822712,-0.010490338736308835
-0.10155142036386956,-0.7195238612589904,-0.020985469804709656,-2.3186001573580852,-0.013390010985267233,1.6313210286212576,0.6983633096007619,-0.0105451080059486
-0.1022114225861338,-0.7185835500241974,-0.0211413613919755,-2.3180208439927235,-0.01340341637947237,1.6316544966227773,0.6976592364788269,-0.01060405880551818
-0.10286569230148121,-0.7176549817699756,-0.021292463176771564,-2.317445024079095,-0.013414838089350149,1.6319662932675771,0.6969584861684504,-0.010658418694605432
-0.10353287849163537,-0.7166697218967123,-0.021457178084376503,-2.316824952038813,-0.013427280347987012,1.6323068496086903,0.6962335003028965,-0.010715147142603965
-0.10419888212305987,-0.715701481410831,-0.02162083807192332,-2.31621255516413,-0.013440625985605796,1.6326380150285584,0.6955164504727154,-0.010780414099270275
-0.10487745693436491,-0.7147072952854444,-0.021777237727305398,-2.3155911483124396,-0.013450076899831706,1.6329590219999641,0.6947871901165646,-0.010828019209240147
-0.105566971177846,-0.7137087452145753,-0.02193748473819358,-2.3149733496228375,-0.01346122091733761,1.6332748820241492,0.6940541311093362,-0.010880653851712996
-0.10629323335745816,-0.7126344211812365,-0.022110693303619453,-2.3143047759586453,-0.013476646318501024,1.6336409925067272,0.6932728550416662,-0.010937616231455838
-0.1069978977977909,-0.7115597797700446,-0.022278045511369703,-2.3136230992434004,-0.013486413591125273,1.6339863797544423,0.6925181534013869,-0.011003468017482976
-0.10772636314237483,-0.7104447520270232,-0.02245835151689252,-2.3129089073565035,-0.013496885054110265,1.6343418351533,0.6917302801010596,-0.011060488880161867
-0.10842740656954314,-0.7093598751800629,-0.022629520053088336,-2.312218794216029,-0.013504805731046437,1.6346900216179245,0.6909701587293063,-0.011118913333306724
-0.10917337806131608,-0.7082202506534128,-0.022814495631221374,-2.311475627536177,-0.013515242628947167,1.6350517075318391,0.6901603403555558,-0.01117988179417112
-0.109904676046578,-0.7070613057499443,-0.02300053776456024,-2.3107308496972423,-0.013525327431667525,1.6354128516618356,0.6893580225030415,-0.011237809142359279
-0.11065383464107709,-0.7058432492213033,-0.023194038027574738,-2.3099470911938957,-0.013534676408187302,1.6357663656683203,0.68853263046638,-0.011287929018580667
-0.11137782643015662,-0.7046497101318278,-0.023380250809746535,-2.3091680983844056,-0.013538823046601076,1.6361222725537765,0.6877410714260475,-0.011344657466579144
-0.1121503978540783,-0.7034220529231251,-0.023573328329061265,-2.3083690156203978,-0.013547545164813036,1.6364922206724402,0.6869060779156961,-0.011403842197893088
-0.11292594859262894,-0.7021672202357357,-0.02376803476905399,-2.3075425066532325,-0.013554080894983148,1.6368542226269736,0.6860717013837044,-0.011460395197083362
-0.11369756052445473,-0.7008801736962389,-0.023967775349618203,-2.306698916271325,-0.013559956373458951,1.637217488743982,0.6852299291764723,-0.011520866552991005
-0.11444514237398096,-0.6995969356909812,-0.024156524593988576,-2.3058484171975575,-0.013559084044467979,1.6375638692622134,0.6844159774509652,-0.011581279425962654
-0.11529115466743317,-0.6981950777130619,-0.024373442530940415,-2.3049279813057386,-0.013570454785492691,1.637955127548318,0.6834820940039066,-0.011615374977697823
-0.1160946651278863,-0.6968434447804234,-0.02457578550620684,-2.3040233076595746,-0.013573710933600032,1.6383264301267766,0.682603448266468,-0.011662629190051232
-0.11692806651726294,-0.6954222267534541,-0.024788790155148937,-2.303096708693206,-0.01357865549819628,1.638736560552691,0.6816977683922728,-0.011713860242058116
-0.11776794600614048,-0.6939501092532657,-0.02501043971883207,-2.302110971324516,-0.013580229088303569,1.6391335075699343,0.6807683852579558,-0.011756201887780704
-0.11861706595392874,-0.6924159443827619,-0.025244465201285326,-2.301082082005763,-0.013589022094230713,1.6395486946457498,0.6798092540886069,-0.01180176009498779
-0.11946184679733432,-0.6909089946631766,-0.02547225036618887,-2.3000706182328186,-0.013594293562505244,1.6399443323518579,0.6788619906794721,-0.011842815116116623
-0.12031608199916244,-0.6893707832250434,-0.025706667565281355,-2.299023239690416,-0.013599290853501216,1.6403437173967321,0.6779016618462483,-0.011889835396725668
-0.1211663692271438,-0.6878212255286558,-0.025947910717691116,-2.2979277870808823,-0.013600970482256837,1.640703145877655,0.6769329493659009,-0.011951125513738503
-0.12200624566031402,-0.6862252909934582,-0.02619293529310335,-2.2968173074147895,-0.013601386434965763,1.641089482959838,0.6759712212418874,-0.012005807058974194
-0.12287600079957851,-0.6845778619015666,-0.026434294796990113,-2.2956967228092067,-0.013596945114562426,1.6415061147927679,0.6749938992922715,-0.012050955885628656
-0.12374534647406324,-0.6828887769664325,-0.02668052554938057,-2.2945432893291193,-0.013594192796496884,1.6419216179092022,0.6740129520907248,-0.01209160152620492
-0.12466590885880013,-0.6811133652552074,-0.026950034353935958,-2.293352825260663,-0.013601699278270787,1.6424008257846594,0.6729633267294072,-0.012121778721222665
-0.12556548159001266,-0.6794078163439347,-0.027203281100389453,-2.2921686546194326,-0.013599632403401644,1.6428148841439791,0.6719467964099097,-0.012176460266458355
-0.12648052842305185,-0.6776232006749645,-0.027465514059249834,-2.29094072719172,-0.013600176071167676,1.6432406360061953,0.6708951749421341,-0.012220380951455112
-0.12740004881159547,-0.6758224780799407,-0.027729077303330577,-2.2897023663357725,-0.013599965165568785,1.643692799834413,0.6698468883835318,-0.01224447592112049
-0.12828644838858705,-0.6740128689050251,-0.027993385196864114,-2.288450704292704,-0.0135966984721815,1.6441002664893973,0.6688187645164246,-0.012302783408393192
-0.12921455225896933,-0.6721191545989914,-0.02827252014694989,-2.2871289437942655,-0.013594014112586712,1.6445493602087466,0.6677450608689235,-0.012338574965274685
-0.13012817818810857,-0.6701872756061014,-0.02855116642083227,-2.285806187401377,-0.013589091810248125,1.6450106440662506,0.666668195711396,-0.012374366522156233
-0.1310591177548762,-0.6682174699597448,-0.028842324356874612,-2.284416826004852,-0.01358512444159341,1.6454680902876688,0.6655744584136253,-0.012416240304390203
-0.1320284858967963,-0.6661913297444317,-0.029130744154824906,-2.2830156025147557,-0.013582621695153223,1.6459628744507682,0.6644585744155163,-0.012442206728010108
-0.1329775519193372,-0.6641686806855048,-0.029422262780445945,-2.2815913118150077,-0.013577910298413529,1.6464022612082536,0.6633535621406613,-0.012483027817394632
-0.13391144329936794,-0.6621171502419297,-0.029716058016633597,-2.280163167890139,-0.013570317696853412,1.6468641319983353,0.6622526307945652,-0.012531919551958315
-0.13487309272461862,-0.660008253751375,-0.030025254309993355,-2.278671641279799,-0.013566002333960525,1.6473454167121448,0.6611236329819077,-0.012556248453367946
-0.13580947145040112,-0.6578594469957709,-0.03033128196479617,-2.277180938498375,-0.013551947819189909,1.647836724428437,0.6600211370109514,-0.012590987317400049
-0.13678264089221706,-0.655649902053496,-0.030650430187821914,-2.2756388976187973,-0.013544733676010027,1.6483201762779187,0.6588653066884521,-0.012635434348821528
-0.13773674883182233,-0.6533950117504345,-0.03096967149202925,-2.2740555088702012,-0.01353333540008768,1.6488131093459648,0.657728195408737,-0.01267531971122876
-0.13871595635128628,-0.6511323456899676,-0.0312908170820768,-2.2724951456184,-0.01352462031206235,1.6493161557138136,0.6565663485390956,-0.012718831015672949
-0.1396490593588306,-0.6488567464819798,-0.031617873327155904,-2.270897717886534,-0.013507996264078566,1.6497898103041115,0.655439237954362,-0.01276971117006337
-0.14061548791031683,-0.6465046195391209,-0.03195199598527142,-2.2692697719860213,-0.01349282980812268,1.650313038122905,0.6542788992540444,-0.01280105802380277
-0.14159317979895417,-0.6441104797029344,-0.03229629551924178,-2.26757223079147,-0.01347526371513051,1.6508137367604423,0.6531055273899443,-0.012830679630927766
-0.14254703717055986,-0.6416798414136213,-0.03263473869553653,-2.26587580541583,-0.013455862743427978,1.6513203950210775,0.6519463823209632,-0.012866646636617518
-0.1435287075901171,-0.6392807028762459,-0.03297054457168595,-2.2641960130417247,-0.013436783988612644,1.6518158564140744,0.6507614048116385,-0.012914836575948219
-0.1445219530289712,-0.636711053087198,-0.03333165689408267,-2.2623782449664884,-0.013418367243038276,1.652340077503384,0.6495377794552558,-0.012937177057531168
-0.1455123566600254,-0.6342070211693148,-0.03368209202927344,-2.260590572717226,-0.013400183665320461,1.6528474129939168,0.6483394058537018,-0.012971681989818906
-0.14648617391179145,-0.6316390376139966,-0.034038810144222165,-2.25875146590883,-0.013376596217479922,1.6533254018555585,0.6471431372371398,-0.013001391321348033
-0.14748526797444025,-0.6290261450924399,-0.0343983633568271,-2.2569241143048093,-0.013355305297271764,1.653866643989625,0.6459165278024158,-0.013031977896918345
-0.14845790572318396,-0.626460105476473,-0.03475508535015838,-2.2551319266388297,-0.013329011227578777,1.6544059447313189,0.6447260095854682,-0.013082127014607758
-0.14944538809804814,-0.6238678028431475,-0.035107804852680904,-2.253292699905971,-0.013301199809271537,1.6549174790472159,0.6435235389250022,-0.013136574628099085
-0.15044892515912822,-0.6211603713935462,-0.03547203539466119,-2.2513888834218547,-0.01327474053019275,1.65543786250044,0.6422870981619053,-0.013179150205566037
-0.15145934367307434,-0.6184771400052572,-0.035844736324167015,-2.249468135428575,-0.013246790851548458,1.6559463267074683,0.6410456570513174,-0.013220409916971154
-0.15173682634263946,-0.6181517086889545,-0.035871811312864696,-2.2491939138063306,-0.013252359931056982,1.6559882698124524,0.6407818725910244,-0.013223480271115362
-0.15201570241473875,-0.6178248095000803,-0.03589933619394009,-2.2489214949616043,-0.013258334417994486,1.6560271428085678,0.6405156040871391,-0.013227691042513201
-0.15229791531922246,-0.6174905709483492,-0.035927237278124455,-2.2486416486213647,-0.013264326480398566,1.656067641156437,0.6402446336435972,-0.013229562496467784
-0.1525819249796055,-0.6171529999291587,-0.03595543311938389,-2.2483558894837143,-0.013269907276884806,1.656112022289052,0.6399736793302083,-0.013232662092080072
-0.1528743928378274,-0.6168065423300765,-0.03598711174818815,-2.248063928165711,-0.01327596143927078,1.656155816489089,0.6396911113065183,-0.013234650511906865
-0.1531652411711741,-0.6164642899875501,-0.03601846459285682,-2.2477723774586393,-0.013281832816804383,1.6561927480928316,0.6394111805628759,-0.013237954797795437
-0.1534626103839241,-0.6161149363155567,-0.03605129897966594,-2.2474754327578097,-0.013288626320484252,1.6562372195227661,0.6391236444520015,-0.013244007781679779
-0.15376115298828175,-0.6157614964037024,-0.03608328787907554,-2.247174516210924,-0.013294440284827045,1.6562799753036272,0.638836713221872,-0.013247779931057024
-0.15406638759165217,-0.6154006774567594,-0.03611779772715344,-2.24686824607961,-0.013300609273594638,1.6563264784232543,0.6385424024466552,-0.013252663256219765
-0.15436761310702957,-0.6150235135503728,-0.036151493114892366,-2.2465527574070068,-0.013305581958937406,1.656374968083914,0.6382523984223417,-0.013251025734009492
-0.15467705236366094,-0.6146450007881097,-0.036189237534030846,-2.246233535433746,-0.013311222512009998,1.6564239092311717,0.6379512968526294,-0.013254242295493934
-0.15499019513755416,-0.6142611719468042,-0.03622734652113059,-2.245906528798638,-0.013316830257544985,1.656474114540905,0.6376467111698266,-0.013256289198256777
-0.155308343160024,-0.6138744073603559,-0.03626911670137324,-2.2455771953682526,-0.013322484870990838,1.6565227847962039,0.6373344636642557,-0.01325950575974122
-0.15563491271184504,-0.6134781214383094,-0.03631260112671034,-2.2452419152487604,-0.01332903583323198,1.6565781822018177,0.6370127638889119,-0.013260850867271079
-0.15596196506542132,-0.6130694974522166,-0.03635572486246874,-2.244890170282687,-0.013334955250374219,1.656624911064744,0.6366910641135681,-0.013266231297390574
-0.156293069286893,-0.6126589691990043,-0.03639951180164604,-2.2445429355192235,-0.013341146501399474,1.6566761096449936,0.6363654285808444,-0.013267927302536897
-0.15662474186992464,-0.6122381261655606,-0.036444621269278554,-2.244185660992608,-0.013346814003520814,1.6567298365501937,0.6360371638331497,-0.01326962330768322
-0.15695726393958892,-0.6118192667436998,-0.03649245723985542,-2.243825961906208,-0.013351998766160245,1.6567809899817834,0.6357063505212501,-0.013270354344384228
-0.1573025405315725,-0.6113926712366654,-0.036542759861744656,-2.24346672557181,-0.013359470682849883,1.656842166415856,0.6353638831736662,-0.013270178895576024
-0.15764976666482092,-0.6109451287913148,-0.03659560670259761,-2.243091492356939,-0.013365565854657865,1.6569069547427149,0.6350166977562725,-0.013273366215592441
-0.15799707835787408,-0.6104918735446052,-0.03664656089275804,-2.242712163460969,-0.01337128022469007,1.6569787411118477,0.634668504204304,-0.013270354344384228
-0.1583418354796146,-0.6100354841915945,-0.03670088151898632,-2.242317033213541,-0.01337661496464427,1.6570356284232362,0.6343203348475652,-0.013265003155732868
-0.15868858492252244,-0.609574651548638,-0.03675477940151484,-2.2419216409572336,-0.013381425955694552,1.657096082478751,0.633971092835639,-0.013264242877563781
-0.15904294918805112,-0.609107471348616,-0.03681071343489083,-2.2415193784631056,-0.013386895440892487,1.6571540985066353,0.6336138260724977,-0.013264359843435936
-0.15940151810684078,-0.6086239858613819,-0.036868873659860066,-2.241101684819121,-0.013392408278907973,1.6572184804955559,0.6332508331049718,-0.013265149363073048
-0.15976324662699076,-0.6081380010235532,-0.03692861238653393,-2.240679906574015,-0.013398158971571098,1.6572760450368418,0.6328830333517933,-0.013266260538858599
-0.16013980755043195,-0.6076346397482577,-0.036992539766379756,-2.2402528699019353,-0.013404695873438982,1.6573508112175235,0.6325008213067341,-0.013267751853728638
-0.16050967036344582,-0.607123026648777,-0.037056246078419286,-2.239812865745587,-0.013409484602231604,1.6574156446930424,0.6321215610797098,-0.013266816126751346
-0.16088705021644656,-0.6065998292576518,-0.037123892827146523,-2.2393626999463336,-0.013415363009951836,1.6574878374001139,0.6317343728823898,-0.0132657634339019
-0.161265181773446,-0.60607552104404,-0.037189359924871296,-2.238905525735423,-0.0134203110896414,1.6575464855092357,0.6313455636046733,-0.013261845077184475
-0.16164273274605623,-0.605537168860421,-0.03725638613238787,-2.2384449128209036,-0.013425000224123433,1.6576223352577535,0.630958439927966,-0.013259856657357738
-0.16203155316723217,-0.6049933419088328,-0.03732494430101825,-2.23797751570133,-0.01343007367547456,1.6576910515180179,0.6305554119202071,-0.01325935955240104
-0.16241799013670494,-0.6044461824897852,-0.037393572280534845,-2.237511160751406,-0.013434331625176637,1.6577601289675608,0.6301561261079899,-0.013256698578809345
-0.1628146942827452,-0.6038840269671704,-0.03746580327745583,-2.237036305503441,-0.013438740723891254,1.6578398615008243,0.6297467912103314,-0.013257868237531
-0.16320523812284496,-0.6033107632196909,-0.03754012472258024,-2.2365366405564195,-0.013442704577452655,1.6579069975579945,0.6293362788114897,-0.01325775127165879
-0.1635943763375813,-0.6027400384950375,-0.03761222773287652,-2.236039809802469,-0.013445510793615691,1.657966503491653,0.6289310732330494,-0.013259476518273194
-0.16398921039074676,-0.6021529688109406,-0.037692758468490115,-2.2355293275385795,-0.01344864274175924,1.658035310049237,0.6285172541528024,-0.013253598983197057
-0.1643915614838991,-0.6015585597639865,-0.03777281216304801,-2.235016745618952,-0.013452219935056003,1.6581000532274364,0.6280946602692167,-0.013249388211799218
-0.1647886628718899,-0.6009529631477045,-0.037856170239552664,-2.234484241573877,-0.013454729711682819,1.6581615457021275,0.6276725180299205,-0.013247809172525049
-0.1651865526323671,-0.6003541504830364,-0.03793283810612989,-2.233954436480971,-0.013456363058376462,1.6582126088363975,0.627252408189927,-0.013248569450694081
-0.16560808745602262,-0.5997265357781834,-0.038021354431448176,-2.2334088812000332,-0.01346053430244344,1.6582869686791408,0.6268077159964626,-0.013247809172525049
-0.16602604710212338,-0.599100944357145,-0.038109455769831824,-2.232860203320727,-0.0134627078018098,1.658348280559193,0.62636358835836,-0.013245411372145743
-0.1664500081573844,-0.5984615469994892,-0.038199023136825674,-2.2323043999567656,-0.01346509103507728,1.6584104502637815,0.6259095729363482,-0.013242896605894228
-0.166868652281923,-0.5978078279662042,-0.03828985485653624,-2.2317279501138274,-0.013465587834932449,1.6584694144135221,0.6254617353630105,-0.01323856886862429
-0.1672924544404038,-0.5971464125199774,-0.038384192634087044,-2.2311471187100764,-0.013466568545967297,1.658527565887386,0.6250068166524199,-0.01323342237024916
-0.16771376314171824,-0.5964705563814264,-0.038482428186117315,-2.2305442108584863,-0.013466071746112128,1.6585817894278443,0.6245543335949617,-0.013225059310389586
-0.1681622920837657,-0.5957873608800185,-0.038581447171426045,-2.229947306725299,-0.013468044885159541,1.6586527631211,0.6240744212119935,-0.013222135163585502
-0.1685833807741537,-0.5951024198004176,-0.03868395670104474,-2.2293383962958924,-0.013468193690776538,1.6586992210920672,0.6236079775069441,-0.013223421788179313
-0.16902615276362581,-0.5944003403167397,-0.038786881217598074,-2.228715036109343,-0.013468843983039788,1.6587547539436607,0.6231267263212606,-0.013220877780459772
-0.16946940755485324,-0.5936849309632243,-0.038893017034916585,-2.2280862587914356,-0.013468656511396329,1.65881678820227,0.6226520723682344,-0.013214123001342448
-0.1699021140444405,-0.592968926526234,-0.03900145661147966,-2.227446137857729,-0.013466306085666454,1.6588582346719958,0.6221788217385362,-0.01320865484681888
-0.17033375103646864,-0.5922451463318384,-0.039110485702192874,-2.2268031322192887,-0.013464786393656659,1.6589129999963719,0.6217058211262125,-0.013199999372278892
-0.1707881347137254,-0.5915062906894123,-0.03922310229678022,-2.2261482690496215,-0.01346396386182098,1.6589641534279618,0.6212049556742426,-0.01319543770326459
-0.17124960152053081,-0.590760928800994,-0.039338794448742914,-2.2254799450108047,-0.013463939256167776,1.659011333777486,0.620698202716356,-0.01319418032013886
-0.17170518914646843,-0.5900165190461354,-0.03945127142155787,-2.224794689462824,-0.013460215600649557,1.6590288966061608,0.6201971033771647,-0.013190963758654362
-0.17217071393258382,-0.5892313262371309,-0.03957777650411633,-2.2241085944436056,-0.013459639125345918,1.6590934591897206,0.6196845354990509,-0.013179208688502086
-0.1726371920993805,-0.5884463714615165,-0.039698161498984655,-2.2234107109800787,-0.013457029754408515,1.6591456058918266,0.619166612410076,-0.013175524263529026
-0.17307982352631632,-0.5876783170565889,-0.03981766222262778,-2.2227066800843236,-0.013449843731975152,1.6591705279520539,0.6186692955918092,-0.01316669334018078
-0.1735393530146861,-0.5868935209699011,-0.03993623601283747,-2.2219819348447287,-0.013442984613220072,1.6591910254436177,0.618163437857425,-0.013156575792238778
-0.17401828624448545,-0.5860485817800174,-0.04007331744465514,-2.2212380799027445,-0.013439901876382932,1.6592479127550062,0.6176197871741023,-0.013148212732379205
-0.17448606003118228,-0.5851995960225045,-0.04021149258035661,-2.220473300749111,-0.013435500979552718,1.6592870114944207,0.617090153593907,-0.013135229520569225
-0.17495651061748424,-0.5843572751999104,-0.040345525603476914,-2.21971890418617,-0.013430705220573465,1.6593305348024987,0.6165699400231782,-0.013123532933353055
-0.17544143914502924,-0.5835109474819187,-0.04048536456529947,-2.2189536648875885,-0.013426542178390889,1.6593606038099469,0.6160196759770451,-0.013118737332594443
-0.1759276021783282,-0.5826497823492863,-0.04062709229943197,-2.2181707276061045,-0.013420573549942243,1.6593888668710017,0.6154697184038227,-0.013109204614013215
-0.1764181226502537,-0.5817594581263843,-0.04077330344381151,-2.217363931874222,-0.013414046021656531,1.659429365218871,0.614911679623849,-0.013091718216125037
-0.17689811315478293,-0.5808831778734896,-0.04092105818445256,-2.2165572925655512,-0.013407365000962738,1.659447424682804,0.6143581734169234,-0.013083442880669593
-0.17737974151843125,-0.5799789286972751,-0.04107228407749075,-2.215732426042111,-0.013400325440750828,1.6594756877438588,0.6138046510798446,-0.013072067949601862
-0.1778771984459544,-0.5790508761820649,-0.04122632567627231,-2.2148900844388453,-0.013393288223934461,1.659503860507594,0.6132199894820207,-0.01306350019946595
-0.17836667997739392,-0.5781349236975107,-0.04137788511021123,-2.2140412903780877,-0.013383038211828305,1.659511084293167,0.612659482788608,-0.013044171589091214
-0.17886820710705634,-0.5772189712129566,-0.04152794748847943,-2.21318864309221,-0.01337377828433917,1.6595113100364662,0.6120816119852797,-0.013033820109404903
-0.1793413650500365,-0.5763114292415144,-0.04167612497282025,-2.212341250322726,-0.013360509978773312,1.6595046280348111,0.6115421632068645,-0.013016743092069294
-0.17983151272566994,-0.57537849704181,-0.04183473530626532,-2.2114812263788792,-0.013349783085674105,1.659516186091728,0.6109761883915183,-0.013001596011624317
-0.18032082924891463,-0.5744396140073568,-0.04199487372244162,-2.2106028696345947,-0.013338680077590207,1.6595152379698717,0.6103980998311218,-0.012986975277604063
-0.18080886237508836,-0.5734767689449811,-0.042160721117756025,-2.2096838454622634,-0.01332438536477641,1.659491218882841,0.6098289554406726,-0.012967734391633456
-0.18131631757693556,-0.572485915287054,-0.04233489927882356,-2.208745665964105,-0.0133119243589752,1.659478306366129,0.6092223326392721,-0.01294831805685459
-0.18184066472880211,-0.5714527710301778,-0.04251696607003162,-2.207783196548189,-0.013302058663738136,1.6594824600428335,0.6086002894114161,-0.012934516083939473
-0.18235049115952323,-0.5704446996237104,-0.0426924628811718,-2.206834974679825,-0.013289431276853357,1.6594720307024122,0.6080002477125197,-0.012914924300352348
-0.18285075933777323,-0.5694188153852278,-0.042875382916544524,-2.20587081589322,-0.013276099699607833,1.65945654471209,0.6073970928940564,-0.012881589026786211
-0.1833743608970557,-0.5683591700776031,-0.04307145842558327,-2.2048655960134846,-0.013264497548273224,1.6594420971409436,0.6067605325283238,-0.0128543944615086
-0.1839090485624652,-0.5672639784504114,-0.04327598880861727,-2.203844929341572,-0.013255343073583534,1.6594507656836315,0.6061163264699764,-0.012830007077162808
-0.18442094065132905,-0.566217226618076,-0.04346337674070676,-2.202849913469361,-0.01323990361204686,1.6594297264081497,0.6055053323970597,-0.012800765609122355
-0.18490771482609036,-0.5652162565410757,-0.04365375102737255,-2.2018527128862906,-0.013223286594249704,1.659364035108094,0.6049112104643863,-0.012771144001997359
-0.1854397623603825,-0.5641033710985639,-0.04386103506202886,-2.200789446959664,-0.013209376198305,1.659340151467043,0.6042532211901327,-0.012738188867515765
-0.18596780080668163,-0.5630186529405303,-0.044065798148016866,-2.1997464639095163,-0.01319607039841045,1.6593170805018689,0.6035984337512885,-0.0127042687645888
-0.18647299478511814,-0.5619405997174156,-0.044264309281307465,-2.198692213174003,-0.013175310257292837,1.6592750470995652,0.6029743097336703,-0.01267555364297307
-0.18698687919514925,-0.5608461221903939,-0.04446231622486439,-2.1976164724962257,-0.01315434624076296,1.6592196496939513,0.6023457257286933,-0.012641165676557486
-0.18751304754857362,-0.5597182803165465,-0.04467413796712366,-2.196524445555033,-0.013134666404990784,1.6591846594825814,0.6017003582993157,-0.01261034516924281
-0.1880549222375803,-0.5585525911336958,-0.04489480242163488,-2.195385330012944,-0.013116762863040386,1.6591387432955322,0.6010352153021196,-0.012574495129425212
-0.18859324008327616,-0.5573500464476336,-0.045122781505666745,-2.1942202821093715,-0.01309867887963316,1.6590910211620897,0.6003548777006127,-0.012533703281508768
-0.18914699536231097,-0.5561509532457258,-0.045350101264662296,-2.1930630371170206,-0.01308290314083603,1.6590595976948466,0.5996637167663112,-0.012498028690499374
-0.18970985664913476,-0.5549138540458882,-0.0455900257669994,-2.191854477489998,-0.013064331731155808,1.6590104759529494,0.5989442958036102,-0.012454224971374772
-0.19022657675555119,-0.5537176965891233,-0.04582858507867306,-2.190664227199931,-0.013043366542928161,1.6589330911499973,0.5982770397563455,-0.012411240013355251
-0.19078441445955446,-0.5524460428755102,-0.046088041115615735,-2.1894259601979105,-0.013025089229388616,1.658883698516141,0.5975606996529048,-0.012365038493851344
-0.19131400520516798,-0.5511837518085688,-0.04634582944805475,-2.1881626680890354,-0.013003647160167919,1.6587880285059569,0.5968664255990366,-0.012313836683312485
-0.19185975453104598,-0.5499074961160834,-0.0466013140212492,-2.186897433725279,-0.012983397879278732,1.658696376726498,0.5961542954655801,-0.012256581888889229
-0.19243630538662643,-0.548622591877096,-0.046860405490230614,-2.1856349628382663,-0.012963375907757242,1.658643959132433,0.5954182604450869,-0.012214825072527469
-0.1929956709442856,-0.5472977773730594,-0.04712190931316847,-2.184318432089213,-0.012940656687965475,1.6585662131402021,0.5946901130695068,-0.01216868203595961
-0.19355581876301656,-0.545957887420992,-0.04739759250276994,-2.1829543278273063,-0.012917229762719648,1.6584574951673265,0.5939413029676823,-0.012117743398633085
-0.1941203056861302,-0.5445798327820683,-0.04768304921643933,-2.1815617441126154,-0.012892504596342863,1.6583543756282701,0.5931832502880765,-0.012062827921653085
-0.19464164602200199,-0.5432501782657692,-0.04796009759670425,-2.1802141268572455,-0.012866928777383881,1.6582366279234282,0.5924668295338699,-0.01200036814591865
-0.1951898888050464,-0.5418550645672319,-0.04826310786987023,-2.178813502989462,-0.012842990991909626,1.658137481466437,0.5917148901823254,-0.011951651860163226
-0.1957366770714104,-0.5404430901702393,-0.04855392450824671,-2.1773994319395595,-0.012817852216219458,1.6580273638851066,0.590966499464484,-0.011892291680041078
-0.19629045679610369,-0.5390450803987908,-0.04884237533325754,-2.175974082776077,-0.012785583659588965,1.657896116730975,0.5902139471671181,-0.011835563232042545
-0.19683225814813493,-0.5376200538375823,-0.04913582927177933,-2.1745291442123555,-0.012758140154382015,1.657772409403035,0.5894644112083998,-0.011780472306254341
-0.19736844922154181,-0.5361978043325898,-0.04944500617322625,-2.1730743822709244,-0.012728349738538505,1.657638317883334,0.5887071489063005,-0.011719416120985815
-0.19789978783173762,-0.5347554806783777,-0.04975393485818891,-2.17160916604483,-0.012700299293885855,1.6575158747178695,0.5879571613032928,-0.01166590423447178
-0.1984319209258345,-0.5333283911611229,-0.050061188081882785,-2.17012113810033,-0.012669753132979647,1.6573531589478347,0.5872021733527941,-0.011610667101343286
-0.19899023532017843,-0.5317896243117466,-0.05038351270023059,-2.1685428696048707,-0.012638662132609635,1.657199653504406,0.5864004563484864,-0.011549347742862426
-0.19953627799395837,-0.5303777292592173,-0.05069714198486401,-2.167050889367216,-0.012601490020804901,1.6570336870308633,0.585626741290127,-0.011495718890476236
-0.20008804095182592,-0.5288155954653936,-0.051039199813710856,-2.1654186131507864,-0.012569969007352704,1.6568641989618538,0.5848129750613817,-0.011454517662007224
-0.2006363326261873,-0.5272301740715857,-0.0513894643000687,-2.1637659028487723,-0.0125394474520997,1.6566920019732545,0.5839971441730274,-0.011397292109051993
-0.20118055409840946,-0.5256654219104725,-0.05173315880635866,-2.162120299374687,-0.012503912202081923,1.6565108655500083,0.5831811842434473,-0.011339686417012274
-0.20167386748681787,-0.524148355771814,-0.052070927144086815,-2.1604997236145094,-0.012464877090820309,1.6563025496335433,0.5824360679467049,-0.011287724328304383
-0.20217815697589014,-0.522576224575612,-0.05242820374612513,-2.1588154627506504,-0.01242598375498906,1.6560708467112852,0.5816579009660634,-0.011227633111481228
-0.20271558255505095,-0.5209443866707626,-0.052797860145316136,-2.157080202705597,-0.012387884830246972,1.6558609505917259,0.5808374891142013,-0.011178887584257724
-0.20325941289673716,-0.5193128661437664,-0.05317324879394064,-2.155351090092772,-0.012348407988925456,1.6556501514989703,0.5800106252010606,-0.011112977315294537
-0.20377718416646884,-0.5177196689925533,-0.05355002590352399,-2.1536290113103767,-0.012308645253347664,1.6554223313614578,0.5792139891950097,-0.011048412153861153
-0.20430085906272683,-0.5160631549596116,-0.05393700315925759,-2.151826937697403,-0.012264249624780874,1.6551800185041392,0.5783944967618797,-0.010995046474687298
-0.2048042807309225,-0.5144096956885078,-0.05431824040879257,-2.1500107025696438,-0.012218710419188981,1.6549085396125691,0.577585311496642,-0.01095516111228012
-0.20531245707969525,-0.5127578233066703,-0.05471132999545118,-2.1481947646459867,-0.012172622859039969,1.654658867523698,0.5767544795658153,-0.010921504182565545
-0.2057766801344959,-0.5111297542638286,-0.05508326688359137,-2.1464074156713626,-0.01212169384369861,1.6543547010024096,0.5759908781135099,-0.010880069022352168
-0.20628841332657954,-0.5094179371399536,-0.05548485788483605,-2.1445428561993327,-0.012075808987264089,1.6540899944098142,0.5751497390147908,-0.010833487363763716
-0.20677743650192226,-0.5077185374245881,-0.05588305917971749,-2.1426474761404464,-0.012024932698322454,1.6537949930664717,0.5743353921005304,-0.010799859675517165
-0.20727057877072125,-0.505994144203277,-0.056294850327112414,-2.140731917487222,-0.011975341761836289,1.6534933548701338,0.5735071248640617,-0.010776817398701288
-0.2077749293739397,-0.5042526125778891,-0.05671314164368901,-2.138787295401222,-0.011924001480577092,1.653190317065341,0.5726546301374925,-0.010740879634479561
-0.20825215751905912,-0.5024954500932274,-0.057129028363074305,-2.1368311501386104,-0.011869549170036464,1.6528752245683733,0.5718192333733112,-0.01072134633382854
-0.20871960740078094,-0.5007858942865571,-0.05754817292381556,-2.134870708451778,-0.011812405469714418,1.6525197240208558,0.5710044832052209,-0.010708304639082455
-0.20917884354124877,-0.4990557882638871,-0.0579701099200048,-2.1328881798074217,-0.011753972901843587,1.6521545165114744,0.5701911847509182,-0.010692806661021015
-0.20963526843098979,-0.49724649646682473,-0.058410275314257215,-2.1308403079733376,-0.011695350518933754,1.651805968857571,0.569352255483187,-0.01068619808924387
-0.21011760571873445,-0.4954007458888674,-0.058862867046253126,-2.12876938978603,-0.011636688298299686,1.65148640664328,0.5684731298736909,-0.010663331261236253
-0.21056195445317943,-0.49365885721339453,-0.05928370258179344,-2.1267588092456684,-0.011572752265995542,1.6510960964790318,0.5676726065007196,-0.010657687657904424
-0.21100266078450886,-0.49185281853932833,-0.059730880091726335,-2.124673938107857,-0.01150862173186131,1.6506978401506536,0.5668378872029725,-0.010656985862671442
-0.21142564401343011,-0.4900716940267443,-0.06016291639611908,-2.122610090249729,-0.011441506883502754,1.6502892899278332,0.5660261695036831,-0.010656810413863238
-0.2118595300060397,-0.4883179036817736,-0.06059873024513174,-2.1205443340284145,-0.011369569327116198,1.6498800624751158,0.5652031445670032,-0.010662103119578548
-0.21226035324553622,-0.48657506287274094,-0.06103250406491434,-2.1184797770517254,-0.011293625736048465,1.6494225259563777,0.5644195901151943,-0.010676080541301869
-0.21268591549142857,-0.4848027455955853,-0.06147256086445489,-2.1163845506972847,-0.011219138565310859,1.6489857578211626,0.5636003718946687,-0.010685554776946993
-0.2130621708441386,-0.4831098124539802,-0.061897344593448034,-2.114343206925245,-0.011137021298684444,1.648509890946533,0.5628475615148516,-0.010703275106579535
-0.21346065952324894,-0.4813192856224929,-0.06234783424209284,-2.112210803987437,-0.011060955851048462,1.648050729076041,0.5620445218379817,-0.010728305803222149
-0.21383971390385653,-0.4795515703242097,-0.0627978507280645,-2.1100887458380444,-0.01098044381036917,1.647591883246168,0.5612530636111066,-0.010745031922941295
-0.21420803664038524,-0.47780194556356326,-0.06324141358544529,-2.1079745505621044,-0.010894698967441812,1.64710477435524,0.5604860586964769,-0.010788426261513384
-0.21460475300925475,-0.47598218029734285,-0.06370178535286987,-2.1057830405066174,-0.010812954300706773,1.6466216836950374,0.5596740345242768,-0.01081281364585912
-0.21496561981994283,-0.47422470043482784,-0.06415118129763088,-2.1036554449755225,-0.010722805045855884,1.6461418437383424,0.5589056746767787,-0.010872056860109114
-0.21534297522728507,-0.4723760141117277,-0.0646257401884842,-2.101451692196649,-0.010635863899503698,1.6456578501049428,0.5581033608568026,-0.01090948593920088
-0.2157073377671378,-0.47057164167139115,-0.0650914098264948,-2.099275563757001,-0.010544052005514877,1.645178551932166,0.5573192418496318,-0.010966038938391154
-0.2160498214426384,-0.46880047488895366,-0.0655465612909847,-2.097115286202828,-0.010448830471010633,1.644663225128843,0.5565653830098569,-0.011030136236335863
-0.21640082443012415,-0.46699792737127344,-0.06600343475733417,-2.094907998259365,-0.01035319181209969,1.6441087995861055,0.5558068464256551,-0.011081367288342803
-0.2167682915686056,-0.4651423777520962,-0.0664855021968365,-2.0926435324178367,-0.010257145402364224,1.6435782125357594,0.5550022098636189,-0.011132188959797118
-0.21709444554423224,-0.46337132998635366,-0.06695225778196576,-2.0904596766715198,-0.010153928202266425,1.6430478060800526,0.554259529220009,-0.011201725170797372
-0.21746401500934415,-0.4614964599903582,-0.06744211301366189,-2.0881696199925206,-0.010057040513530933,1.642519476462698,0.5534541668010788,-0.011256699130713421
-0.2176781345320929,-0.46095346615563493,-0.06754032917377932,-2.087573334708665,-0.01005828016977331,1.6424717091805958,0.5531479197124969,-0.011242253845501426
-0.2178983899151236,-0.4603942067059312,-0.06764138430993553,-2.086966475215684,-0.010059989676822107,1.6424342357929351,0.5528362690225943,-0.011231434502326443
-0.21811875530361757,-0.45983704988450547,-0.06774257131109902,-2.086357217233453,-0.01006178237441269,1.6423924732825905,0.5525241182979426,-0.011220293503003076
-0.21833998851298808,-0.45928072617994453,-0.06784543377353128,-2.085744017386282,-0.01006385393607292,1.6423463765009019,0.5522080640762174,-0.011208567674318826
-0.2185610506027491,-0.45871194539464255,-0.06795031299489819,-2.0851192005085712,-0.010066216078780511,1.642296622677767,0.5518921066354113,-0.011197309709123249
-0.21878514395416337,-0.45814276788702396,-0.06805861294968889,-2.0844874697248943,-0.010067906838664964,1.6422456046921567,0.5515680841180073,-0.011181811731061808
-0.21901622876390692,-0.4575639103548805,-0.06816795231100742,-2.0838512339527133,-0.010070119004057788,1.64219639265294,0.5512368352919713,-0.011170904663482695
-0.21924706911706554,-0.4569785069045132,-0.0682771830776141,-2.083207719287071,-0.010071546131943623,1.6421392344495926,0.5509029733811176,-0.011156693310015009
-0.21948466869479777,-0.45638715261939694,-0.06839035428090848,-2.0825626299610955,-0.010075070598840665,1.6420906544916134,0.5505605463589167,-0.011141838644250446
-0.21971174441654828,-0.4557983770293386,-0.0685027420509244,-2.0819118155455634,-0.010077151534083067,1.6420357537212575,0.5502312815417238,-0.011126252941784875
-0.21994124025848977,-0.45520614995512587,-0.06861739479635923,-2.0812509170469693,-0.010079335578729372,1.6419743063952261,0.5498944839429885,-0.011108240197471975
-0.22017401181866936,-0.4546153114090212,-0.06873113224350834,-2.080590060261232,-0.010081971898715524,1.6419073509326951,0.5495526376063027,-0.01109490608804553
-0.22041257699991207,-0.45400919905372766,-0.06884860069468654,-2.0799207149091936,-0.0100847558526209,1.6418451812281065,0.5492030165357763,-0.011080197629621147
-0.22065094661588686,-0.453402055220411,-0.068968062634504,-2.079239460536621,-0.010087996768657207,1.6417691960336092,0.5488532180335648,-0.0110611321924588
-0.2208934719938056,-0.4527901903915268,-0.06909220966046195,-2.0785605420840136,-0.010091385318612742,1.6417013827465414,0.5484931284936141,-0.011040721647766538
-0.22113453063221472,-0.45217554850642644,-0.06921419254894773,-2.0778685049380323,-0.010094077880091932,1.6416170450499752,0.548133909981936,-0.011020720483626845
-0.2213781071734487,-0.45154674363462366,-0.0693437537969687,-2.0771708156999935,-0.010097597660197886,1.6415447168969242,0.5477695298212353,-0.0110073863742004
-0.2216239327152641,-0.4509066718490296,-0.06947113539398722,-2.0764582349721796,-0.01009999026704754,1.6414658873368575,0.5474018913695888,-0.010989490595759654
-0.22187083386605327,-0.4502645767796209,-0.06960082850701546,-2.0757468430607764,-0.010102869128472417,1.6413893152097825,0.5470290912689195,-0.010970805297681796
-0.22211959288688798,-0.4496317650124205,-0.06973185578364662,-2.075034929738667,-0.01010564370879562,1.6413013204717697,0.5466539039055773,-0.010947821503801969
-0.22236884082089253,-0.44898709124795394,-0.0698643801159485,-2.074318615710195,-0.010109273628492108,1.6412162152479863,0.5462753614703703,-0.010928609859299387
-0.22261944548894352,-0.44832111349508624,-0.07000111637171774,-2.0735815078227517,-0.01011224388234317,1.6411285816992525,0.5458911734815446,-0.010912234637196705
-0.22287025794509174,-0.4476510495023576,-0.07013851970928846,-2.07284293998533,-0.010115634775694247,1.6410451469758827,0.5455068564514933,-0.010891707126632288
-0.22313114201253942,-0.4469694012179844,-0.07028228359426844,-2.0720929636816523,-0.010119871634836436,1.640960944725296,0.5451062479667139,-0.010874074521403876
-0.22338546242068152,-0.44629755197483106,-0.07042534937038643,-2.0713389516591065,-0.010123445313039886,1.6408587281594362,0.5447127044890345,-0.010849716378526164
-0.22364023507350572,-0.4456191171412223,-0.07056794198383129,-2.0705784115745165,-0.01012691353844389,1.6407533511873882,0.544317838338793,-0.010828194658048407
-0.22390368593509535,-0.44493512819518116,-0.07071476203427379,-2.0698116041332355,-0.010130962925942618,1.6406556946361714,0.5439096809423178,-0.010804918449488166
-0.22416807795453692,-0.44423963430195884,-0.07086791936183016,-2.0690343684778263,-0.010136002398058367,1.6405554646113445,0.5434975877884628,-0.010784390938923805
-0.22442976872871495,-0.4435451718867596,-0.07101999849903301,-2.068258738767393,-0.010140607170300846,1.6404560472623944,0.5430871076499274,-0.010760939281555304
-0.22469284068259787,-0.4428337694286418,-0.07117462185519957,-2.067466152780787,-0.010144915503007102,1.6403532437639567,0.5426722401097227,-0.010741259773564105
-0.2249616695890561,-0.4421201056533194,-0.07133191353857198,-2.0666677791353396,-0.010149503871480777,1.6402380695327252,0.5422483719440345,-0.0107176326673874
-0.22523618211111424,-0.4413946988974258,-0.07149665947323745,-2.0658527724883577,-0.01015462419074277,1.6401353111829473,0.5418178258949231,-0.010697660744715731
-0.22550734557795865,-0.4406659993463044,-0.07166036600137507,-2.065035231785343,-0.010158865736676044,1.640025238750277,0.5413869895030542,-0.010669091830440236
-0.2257803058007024,-0.4399258345202335,-0.07182735364116406,-2.0642041865450316,-0.010163424812705428,1.6399207196027659,0.5409512495446136,-0.010638476013401843
-0.22605600393719744,-0.43918245624339813,-0.07199707166227996,-2.0633745803982704,-0.01016874666398414,1.6398124982651483,0.5405127351998233,-0.01061443952667257
-0.22633326659583614,-0.43842606547457846,-0.07217349152847101,-2.0625263390328614,-0.010174265360488483,1.6397068955498013,0.5400657202642987,-0.010589408830029956
-0.22661177598305798,-0.4376660248604461,-0.07234699485097194,-2.061674041092157,-0.010180826868009571,1.63959704886043,0.5396179794718802,-0.01056338392347389
-0.22689049315837706,-0.4368842041911327,-0.07252676563970055,-2.060793743396518,-0.010185554668518068,1.6394805653180633,0.5391655448048817,-0.010534961216538574
-0.22717033483398685,-0.43612071209284603,-0.07270593140074877,-2.059925823991049,-0.01019171545540126,1.639354555408472,0.5387131585283427,-0.010505573541157887
-0.22745586012519653,-0.43532619630940156,-0.07289089922211668,-2.059040885740123,-0.01019759151972595,1.6392412322722936,0.5382484810750683,-0.010482414298469855
-0.22774453890635188,-0.4345280306806445,-0.07308067623786721,-2.058150211971426,-0.010204764653483824,1.6391247487299268,0.5377790613567541,-0.010455453664936554
-0.22802596954976379,-0.43373569686994135,-0.07326936730649908,-2.057255450342791,-0.010210380600903212,1.639003750321577,0.5373156743157355,-0.010419545142182851
-0.22832327764836752,-0.4329303505672539,-0.07346642016794462,-2.0563518038757187,-0.010217856032686167,1.6388825713185877,0.5368346408871201,-0.010388870842208409
-0.22861066080962272,-0.4321096114386825,-0.07366240259580177,-2.0554324733745974,-0.010224858098569385,1.6387601281531232,0.5363561237624034,-0.010355798741854605
-0.2289062454893026,-0.4312777640852465,-0.07386590908583818,-2.054495122919463,-0.010233088103717264,1.6386377752849786,0.5358664929621345,-0.010319246906804025
-0.22919889668996324,-0.4304458770595788,-0.07406655332954042,-2.053559503547873,-0.010241053305168755,1.638510501212912,0.5353775396282998,-0.01028418638662354
-0.22950307401860381,-0.42957681715284624,-0.07428119077754307,-2.052599315303797,-0.010249343066902988,1.6383984873878688,0.5348701333992089,-0.01024593854642658
-0.2297909338701996,-0.42873981240929454,-0.07449005719228657,-2.051660463185828,-0.010256510342172004,1.6382711681671422,0.5343851480830605,-0.010214884107367594
-0.23009673683513,-0.4278705938136353,-0.07471109397152417,-2.0506904515640434,-0.010266432278902105,1.6381487701503377,0.5338666120482641,-0.010175875989001604
-0.23039524277099993,-0.4270082781862848,-0.0749287565579288,-2.049716498077318,-0.010275606672453913,1.6380141819953784,0.5333519149899285,-0.010126253217736914
-0.2306875884009294,-0.4261209293807572,-0.0751538733956265,-2.0487292590457935,-0.010285526265788473,1.6378934544789874,0.5328428473550583,-0.010087508272583312
-0.23097697610618112,-0.4252423481384263,-0.07537613574375517,-2.0477326554779816,-0.010293969519930786,1.6377596338512452,0.5323373283538912,-0.010041716133631917
-0.2312832190929644,-0.4243263163094089,-0.07561163113320117,-2.0467169891347434,-0.010303722732181775,1.637643601795477,0.5318088238844196,-0.009996099443488837
-0.2315985680875367,-0.4233930270596196,-0.07585274242060366,-2.0456803829375354,-0.010314429706418864,1.637518630305062,0.5312640440903732,-0.009949342336092126
-0.23191028690182264,-0.42246493487217773,-0.07609409416772529,-2.0446460918038643,-0.010326134967157376,1.6373991669511463,0.5307222967651276,-0.00990252674575931
-0.23220669051106207,-0.42153319283942314,-0.07633595786134573,-2.0435945315475963,-0.010336148296313664,1.6372635403770108,0.5301859853015091,-0.009851237210816322
-0.2325252418868971,-0.42058427273036,-0.07658953427031738,-2.042526140153725,-0.010348678432283398,1.637128545884113,0.52962584960162,-0.009797491392557922
-0.23283025036792643,-0.4196298381810962,-0.07684449138348276,-2.041455204275607,-0.010360926189090172,1.6369914294042032,0.5290733273340393,-0.009745441579445902
-0.23314196918221236,-0.41865223504854326,-0.0770967336288515,-2.0403722968076696,-0.01037261387436211,1.636853319653777,0.5285128045104734,-0.009688888580255628
-0.23344371416783277,-0.4177028785449319,-0.07735497185366826,-2.0393018823402578,-0.01038488037833323,1.6367126364297402,0.5279597015573777,-0.009626779702137711
-0.23373713540673596,-0.4167413029939694,-0.07761629727100805,-2.038220080263018,-0.010396023224141362,1.636579628477875,0.5274111473074834,-0.009571337878732933
-0.23405859581593175,-0.4157218456570157,-0.0778888777545562,-2.037087075654408,-0.010407940562176539,1.6364528510410667,0.5268238484296118,-0.009512913425588077
-0.23437286920153028,-0.414689336155846,-0.07816756281226425,-2.035943705400955,-0.01042082923766439,1.6363257124149797,0.5262447114092577,-0.009455629389696796
-0.2346881204134686,-0.41365408927069186,-0.07845402014863584,-2.0347952878918636,-0.010434795875102133,1.6362016438977611,0.5256593481497697,-0.009392672509005717
-0.23500095150521605,-0.41261265351739884,-0.07874027580911395,-2.033638632093611,-0.010448638312576086,1.6360662882155848,0.5250747591376351,-0.009319568838904502
-0.2353065711277077,-0.4115603475726311,-0.07903293080082702,-2.032464394326338,-0.010463484895040318,1.635928900843716,0.5244892023163088,-0.009258278721891722
-0.23562678480832033,-0.4104963779917555,-0.07933100777136823,-2.031287528649105,-0.010477729224849937,1.6357978794328831,0.523884192530228,-0.009184239324813215
-0.23595115425087687,-0.40943820055670216,-0.07963189269088769,-2.030114855113951,-0.010492339124364303,1.6356599954257562,0.5232784407571001,-0.009113299523347052
-0.23627273688836514,-0.40834784894177295,-0.07993857967072683,-2.0289176544191676,-0.01050733334074776,1.6355350239353412,0.5226596880804961,-0.009036277496528466
-0.23660524673520017,-0.4072248867524197,-0.08025636658147169,-2.0276962602676063,-0.010524845535642435,1.6354282022061786,0.5220234664479807,-0.008967823219845739
-0.23693754879393808,-0.40608887239885044,-0.08057991676871055,-2.0264349051995056,-0.010542817036063586,1.6352886476986377,0.5213795668625439,-0.008888491117051922
-0.23725927810537728,-0.404931673073575,-0.0809146987518624,-2.025161912244438,-0.010558829457810583,1.6351580777744035,0.5207338123094896,-0.008805240657540736
-0.23759019898441025,-0.40379784069274705,-0.08124723127312558,-2.0239112356676046,-0.010576899380844551,1.6350233993221244,0.520087702893065,-0.008727312145212884
-0.23791073045858324,-0.40264484662402755,-0.08157712649424347,-2.0226540727415836,-0.010593018427088766,1.6349040262655286,0.5194523038983626,-0.008651752191796314
-0.23824330141956457,-0.40145356885175665,-0.08192635157407345,-2.021372069809509,-0.010610885646408243,1.6347978817662634,0.518797387418293,-0.008564729582907826
-0.2385735989343059,-0.40028042128935415,-0.08226606685985005,-2.0200995356958624,-0.010628019382922684,1.6346722781946106,0.5181410837450483,-0.008472355785368035
-0.23890451981333888,-0.3990869218721103,-0.08261003285291968,-2.018800972759752,-0.010645498770279753,1.634549880177806,0.5174852639763996,-0.008391737057980464
-0.2392299893105277,-0.39786462041468174,-0.082973654488837,-2.017481803672524,-0.010662142737125655,1.6344379566500824,0.5168183789226584,-0.008294596901149975
-0.2395602012654643,-0.3966546966935309,-0.08333480947344196,-2.0161910618970103,-0.010680820771303095,1.6343450858568078,0.5161473968100052,-0.00820848077777081
-0.23989241776439746,-0.39538217019082134,-0.08370448138616324,-2.014841859553093,-0.010698970369785532,1.6342410181958948,0.5154581553639341,-0.008111925450301205
-0.24021356038003278,-0.39411281746664456,-0.08408670374487015,-2.013471091662358,-0.010719041552613431,1.6341342416153921,0.514766365353658,-0.008017300059722232
-0.2405422567041428,-0.3928283099499739,-0.08446863910326712,-2.012098822108789,-0.010737138424696147,1.634031347819635,0.5140759786667101,-0.007920569283444368
-0.24087931344345775,-0.3915097636585394,-0.08486030144514121,-2.010713684138986,-0.01075661321335829,1.6339416374325486,0.5133711716228047,-0.007828546383520985
-0.24122113708617904,-0.390214385950394,-0.08525856479414372,-2.0093297766984493,-0.010776278988757207,1.6338467349495818,0.5126572833026498,-0.007730295050905001
-0.24155367137867256,-0.3888633084289987,-0.0856663146669042,-2.007887137555943,-0.010795781898165869,1.6337408161936158,0.5119322329164833,-0.007629967574058205
-0.24189833071777916,-0.38748755477951125,-0.08608774747335977,-2.006451923301895,-0.010818791699004997,1.6336725965686096,0.5111825356562331,-0.007527973333533
-0.24224329562761687,-0.3861417933371583,-0.08649477596696288,-2.0050265741384132,-0.010838653147931776,1.633577332896364,0.5104515332435371,-0.0074247217098821205
-0.24258962949433027,-0.38475267014560155,-0.08691250879644988,-2.003584936104463,-0.010858137310176092,1.633504733851354,0.5097009004344015,-0.007328926660581547
-0.24291937698175553,-0.3833936581778744,-0.08732792235316204,-2.0021613805938108,-0.0108766184991279,1.6334225632904598,0.5089843667691225,-0.007235500170192255
-0.24326646866388224,-0.3819567696193996,-0.08776111441555966,-2.0006716476363007,-0.010897555566609029,1.633356601098445,0.5082210233992683,-0.007142775475035945
-0.2436030853813443,-0.38056288576004377,-0.08818961363505164,-1.9992105296983587,-0.010918334454890988,1.6332705477528053,0.5074808913198634,-0.007042681929933403
-0.24393384736359708,-0.37913051983597823,-0.0886317492476479,-1.9977425499955201,-0.010939143807315008,1.6332212002676088,0.5067297584759788,-0.006934897878736246
-0.2442664794387246,-0.3776873233926696,-0.08907712718806987,-1.9962643297864078,-0.010960257801159652,1.6331696404980807,0.505972544564339,-0.006836441855843978
-0.24458325850431878,-0.3762805460580244,-0.08950855846478223,-1.9948306171951948,-0.010979637682302293,1.6331147848763847,0.5052500750026839,-0.006744097299772156
-0.24491059809438237,-0.37478367308528054,-0.0899663860132431,-1.9933169827709027,-0.010999564746304284,1.6330751443530522,0.5044909254726607,-0.006654501441696159
-0.24525229950881117,-0.3732424267214255,-0.09043570133086633,-1.9917476408267374,-0.01102088378725896,1.6330221849750692,0.5036972251544914,-0.0065563670749523295
-0.24559165414002454,-0.37170421528329245,-0.09090313175456219,-1.9902151521913014,-0.011042506297936489,1.633007150471345,0.5029098801166814,-0.006461273820884739
-0.2459244206662738,-0.370181892573939,-0.09137156280096023,-1.9887036659791195,-0.011064241291600092,1.6330057057142304,0.5021316808757336,-0.006359776685316287
-0.24625213916404404,-0.36860674628813095,-0.09185432059255942,-1.9871510091775595,-0.011087487775389088,1.6330014617402062,0.5013420776164761,-0.0062612329380198894
-0.24657731531333094,-0.3670760527378974,-0.09233299056893338,-1.985611575351514,-0.011107412495995535,1.6329717990706967,0.5005670882760143,-0.006168537484331604
-0.2469054004959786,-0.365480673613943,-0.0928282057253366,-1.9840345582417502,-0.011128872140682807,1.6329671036100741,0.49977438802734314,-0.006069350424738329
-0.24723276453170062,-0.3639076101202971,-0.09331667249607388,-1.9825004010920537,-0.011151933496223888,1.6329748240309054,0.49898309110200006,-0.005976684212518124
-0.24756819563472576,-0.3623143336246207,-0.09381527735884033,-1.9809357101313894,-0.011175583044046323,1.632980828802663,0.4981777286830699,-0.005870625407935315
-0.24789852981795485,-0.36076053099944544,-0.09430991851462368,-1.9793906242132864,-0.011198079641261481,1.6329724311519342,0.4973837380221431,-0.005780240030222206
-0.24821741121017954,-0.3591029061440173,-0.0948259528286446,-1.9777664507192345,-0.011219732616081071,1.6329883234801952,0.4965848437946446,-0.005691287484443142
-0.24854897989916258,-0.3574445275161877,-0.09534912336658811,-1.9761465736494035,-0.011242707265987051,1.6330200178393972,0.495757318545223,-0.005599293825987783
-0.24888256535497133,-0.3557626827633315,-0.09588209069889495,-1.9745295330538153,-0.011266500932635396,1.6330699522571714,0.494914630951797,-0.0055062767161510595
-0.24920144674719602,-0.35412491385984896,-0.09640332980232028,-1.9729708904573455,-0.011292751649510834,1.6331285552176336,0.49410173575132427,-0.005407265105366044
-0.24954692501586218,-0.35237453532680096,-0.09695807813112133,-1.9712827920106872,-0.011319261311593802,1.633167383065089,0.49324067591340787,-0.00530895528981401
-0.24986861765881363,-0.3507676710917812,-0.09747476401341343,-1.9697707426749427,-0.011341282199513681,1.6332379955690663,0.49243587804983957,-0.005217868116867919
-0.2501886602198168,-0.3491202023276579,-0.0980036357737299,-1.968243322151573,-0.011364966898269265,1.6333424244192578,0.49162598305786137,-0.0051230965189487665
-0.25050479147546084,-0.34740890094279453,-0.09855328015107326,-1.9666185438211017,-0.011391081698203194,1.6334161070321038,0.4907964092789838,-0.005032506450959373
-0.2508194682144246,-0.3456979962802478,-0.09910533688237307,-1.965034706659298,-0.011414007136802767,1.6335246895589999,0.4899626416602753,-0.004932266698516652
-0.2511260412175975,-0.34406419459993115,-0.09963894026942083,-1.9635247846792354,-0.011434668855307563,1.6336262740436218,0.4891700704528297,-0.004842466150164371
-0.25143878674954023,-0.34238320280005563,-0.1001830851002847,-1.9619828480817993,-0.011457507588272036,1.6337428930319682,0.4883556590179565,-0.004741436878084537
-0.25174665537261337,-0.3406928086812768,-0.10072636117345364,-1.960429127602398,-0.011478400131237843,1.6338518818968026,0.48754221539227516,-0.004645086240891216
-0.2520633733240613,-0.33892251468793577,-0.10129053397189161,-1.9588196370338387,-0.011497202365379074,1.6339857928218644,0.48670125372524115,-0.004550051469759675
-0.25237330760527715,-0.3371591434990193,-0.1018564132586589,-1.9572610152937973,-0.011520063360601207,1.634151533552108,0.48586863134740954,-0.004437881198356475
-0.25266958898622416,-0.3354161638371759,-0.1024254650623657,-1.955699265089517,-0.011544083164919476,1.6343004789808937,0.48504659035007464,-0.004331237564412838
-0.2529801955230486,-0.3336445209879584,-0.10300427487661014,-1.954117826416963,-0.011567766691977288,1.6344597183041214,0.48420462861354246,-0.004223336547343526
-0.2532883330483652,-0.3319007280453659,-0.10356957240599245,-1.9525954948620878,-0.011591174870058769,1.6346506068378912,0.48337563552018,-0.004119353886991639
-0.2535990862591406,-0.33009453068237304,-0.10415035243858074,-1.9510057553310876,-0.01161536339885615,1.634824564624224,0.48253218980955376,-0.004002709670978211
-0.2539105483940124,-0.3283319727742056,-0.1047298913887477,-1.9494694291128525,-0.011639519120115927,1.635003579060458,0.48169080875853665,-0.003888375530939958
-0.25422799971521515,-0.3265179996538075,-0.10532063110776711,-1.947926595689001,-0.011663370199955081,1.6352228661012624,0.48083136193593984,-0.003768310063165803
-0.2545243177646499,-0.3247607974969141,-0.1058940422134788,-1.9464200107374596,-0.011686341334767746,1.6354142061216306,0.4800176279675009,-0.0036419284382948613
-0.2548226403580811,-0.32298976956728737,-0.10647456627281769,-1.9449451275568683,-0.011711060642655674,1.635633673757074,0.4791960547446087,-0.003516745713613656
-0.25512543650701675,-0.32128110638582935,-0.10705031992159965,-1.943531374567497,-0.01173715200863417,1.63586325469232,0.4783818046112675,-0.0033871767687262966
-0.25542971161829126,-0.31948712807018764,-0.10764330134574256,-1.9420492542063004,-0.011761375688364701,1.6360986598046843,0.4775456174695795,-0.003256233474841108
-0.25573344892507893,-0.31767724118965046,-0.10824249593875725,-1.9405736201942918,-0.0117844651646523,1.6363607477750093,0.4767023008001789,-0.0031278341886754046
-0.2560336171657265,-0.31586856431217886,-0.10883626079617863,-1.939091958674517,-0.011806123997960749,1.6365957014007753,0.47586850092116395,-0.002995370338452097
-0.25634133911484863,-0.3140812310953401,-0.10943922517704809,-1.9376615831118251,-0.011833234741000558,1.63687133396905,0.47503099110691394,-0.0028556838456227362
-0.25664786322670463,-0.312301852160949,-0.11003759755295862,-1.9362553175801978,-0.011856436700274232,1.6371512105113486,0.4741909649887653,-0.002720968402360302
-0.25694277565077595,-0.31048258279762436,-0.11065014929553278,-1.9348020416592804,-0.01188287371709536,1.637431177350967,0.4733512614736806,-0.0025787379018114565
-0.2572454740170776,-0.3086162621675516,-0.11126698277246051,-1.9333196501645165,-0.011907584823098885,1.6377134467722372,0.47250384774536813,-0.0024328814592256
-0.25754307546358324,-0.30685731443246517,-0.11186752704260837,-1.9319747859576766,-0.011932085023503517,1.6380207736997137,0.47167198348473677,-0.0022845979747924128
-0.25785006404295063,-0.30504520590695505,-0.11247587461848028,-1.9305815348372812,-0.011955929073156043,1.638328777857088,0.4708244729755051,-0.0021381567028457282
-0.25815655148631883,-0.30321306290445693,-0.11309807577688023,-1.9291787731856012,-0.01197976140583085,1.6386439606513754,0.469968123142322,-0.0019909551527300118
-0.2584613277335925,-0.3013876641813409,-0.11372614104972094,-1.9277720905254088,-0.012003603112087832,1.6389633874196872,0.4691128056389434,-0.0018399522117690248
-0.2587722887324651,-0.29953548670185465,-0.11436368508955448,-1.926352789726121,-0.01202699371470274,1.6392824078500603,0.4682441646290248,-0.0016961719134140352
-0.25906870456453385,-0.29773750149081535,-0.11498614997796898,-1.9250238806868973,-0.01205005624194159,1.6396237768670505,0.4674036223459739,-0.0015358994270842086
-0.25938379687969193,-0.29587802432070376,-0.1156273241838849,-1.9236228292623343,-0.012075068474272423,1.6399516915834105,0.46653278763522066,-0.0013775568776450697
-0.2596801149291267,-0.2940449490207616,-0.11626022967816875,-1.9222800715547481,-0.012096626541572512,1.640315273741038,0.46568234143810733,-0.001215003556808092
-0.25999124704760873,-0.29215851456923747,-0.11691217027408964,-1.9208969149456292,-0.012120251483741743,1.640685131562382,0.4648011511690021,-0.0010513975431216682
-0.2602959744035654,-0.2903239317244923,-0.11754980739510477,-1.9195715932120656,-0.012142489135749373,1.6410552602756852,0.4639389299600556,-0.0008950141720412419
-0.26060535865746515,-0.28845538944944654,-0.11819728009430892,-1.9182259990302366,-0.012165176719701305,1.641437263086524,0.46306635319275713,-0.0007267002820003365
-0.26092117211954885,-0.2865465600231506,-0.11886243821801691,-1.9168549391495064,-0.01219112865364498,1.641833216833251,0.4621717748964992,-0.0005594098433407968
-0.2612482794758567,-0.2846105352820521,-0.11953197115726004,-1.9154588932677248,-0.012215364050353226,1.6422238881867777,0.46126229233868793,-0.0003912714021080954
-0.26155587919668644,-0.28275895288604075,-0.12018372559081776,-1.9141540525467093,-0.012234966554072477,1.642612708445251,0.46038110206958277,-0.00023219781596794942
-0.26187841521485594,-0.28078002262640256,-0.12087289865937832,-1.912729349932503,-0.012257464322985407,1.6430273988858084,0.45945781210063563,-5.6339627172552476e-05
-0.26204195667018065,-0.28016940747281566,-0.1210291819632834,-1.9121981575612366,-0.012281937574341293,1.6431409026166262,0.4591579525527194,-9.406112094478836e-05
-0.262212110676128,-0.27955498378498944,-0.12118746651259286,-1.9116705942084868,-0.012306774052006381,1.6432598241866239,0.45885286683516757,-0.00012915088259335405
-0.26238073682841945,-0.27893165368115563,-0.12134986214742298,-1.9111280350838205,-0.012331196920358087,1.6433787457566216,0.4585452970740236,-0.0001625153976275162
-0.2625556210692853,-0.2783038604512602,-0.12151264562050972,-1.9105917746004877,-0.012356607529931273,1.643500376246209,0.45823356573335494,-0.0001976051592760819
-0.26272540839035524,-0.2776741034458976,-0.12167378465938823,-1.9100496326043865,-0.012381272939721704,1.6436187560322886,0.45792289898279726,-0.00022854263246291362
-0.2628976402772746,-0.27702111834889837,-0.12183700251132244,-1.9094896166492692,-0.012406425775785131,1.643742282765589,0.4576110063405967,-0.0002643634308124865
-0.2630687598867324,-0.2763647809483239,-0.12200037549855934,-1.9089216543949865,-0.012431450896791452,1.6438595789838326,0.4572997911648303,-0.00029974560714141063
-0.26324137068135833,-0.27571052633991155,-0.12216489648703595,-1.908357634005644,-0.012456827527129259,1.6439825187845554,0.4569864145485357,-0.0003324083269426459
-0.26341569267207887,-0.2750393713608123,-0.12233390088575959,-1.9077779921515376,-0.012481924121699649,1.6441000407460982,0.4566701667649722,-0.0003682876082282682
-0.26359539270766813,-0.27436795851220724,-0.12250620966643001,-1.9072009782073915,-0.012507683897208776,1.6442158470585673,0.4563428859566225,-0.0003996929449037734
-0.2637776839830577,-0.27367599544760257,-0.12267993017835467,-1.9066067994227902,-0.012533203474674723,1.6443408636976422,0.45601783110941385,-0.00043256035498123735
-0.26395591727913725,-0.272976097936666,-0.12285242512138829,-1.9060099301589437,-0.012558278978685222,1.644468905296926,0.4556964539371339,-0.0004625621011907777
-0.2641319749116109,-0.2722658261371505,-0.12302414438790855,-1.905399295652448,-0.012583473995868427,1.6445904906378537,0.4553747541617901,-0.0004954295112682416
-0.26431025709900746,-0.27155388810390524,-0.12319698062860802,-1.9047875557552545,-0.012608836565832976,1.644710586073007,0.4550488282863089,-0.000529349614195207
-0.2644852391225073,-0.2708304451234788,-0.12337025124815497,-1.9041686203903128,-0.012634026896225095,1.6448341128063073,0.4547276446758673,-0.0005625679218891899
-0.2646611256353715,-0.27010001983028026,-0.12354569376193923,-1.9035438035126024,-0.012658566934353964,1.6449638249060048,0.4544024930477395,-0.000594324156181103
