jkw0701/act-for-franka/real/actions_250422_1507.csv
joint1,joint2,joint3,joint4,joint5,joint6,joint7,gripper
-0.09253368477013596,0.06871324935433035,-0.06627757228546255,-2.0284070567885624,-0.05586395650606024,1.8814151108753567,0.7260219401671778,-0.11331145706696921
-0.09199203426759014,0.06904006712472577,-0.06668091385671056,-2.0277098773226503,-0.055922363295759954,1.8829963422014222,0.7252850067451605,-0.11264932999514643
-0.09128593794664162,0.06953414487752571,-0.06699596785472574,-2.027663952194442,-0.055899177255793464,1.8829647324592902,0.7252778532412436,-0.11203983803545242
-0.09010953689514395,0.07072749172040596,-0.0677223828817829,-2.027431102789498,-0.055794228340941464,1.8848212662296882,0.7244484894346381,-0.11077189780209518
-0.08924402607613004,0.0703793898038041,-0.06772968244616487,-2.0276739476635224,-0.055839925052597744,1.8864919605681822,0.7248083976303251,-0.10969508528234984
-0.08781206900577668,0.07397651191144501,-0.06911839167147957,-2.0271471414183364,-0.055524164448671295,1.8863689685108154,0.7228921517805295,-0.10823918676148736
-0.08654594961498493,0.07655453956175778,-0.07018162005548904,-2.0266905555946737,-0.05529980742799189,1.887348576746076,0.7213869557511087,-0.10710849399792843
-0.08565757103263451,0.0788936923054831,-0.07107400534756614,-2.026465972712807,-0.05510251166018573,1.8878309876309585,0.7199497970531407,-0.10638331798534051
-0.08471319839136589,0.08036606659060311,-0.07157572074060443,-2.026612753024532,-0.0549806207872097,1.8885215841161294,0.7193375045443984,-0.10530424158980467
-0.08413767926728699,0.08194110300165365,-0.07205434922932753,-2.0264135280173785,-0.05485607469556546,1.8894767310329743,0.7183367728207557,-0.10503257649494618
-0.08341151952548506,0.08326280559214197,-0.07251158991700359,-2.0265390567011483,-0.05474122973715627,1.890927528107119,0.7174363719537067,-0.10447934184864582
-0.08274867400128884,0.08400216144571095,-0.07273123481555964,-2.0270243682422593,-0.054677714639343095,1.8930581892384986,0.7167886281023486,-0.10386554852494995
-0.08229963897126415,0.08463653670458088,-0.07282436425254742,-2.0272934174541435,-0.05462572304617193,1.894628296442178,0.7163553945154071,-0.10364204738753408
-0.08180752841589232,0.08526732738053211,-0.07295944102716603,-2.027538441520526,-0.05457140028276936,1.895833050647421,0.715972085271824,-0.10321833473489694
-0.08139074332442335,0.08646965623451024,-0.07326299221216785,-2.027764249072478,-0.05446307105076681,1.8969294621677353,0.7151441521660018,-0.1032837890436894
-0.08095418349441541,0.08788591727226656,-0.07360727543086841,-2.02802132173132,-0.05433417463559518,1.898456620074949,0.7140665024902978,-0.10335694053016953
-0.08053095460128488,0.08925090890846105,-0.0738189008716305,-2.028370784942205,-0.054201225208663266,1.899681429036043,0.7131871194872434,-0.10359860927080405
-0.08024970585644427,0.08974609930702933,-0.07389607654171344,-2.028681617015832,-0.05416028548528056,1.9010102524583914,0.71271799190993,-0.10358618625240379
-0.07992970151089042,0.09075281352480458,-0.07401641872375404,-2.0290010397899123,-0.05406624031906686,1.9020761705657565,0.712065600257132,-0.10379174617418002
-0.0796435348566217,0.0923493478415934,-0.07431202011806627,-2.029300273517435,-0.05391679730796183,1.902981219762419,0.7109706557012399,-0.10426529239265525
-0.0793741014665077,0.0938364016514871,-0.0745498326492888,-2.029501083391758,-0.053775838109520274,1.9040533070573749,0.7099455072111891,-0.10470983270256484
-0.07912772142121804,0.09520202360424986,-0.07474604230800773,-2.029765179893738,-0.05364380922612624,1.9050781951710802,0.7090168796452592,-0.10520066927238991
-0.07885924686879128,0.09681212342979062,-0.0750094187961459,-2.030038155253838,-0.05348591314952789,1.9060343409087732,0.7079537266835703,-0.10573992448568398
-0.0785710594383215,0.09836796944184412,-0.07521586177842046,-2.0303820174000666,-0.05332589712238879,1.9071633022379,0.7069434701287454,-0.10624646669380555
-0.07827666533809131,0.10040723537568011,-0.07559927081702417,-2.030559468493493,-0.0531240665480343,1.908004936103073,0.7056331616306211,-0.10690395282025789
-0.07798968418729257,0.1024036315613532,-0.0759533848382328,-2.030838747302563,-0.052921912994709795,1.9087842317964947,0.7043486452687188,-0.10753065023595954
-0.07767962907150416,0.10433680151421498,-0.07629784222469434,-2.0310659776329967,-0.052724276869098315,1.9096816625361006,0.7031375768166462,-0.1081387272732845
-0.07745958097732426,0.10622346506636562,-0.07663959420526881,-2.0311948201299392,-0.05253409840276711,1.9104921371077592,0.7018767263008514,-0.10877057500640952
-0.0771461132241759,0.10844889910940086,-0.07702089774916213,-2.0313895967031055,-0.05230526593094611,1.9112486361841785,0.700535788158884,-0.10945961390169173
-0.07683595500756091,0.1105869438710055,-0.07736348186459456,-2.031595233218354,-0.05208213799497295,1.9119952253910073,0.6992839170690003,-0.11012154288438292
-0.07663092870381441,0.11268019778916738,-0.07771999940090457,-2.031749055383071,-0.05186533515295145,1.9125673147202662,0.6979685418349525,-0.11085201070663103
-0.07637037229486936,0.114980381896186,-0.07812124321823155,-2.031842130309573,-0.051623751161248975,1.913220249784049,0.6965618388834949,-0.11149588527989307
-0.07610372262707313,0.11736509419551669,-0.07851948747967517,-2.031933611363979,-0.05137297296356901,1.9138927695703425,0.6951096617795134,-0.11219228177149437
-0.07582011287330372,0.1199040422185966,-0.0789082105701858,-2.0319954121786643,-0.05110168426445975,1.9147706547568828,0.6935710497967128,-0.11291134531944796
-0.07548979844509139,0.12247788785550423,-0.07930496085927978,-2.032146253712511,-0.05082726553684919,1.9155782895437774,0.6920330938811221,-0.11357836802266769
-0.07510502616027699,0.1252287373468098,-0.07971821838171897,-2.032242354294519,-0.05053103792499728,1.9164423283315026,0.6904622002298169,-0.11420608418247508
-0.07480400267689741,0.12757230915778006,-0.08003096562449999,-2.0322783649979907,-0.050276954272841935,1.9173934995496777,0.689098576390345,-0.11478526850502391
-0.07456100433871973,0.13004701422001902,-0.080390660754849,-2.032178473341674,-0.05001314988613055,1.9182881296739647,0.6875783975248198,-0.11538075273326426
-0.07420917276799917,0.13269663487046018,-0.08076639867118068,-2.032170540000899,-0.04972676038281468,1.9191110405444176,0.6860918756976129,-0.11585446874242378
-0.07388221942673352,0.1351611671713886,-0.08107003113447095,-2.0321583653394604,-0.04945426392149325,1.9202535740862443,0.6846761458936987,-0.11632597747268753
-0.07348500287215033,0.13774306441732917,-0.08134635409284119,-2.032158005142376,-0.04916589189411889,1.9215074076060992,0.683257412408582,-0.11675246337316797
-0.07316113224559956,0.14018963543656868,-0.08161031888097198,-2.0319821028964107,-0.0488949475633154,1.9226846256914925,0.6819145851092265,-0.1170111677791259
-0.07278195833566871,0.14278268654526086,-0.08189096507020895,-2.031835142486144,-0.04860576387749054,1.9239201083263548,0.6805145455873842,-0.11716632816611644
-0.07245017987571889,0.14539779873384254,-0.08218509571453965,-2.031655674289047,-0.0483155965495873,1.9250946237200415,0.6790739484648816,-0.11741026078254146
-0.07207557333240575,0.14798651984176137,-0.08244176480868315,-2.0313980073050164,-0.048024436088087936,1.9263525308621787,0.6777260702384511,-0.11713480369573392
-0.07169620353090439,0.15035747479686282,-0.0826221445531273,-2.0312573683535735,-0.047751039469939284,1.927729415193568,0.6765279808509439,-0.11704801235761614
-0.07125460207047646,0.1529286731041837,-0.08283210572417345,-2.031075396786743,-0.04745557413725104,1.929170028212007,0.6752465155967896,-0.11667387858479067
-0.07083265162759558,0.15516229578159285,-0.08294863943784084,-2.0309273377753696,-0.04719419672160069,1.9305574295393846,0.6742136128665813,-0.11584122506904942
-0.0704692005937189,0.15751357389773693,-0.08308097210262551,-2.030700719779979,-0.046920386487171735,1.931967294543482,0.6730789248657233,-0.11523394038825113
-0.06999287477489723,0.15981159848538254,-0.08320630322341921,-2.030516659070061,-0.046652202717515086,1.9334502301472665,0.6720451763621238,-0.11355870060173784
-0.06947148358477533,0.16206603805258557,-0.08330371718732682,-2.030306538101117,-0.04638824200483803,1.9349682224043452,0.6710769871529848,-0.11103637509131886
-0.0690168914201977,0.16417896880970478,-0.08334498333549255,-2.030101838098287,-0.04613699939120533,1.9363866655169022,0.6702113420392206,-0.10872023206851855
-0.06854573095278792,0.16608786335316766,-0.08332967979489536,-2.029932293330854,-0.045907562403282344,1.9377787671776823,0.6695065756715568,-0.1059904789387962
-0.06812134733039965,0.16795378674971534,-0.08326877913447633,-2.0297581560506,-0.045680216222930135,1.9392946247000074,0.6687718041095632,-0.10331208749107051
-0.06776006656892258,0.1695764298749647,-0.0831242818191866,-2.0296218754838735,-0.045476928767443525,1.9408601882480645,0.6681631239226883,-0.10060502971614776
-0.06732607910453794,0.17129501266291866,-0.08305293883389879,-2.0294690438611376,-0.045268033562853395,1.9422660579687696,0.6675380341511377,-0.0975186312540815
-0.06690597932149427,0.17292758738487854,-0.08292193758488686,-2.029363398056404,-0.04506360765997083,1.9437826597105499,0.6669408232838026,-0.09435438376326982
-0.06652112971105992,0.17440885324437141,-0.08274744858115818,-2.029307963725178,-0.04487205385935009,1.9453633426643853,0.6664026821786454,-0.09101907215803945
-0.06610975741298665,0.17579559354267807,-0.08252929765495176,-2.0292868561760566,-0.0446847196399419,1.9470604959629914,0.6659135405992129,-0.08746608889555374
-0.06567533177008901,0.17716819282580093,-0.08232345458385387,-2.029304523843026,-0.04450098524574252,1.9487040458760858,0.665437346466649,-0.08382475788034421
-0.06522860104353849,0.17837460777544553,-0.08208628453814959,-2.0294013988487647,-0.04433392758190373,1.9503262484416437,0.6650515789471342,-0.07990052728666591
-0.0647724623665621,0.1795286351967463,-0.08183861798205087,-2.0295204259751682,-0.04416792708598499,1.9520738519854373,0.6646576540618268,-0.075814372977073
-0.06432508725984541,0.18056047986204787,-0.08156455920457323,-2.0297088810895105,-0.04401541256626448,1.9535850679285274,0.6643719723617549,-0.07190876276177144
-0.0635336956250633,0.18165052193014863,-0.08185808993772727,-2.0296226138878954,-0.043907515666211025,1.9543909792598408,0.6640213637211598,-0.06953873949515754
-0.06276014558832167,0.18270778753669928,-0.08213555079213584,-2.029553365998499,-0.04380050268045795,1.9551329660568797,0.6637106329007425,-0.0671542557219319
-0.061984069581328724,0.18376218109210404,-0.08240946636501002,-2.0294768961575684,-0.043693883258482905,1.9558298884074214,0.6634170388720289,-0.06472276822760625
-0.06124022289272618,0.1847839735783951,-0.08266245084341034,-2.029406045391148,-0.043589825209465416,1.956459948515312,0.6631539084942498,-0.0622846588965934
-0.060500144539335304,0.1858479917937467,-0.08293080852951225,-2.0293346543291015,-0.043480216093084174,1.9569955710912559,0.6628841542089764,-0.05983641872141815
-0.059781310111262226,0.18680850654757444,-0.08316767668443084,-2.0292842447471977,-0.04337934238142832,1.9575297639824567,0.6626803307261019,-0.057369926047682096
-0.059049902537387136,0.18780293781378887,-0.08340957635244413,-2.0292364285842983,-0.0432742330465581,1.9580035967588796,0.6624870517451336,-0.05482801801167547
-0.05830081832679408,0.18885319868491124,-0.08367741153526312,-2.0291668925372344,-0.043163378536102096,1.9584276060012353,0.6622751183230118,-0.05225653809815556
-0.057566895092750314,0.18986468686556443,-0.0839346457070311,-2.029105424904852,-0.04305519234528245,1.9588658337521339,0.6620697455729906,-0.04967631396439487
-0.05682529084712598,0.19079558222169707,-0.08416853365803978,-2.0290819040352677,-0.042953154519027724,1.9592950525306774,0.6619400339715801,-0.0470540383378259
-0.05609605870069183,0.19174555150528697,-0.08440868390765399,-2.029023948324454,-0.04285028411287844,1.9596747611307141,0.6617987186754182,-0.04444574214426317
-0.055365666669958596,0.19280219227628295,-0.08469265089553345,-2.0289140882138375,-0.04273759172374705,1.9598659080224181,0.6616209086526437,-0.04184669954299408
-0.054617402110936894,0.19378579305955038,-0.08495572162249125,-2.0288493968175536,-0.04262988037618133,1.9602064863468784,0.6614663850636141,-0.03920028534080905
-0.05387841662630782,0.19472187345458375,-0.08520753724169573,-2.0288048584481184,-0.042526578974916435,1.9605352746683875,0.6613436135466667,-0.03650287733644325
-0.05314307575589851,0.19568270610720245,-0.08547827135013619,-2.0287227515228237,-0.04242263642831206,1.9607911294832667,0.6612069776696415,-0.03385323711125676
-0.052399388873577174,0.19655187428775356,-0.08572304285100812,-2.0286529453279467,-0.04232650633659492,1.9609971215946338,0.6611642226390486,-0.0311231726986132
-0.051670672231275944,0.19736727372452428,-0.0859723001393237,-2.028576673595412,-0.042236905339619255,1.9612736970459292,0.6611169462778033,-0.028395824936918224
-0.05090276180974851,0.19833381759335292,-0.08624821283585699,-2.028519456288621,-0.042130751135697045,1.961512728584172,0.661015943545151,-0.025557773649068416
-0.05014998658956371,0.19926113932859413,-0.08654330333807038,-2.028441059393291,-0.04202978384569723,1.961791282092441,0.660894349787412,-0.02280790032325808
-0.049392303770033494,0.20005181939386132,-0.086799933728267,-2.028371325237831,-0.04194104804735316,1.9621098080193544,0.6608701938670031,-0.019880454240131407
-0.04865112223779816,0.2008272403171627,-0.08705809679476015,-2.0283011228261616,-0.04185562866551906,1.9624084358681968,0.660850464424156,-0.01696826102014315
-0.047899084188523455,0.20160628967149188,-0.08732575006902879,-2.0282283810250505,-0.04176948739360298,1.9627547721010754,0.6608162856938391,-0.0139518729168977
-0.04713217384501389,0.20229572445285376,-0.08757232517382543,-2.028159349253904,-0.0416909179465468,1.9632220635801798,0.6608245774348434,-0.010785389848742888
-0.04636703683572159,0.20298192543616972,-0.08782848724626477,-2.028078701126799,-0.0416142232747702,1.9636763899729819,0.6608314542839127,-0.007500789061219482
-0.04561339556859348,0.20354392665046797,-0.08804603052050512,-2.0280294982051266,-0.041549811429055186,1.964170630030261,0.6609075343670069,-0.004206991278297156
-0.044858228409231926,0.20409185262174603,-0.08827513466367917,-2.027934892441017,-0.04148889567027054,1.9647158295355127,0.6609802945919298,-0.0006738735258729478
-0.044113747650545876,0.20455249893186622,-0.08846577482444178,-2.0278877966722857,-0.04143619234695188,1.9653303981278971,0.6611041885371162,0.0028051375951586577
-0.04334197610306284,0.20505405552777403,-0.08867927740662764,-2.0278664189753512,-0.041378853954573504,1.9659735212457021,0.6611958482403432,0.006381693464312832
-0.04260254728487946,0.20536865474851887,-0.08885506686297157,-2.0278261489413616,-0.041341540258335925,1.9667539528530293,0.6613425622582457,0.00990043560546744
-0.04185554055594208,0.20561365605809923,-0.08901431812281276,-2.0278115069298974,-0.04131049684587711,1.9677097068962721,0.6614946038580709,0.013437684931209282
-0.04108842401077935,0.20584842979623266,-0.08917783455760035,-2.0278208360343726,-0.041279968916410156,1.968634947941843,0.6616728565286016,0.017032210314450458
-0.040321889985286824,0.20595173594126556,-0.08930805785727995,-2.0278492555842993,-0.04126395899859197,1.969604940078351,0.661940247391034,0.02073180783281764
-0.03957093449469125,0.205896202311094,-0.08939304398384372,-2.0279035733045645,-0.041262137696651796,1.97088914950282,0.6622231151160843,0.024389608544402974
-0.038802359072832346,0.20571335569615887,-0.08946682144739043,-2.0280086427939636,-0.04127237249381413,1.9722850701844896,0.662548714158455,0.02826646753716533
-0.038061827075804494,0.20541700825082573,-0.08951869247700185,-2.0280873998863775,-0.041293559700353616,1.973708703248512,0.6629292647579862,0.032038480782380696
-0.03733661586160715,0.20490332765275257,-0.0895162773507164,-2.028196737711222,-0.04133832437170404,1.975320134216689,0.6633866463609123,0.03587682558825739
-0.0365778350182738,0.20443544640463135,-0.08951806547306236,-2.0283857511310446,-0.04137585410023282,1.9770311730835552,0.6638138330633273,0.039788916148009223
-0.03580503246252492,0.20388776159795333,-0.08952107664012979,-2.0286238594134147,-0.04142183689425492,1.9786948169219456,0.6642978525758667,0.043794589673250284
-0.03506495926417537,0.20305732225976228,-0.08943588925304223,-2.028868847460089,-0.0414955263643569,1.9807561383432764,0.6648602918810687,0.04778642525772203
-0.034314617223497976,0.20220590160136823,-0.08936052879806805,-2.029136221755533,-0.04157322259178057,1.982742763632951,0.6654371014294983,0.05187688093131687
-0.03357262119473263,0.20112456338292325,-0.08924142514232769,-2.0294800839017615,-0.0416713076687864,1.9849969064397606,0.6660644913884961,0.05595468719893232
-0.03281318050610914,0.20001066794347364,-0.08910279921577997,-2.029922099753377,-0.04177195465348318,1.9873686750899688,0.6666984499240188,0.06004358645792124
-0.03209070146381629,0.19866466253851822,-0.08892356123776886,-2.030372093970403,-0.041897668335493354,1.9897486301541867,0.6674459318001544,0.06422994556969058
-0.03131114580392609,0.19720011377061866,-0.08870452399117885,-2.0308916422443466,-0.042033369233104405,1.992456668489903,0.6682243515926777,0.06847660867282906
-0.030566314502429668,0.19557459859422344,-0.08846506654221382,-2.0315048777798355,-0.04218674734725633,1.9951897752704328,0.6690441352371315,0.0724926394298116
-0.029831525221442588,0.19400005684465363,-0.08824813866072889,-2.0320654434967187,-0.042337823968880216,1.9979321064552655,0.6697974901004607,0.07654002486649242
-0.029129738515045304,0.1921246512945137,-0.08797731166281592,-2.0327026051235113,-0.04251793875273519,2.0006985953953147,0.6706948951907312,0.08059861648833616
-0.028391423185789032,0.19030003281673555,-0.08772307317653662,-2.033373193039698,-0.04269189875522453,2.003658718486827,0.6715108056673184,0.08446016602106532
-0.027644766999662045,0.18833206390829152,-0.08744628964119848,-2.034098873099881,-0.04288274136043116,2.0066437435530116,0.6724032783968771,0.08833405367685265
-0.02694574339541723,0.18628157285852665,-0.0871560564843188,-2.0348736570275383,-0.04307975211533828,2.0097196123545618,0.673269966894638,0.09161095728668844
-0.026279866706919428,0.18414340751462202,-0.08686691864913589,-2.0356727902780736,-0.04328726663830494,2.012769237627948,0.6741532072567106,0.09426903044919452
-0.025583415468297902,0.1818993709113023,-0.08656609222199457,-2.0365194605387678,-0.04350822863666546,2.0160185291473303,0.6750605956347678,0.0970495226950712
-0.024899496135147758,0.17970538692451696,-0.0862874470268114,-2.037369138445113,-0.043721740194646516,2.019270151248691,0.6759098153550079,0.0994954423975612
-0.024162340690190565,0.17745550756066003,-0.08601871004203006,-2.0382935392365322,-0.04394167497015704,2.0226910441067116,0.6767672556764344,0.10191286556353843
-0.02339031139064107,0.1752262258460515,-0.08577057903856876,-2.039239326729813,-0.04416086646624981,2.0262703871622048,0.6775762893039522,0.1041955598215343
-0.022666904440908953,0.17281404270637146,-0.08546126870627088,-2.0402200893599485,-0.044396786027109,2.0298227326777165,0.6785026799178285,0.10638949599931938
-0.021880647227290755,0.17047035031310118,-0.0852148058429202,-2.0412262098647966,-0.04462567170490271,2.03358133469835,0.679328447211415,0.10834827207936754
-0.021070769614301984,0.16808851006491635,-0.0849600409829633,-2.0422552118894055,-0.04486052554210753,2.03743633272318,0.6801736751974252,0.11012207535810922
-0.02026011874511383,0.16560979838170864,-0.08467730865098937,-2.0433544883651003,-0.04510606549145927,2.0414767197312966,0.6810453197691706,0.11161360162422448
-0.019436796784338402,0.16307762489148422,-0.08439034597762124,-2.0444707931579407,-0.04535520473128644,2.0455909411432787,0.6819467482113679,0.11309586014882242
-0.01859414341857833,0.16058091355949214,-0.08412256110993319,-2.045564765731574,-0.045603409791874175,2.049811311751268,0.6828275302975088,0.11433094588477022
-0.017717425539714646,0.15807764693519002,-0.0838561734547276,-2.046729679120898,-0.045854926456371334,2.05411922606888,0.6837185407085872,0.11530302585075816
-0.016791389380454134,0.15554726025541132,-0.08358896914624278,-2.0479273704448655,-0.04610456834558892,2.0586954412925267,0.6846047847518624,0.11647859995186352
-0.01719388469735846,0.15512093605268695,-0.08351601994715935,-2.0477220310922113,-0.04615854005651829,2.0581900085663327,0.6846986023629009,0.11541866745598098
-0.017585899815240443,0.1547018906360727,-0.08344723142236575,-2.0475127745962687,-0.04621189040724376,2.0577057958869793,0.6847811877871262,0.11435982445032264
-0.01798742082933354,0.15429636139908764,-0.08338646235536612,-2.047283815319832,-0.04626450229115203,2.057196162237807,0.6848493397327302,0.11326958431729497
-0.01837596144935962,0.15394799913433801,-0.08334561808022141,-2.0470360897753195,-0.04631215746386406,2.0566786751149078,0.6848824671746261,0.11218182029841314
-0.018768971490218143,0.15358859810812317,-0.08330113950446448,-2.0467799896486043,-0.0463615031962014,2.056198320625889,0.6849084094949082,0.11108678357855437
-0.019159012227271028,0.15328828240891676,-0.08328006907578185,-2.0464848261481308,-0.046405915478245144,2.055727288464785,0.6848851704877085,0.10997902670659779
-0.01956411084004662,0.15298153199970033,-0.08325362653927199,-2.0461817743315174,-0.04645132396860202,2.0552507725813784,0.6848544222775022,0.10882572348358135
-0.019970663174477054,0.15266643948772815,-0.08322653377645449,-2.0458736437360203,-0.04649728269962138,2.0547995895365387,0.6848221406089975,0.10768821079420354
-0.020377849578990987,0.1523741918405956,-0.08320137621098112,-2.0455594258098038,-0.04654124527088072,2.0543408369964493,0.6847792986297382,0.10652104133197038
-0.02078770887243413,0.15205880335388702,-0.08316948415875024,-2.045254591017625,-0.04658739436698837,2.053875729213905,0.6847491827734692,0.10537158669779775
-0.021206594643244776,0.15177618036670132,-0.08314528258076485,-2.044926451474112,-0.0466308981369956,2.053378052037825,0.6846982308549627,0.10418873989571545
-0.021636723559194482,0.15143382529289798,-0.08309969707212708,-2.0446096941584533,-0.04667909071676866,2.0529326562784878,0.6846714190480166,0.10301384495734725
-0.022063060942246544,0.1511313171882367,-0.08306415136731053,-2.0442862912065953,-0.046724079441411194,2.0524695853070845,0.6846242138265892,0.10183892172053163
-0.022490766988771515,0.15082578356404772,-0.08302461915596514,-2.0439560625199955,-0.0467695125295042,2.052019156274062,0.6845796961093958,0.10063496427670304
-0.022919437028025052,0.15053904981663413,-0.08298896508009733,-2.0436174232314843,-0.0468128382332912,2.05157458307307,0.6845215669736997,0.09945576797433289
-0.023364221726473785,0.15022495484914394,-0.08294444005960412,-2.0432795313519225,-0.04685835848292744,2.0511450019771598,0.6844654613706034,0.0982494051624769
-0.023806328380951983,0.14992335659274642,-0.08290070459962733,-2.042938856949887,-0.046902287365982946,2.0507075771998844,0.6844038226705547,0.09703990122296163
-0.024261111282058784,0.1495766495941152,-0.08284237001088658,-2.0426062329526786,-0.04695050801925919,2.0502771539609066,0.684364126652134,0.09575305762675379
-0.02471432189556016,0.14926026356292466,-0.0827897326431269,-2.04225516686477,-0.046995909290715246,2.0498360766328827,0.6843090565286101,0.09453882784652587
-0.025175151660146156,0.14895379816641735,-0.08273997484901524,-2.0419049832597174,-0.0470403386842276,2.049385304867216,0.684246714334806,0.09321386624169573
-0.025636641270022294,0.1486511475554015,-0.0826900467575373,-2.0415554480094156,-0.047085147471083034,2.048923741919446,0.6841820324314335,0.09187351028149027
-0.026101574447506364,0.14834163471531198,-0.08263590380624389,-2.041208974434328,-0.04713021399943441,2.048441566051234,0.6841250889593701,0.09048439609644715
-0.02657946739889214,0.1480716509455735,-0.08259874801723706,-2.0408486873010694,-0.04717238387699015,2.04789939238561,0.6840395077583663,0.08898101278087922
-0.027073495629638438,0.1477525408506053,-0.08254736078696165,-2.040491488857806,-0.04721926021051373,2.047349884241406,0.6839770865203201,0.08739697889027515
-0.02755497648978936,0.14748172944780763,-0.08250755764798808,-2.040125492600766,-0.04726115202670456,2.0468389188311025,0.6838872369302388,0.0858629200577461
-0.02805635580947115,0.14722917530143528,-0.08247427225366945,-2.0397486003819356,-0.047301440444813304,2.0462734491380523,0.6837872854860075,0.084189180088944
-0.028546656945336406,0.14700483741326695,-0.08245026032502378,-2.039366269187137,-0.04733921374440308,2.0456890018488894,0.68366981783771,0.08257305575900975
-0.029043912231954804,0.14679639994566,-0.08242167746025134,-2.0389838119233588,-0.04737554460066237,2.045140629618591,0.6835450781191323,0.08099371941067096
-0.029545518373455076,0.1466208211548077,-0.08241081326236152,-2.038591809436855,-0.04740906008560194,2.0445155636149406,0.6833997789931647,0.07934278799045802
-0.030040577612467218,0.14648571416865208,-0.08240770920582158,-2.0381976457678475,-0.04743891050785861,2.0438665650803824,0.683243571761777,0.07774030351216149
-0.030547555307032567,0.14631387342910032,-0.08238959575868074,-2.0378117666317714,-0.04747170543954968,2.0432335280946705,0.6830993555419271,0.07610227618395432
-0.031056703273997514,0.14620394073858012,-0.08239513429347957,-2.037401286034859,-0.04749935917702354,2.042585312949013,0.682911277672094,0.07452452454866887
-0.03156426348823306,0.14617230432786651,-0.08242504470363007,-2.0369918500094903,-0.047520188379555704,2.041800494363843,0.6827006326711197,0.07287263098124491
-0.03207364858709916,0.1461854039504593,-0.08247122625304983,-2.036572400505187,-0.04753754689499372,2.0409994596284347,0.6824518093011744,0.07119855143107423
-0.032587631982830934,0.14621412446191792,-0.08251880114455734,-2.036149168931501,-0.04755297689444604,2.0401677943870196,0.6822004802287522,0.06951391656003042
-0.03309999154054401,0.14630201251558955,-0.08258400955426434,-2.0357326910531404,-0.047562569209435406,2.0393009843610588,0.6819118976049925,0.06781400052740078
-0.033609196212963585,0.14641312362404174,-0.08266192834012744,-2.0353073703363678,-0.04757053245913977,2.038395044059522,0.6816070634850415,0.06611606538608783
-0.03413400519548676,0.14654192744451464,-0.0827412985239986,-2.034865462543878,-0.047577170104760244,2.037507190249224,0.6812850846689625,0.06436631578762009
-0.034643503705262105,0.14671844348869886,-0.08283749718397412,-2.034434810910262,-0.047578569502052505,2.0365375506377212,0.6809489569335341,0.06261928284010093
-0.03516208539785956,0.1469620526208154,-0.08295864827850455,-2.0339899855213917,-0.0475744103457135,2.035520946861638,0.6805636478706238,0.06080775773100028
-0.0356937969807226,0.14719432701673033,-0.08308238092629201,-2.0335490862807366,-0.04757160192592789,2.0343920834561233,0.6802034274501803,0.058995100684004376
-0.03620363056818433,0.1474468866441163,-0.08320931052009195,-2.0331236394949843,-0.04756618454191265,2.033319741559775,0.6798257461566399,0.057220222064262194
-0.036710247409856636,0.1477781865134135,-0.08335689641034287,-2.0326860720773565,-0.0475539530502569,2.032242679745301,0.6793944412492077,0.05539256684015431
-0.03724253635734853,0.14812074986573504,-0.08351636828268129,-2.032236654175665,-0.04754112746980035,2.0310025359464814,0.6789757359939781,0.05350169288459705
-0.037759751963993754,0.1484542421404871,-0.08366507658739178,-2.0318075693993647,-0.04752839038772051,2.029856829679608,0.6785503831179817,0.05163866460126282
-0.03827667888832452,0.14877884969213334,-0.08381870803414569,-2.0313826268895303,-0.0475157864542558,2.028654552941762,0.6781435977344723,0.049846523928618214
-0.03879597197662542,0.14923608681177122,-0.08401362885143344,-2.0309236097355505,-0.047492298824655055,2.0274429049141953,0.6776386394021805,0.04791212696098884
-0.03932248727782858,0.1496637812679049,-0.08420266279840044,-2.030478964445222,-0.04747132871987356,2.026151968137544,0.6771685237718399,0.04602634672596018
-0.03985021401374411,0.15006773745397609,-0.08438570537439007,-2.0300384794312136,-0.047452785769967705,2.024865751279018,0.6767100829760685,0.04417025156223431
-0.04036781624848901,0.15053357976502427,-0.08458661369226049,-2.0295885572536045,-0.04742835700959342,2.0235818454177474,0.6762125627069655,0.0422766326572811
-0.04089518728655282,0.1509791971357514,-0.0847828001286113,-2.029139751686956,-0.04740657250585276,2.0222881178181384,0.6757280056935794,0.040401690727599415
-0.041423970805940846,0.15146269927273845,-0.08498669252078633,-2.028693539539312,-0.04737968664553277,2.0209538106734874,0.6752187710677858,0.03846961423265527
-0.041947125020197346,0.15197355166777488,-0.0852019948365022,-2.028243797460245,-0.047349924989019514,2.0196615715127892,0.6746827404438948,0.03653264210631424
-0.04248409990025753,0.1524412136753506,-0.0854156870680278,-2.027793046829343,-0.0473256245646598,2.018224708968711,0.674201645568316,0.03469898761136153
-0.043020667532052706,0.1529467056390499,-0.08563862954285821,-2.027348293479889,-0.047296954299003824,2.016752231606747,0.6737025444143694,0.03281419782199124
-0.043564807919560536,0.15346666747875126,-0.08587433657937035,-2.0268699337424994,-0.047268208635939286,2.0152709117425696,0.6731739755669397,0.03086245390611725
-0.04410245811003485,0.15408506832337573,-0.08614133962733138,-2.0263849463787644,-0.047230406995479625,2.0137437538353558,0.6725934667479763,0.0289692311794274
-0.044644917954069344,0.15469062167203473,-0.08640431746481667,-2.0259149972432855,-0.04719346173055056,2.012180090005382,0.67202505960249,0.027033419289428928
-0.0451998890834099,0.15527166392770841,-0.08667012843121372,-2.025445858551246,-0.047158978645534436,2.01050402945292,0.6714833140798896,0.025171155064174
-0.04575756660944831,0.15584980124615444,-0.0869382964679759,-2.024971208843821,-0.04712460919136456,2.0088220151448146,0.6709383909787537,0.023292109859622045
-0.046327647164924865,0.1564203638037539,-0.08720289213044086,-2.024506212418247,-0.04709046860308733,2.0071129347501997,0.6703918237573807,0.021404773209987404
-0.046918430366379646,0.1570118967195291,-0.08748159925193905,-2.0240219094289715,-0.04705438800205646,2.0053443755533196,0.6698184684423342,0.019592710430386517
-0.04751239422833457,0.15760057950821296,-0.08776153715894808,-2.023531122892184,-0.04701800581139134,2.0035764430675598,0.669242069923964,0.0177374642200821
-0.04719868418824373,0.15820116705851672,-0.08797576350494063,-2.0237477634283487,-0.04694744506637801,2.003739975500524,0.6689616762836936,0.01887064724701054
-0.046892727330312065,0.15880214924180236,-0.08818928543909994,-2.023967213501768,-0.04687706720018545,2.003903664611268,0.6686799230824579,0.019993699429776635
-0.046582043299481485,0.15937776529397527,-0.08839354164837566,-2.0242134982579447,-0.04681005601544191,2.0040653364955934,0.6684214879326641,0.02113435324681373
-0.04628138582403628,0.15992742326556267,-0.08858828829790245,-2.0244685718229705,-0.04674530488138835,2.0042448696468487,0.6681700165806059,0.022265215801056948
-0.04597701156379269,0.16044610254807293,-0.08877240297322071,-2.0247392059020246,-0.04668291967523683,2.0044232081300306,0.6679464004194906,0.0234021908199345
-0.045671513504539324,0.16091894959454942,-0.08893887251915543,-2.0250465800836457,-0.04662520322634885,2.004583293651833,0.6677664166800563,0.024556144907240673
-0.045344003418810105,0.1614305802935223,-0.08912170996422658,-2.0253621487489273,-0.04656464734313841,2.0047184869913237,0.6675762362333812,0.025762620912886225
-0.045020194652755294,0.16195087099404187,-0.08930858810135224,-2.025676492744123,-0.046503562875967935,2.004820386302547,0.6673864193902203,0.026958286911632157
-0.0446883697974335,0.16248611389976358,-0.08950404690350165,-2.025995321193015,-0.04644138407690652,2.0049114160927766,0.6671875598857544,0.028185307590076314
-0.044358034749055864,0.1629981173076638,-0.08969159074851368,-2.0263134472575928,-0.046380621786605965,2.0050135895901144,0.6670097893851009,0.029398292238619506
-0.044022369387943794,0.16353858910039537,-0.08989329249729519,-2.0266342748003003,-0.04631812696010866,2.00509670715245,0.666814961136986,0.030616257413901726
-0.04368205933459407,0.16412726092705196,-0.09011373469715701,-2.0269497173966027,-0.04625248977282115,2.005139284339188,0.6665955896516754,0.03182530857825894
-0.04334959009910613,0.16466523337756497,-0.09031919072878608,-2.0272679875400144,-0.046190648925264775,2.0051753202286076,0.6664127049885533,0.033043245455093795
-0.04300547047021411,0.16525482601451263,-0.09054446318121881,-2.0275859695257585,-0.046124256427058155,2.0052049323290437,0.6661970248693523,0.034289933554467855
-0.04266085595735447,0.16581940330522033,-0.0907643248218774,-2.027912740320352,-0.046060242957721716,2.0051841725231823,0.6660159187016791,0.035543809459476716
-0.04230916872779113,0.16644376749268203,-0.09100639478725697,-2.0282283810250505,-0.04599134763986419,2.00514507162469,0.6657999698320548,0.03677388637023804
-0.04196037347641349,0.16703855613055768,-0.09124244241850167,-2.0285505232871146,-0.04592534549703524,2.0050972261475963,0.6656067777997529,0.038018791667427054
-0.041605665392631205,0.16770080508427931,-0.091501596306035,-2.028856942946463,-0.045852895538940695,2.005049625479534,0.6653665544433564,0.039271224351619505
-0.041246431182561855,0.16835675087231822,-0.09176373813826763,-2.02917227748364,-0.045781493123565116,2.00496596933733,0.6651404800063093,0.04051188488170138
-0.040885181351332775,0.1689917263021814,-0.09201707095218989,-2.029493735371245,-0.0457118045287175,2.0048854467507273,0.6649304278371513,0.04177473139453003
-0.04052034876637986,0.16962185651598938,-0.09227142555030984,-2.0298132662044504,-0.045641171059962585,2.0048255958387347,0.6647161705143095,0.04305622658418279
-0.040153459319936594,0.17029966058641322,-0.09254378522451935,-2.0301232157952214,-0.045566346885598415,2.004744142977813,0.6644727616749533,0.04431564898487833
-0.03978264173200044,0.17097065723789973,-0.09281153138826051,-2.030433705681619,-0.04549268254796596,2.0046581072918235,0.6642424899886468,0.045614547719670495
-0.039405251466369515,0.17164076596517702,-0.09307545360204973,-2.0307506430958195,-0.04541812146243166,2.0046036617632437,0.6640105662776786,0.04692357729862512
-0.039031047016280046,0.17230596370423543,-0.09334091623292484,-2.0310706601950885,-0.04534442504079556,2.0045099096965853,0.66378268963191,0.04820628932151527
-0.03864222286898086,0.17294616802110846,-0.0935919190692448,-2.0314028879755046,-0.04527309748809515,2.004450979266551,0.663579972768426,0.04953181689529307
-0.03826041473293078,0.17360386773351127,-0.09385326360017165,-2.0317304872233914,-0.045199244924307984,2.004408294363839,0.6633552578923443,0.05079822901249176
-0.03787550326200048,0.17424076151814746,-0.09410529596147868,-2.032067361546191,-0.045127278365201674,2.0043505586018773,0.6631481303601467,0.05198421694223332
-0.0374826427173405,0.1748664630729366,-0.09435620590832612,-2.032398364656521,-0.04505673847479072,2.0042766164820383,0.6629607401752206,0.05329539720318888
-0.03710292752807008,0.1754340329970902,-0.09458824381067384,-2.0327308265650417,-0.04499012887482611,2.004258392897742,0.6627915459748432,0.05457134589715501
-0.03671058248754304,0.17607142007295373,-0.09484119732591664,-2.033057129103426,-0.0449180446743731,2.0042209371159405,0.662585335355855,0.05588660113453342
-0.036328794971658265,0.1766650138498565,-0.09508121598211146,-2.033393877357246,-0.04485046132489791,2.004163495124817,0.6624075253330804,0.057047601535237524
-0.035946589897425815,0.1772000594390873,-0.09529856186622272,-2.033720576112423,-0.04478661255344684,2.004182825245935,0.6622623210602036,0.05828882803426705
-0.03557430827775217,0.17771284115092398,-0.09550499323731322,-2.034037819694145,-0.044725325689686714,2.0041558179135928,0.6621487661018938,0.059490125424041806
-0.03519776343889923,0.17819255042647414,-0.09570164025063192,-2.034367760223078,-0.044666776660904184,2.0042010586225922,0.6620409339467175,0.0607558866769507
-0.0348288016658416,0.17860307834789627,-0.09587530486029201,-2.034694774150703,-0.044614146596060514,2.0042621923339095,0.661981374110238,0.062044711164475186
-0.034471320169824196,0.17902000809324659,-0.0960470033094505,-2.035010441870183,-0.04456024333100558,2.004325490157064,0.6619168661041983,0.06327691045879014
-0.034107425802393204,0.1794218869751493,-0.09621531903365148,-2.0353386714629664,-0.044507299912392995,2.004371592593854,0.6618740320293632,0.0644909704483338
-0.03375993993151319,0.1797710275438354,-0.0963651033080853,-2.035640228461681,-0.044460012368889384,2.004449451658195,0.6618558202359659,0.06578282286972809
-0.03340349975384428,0.1801276332530953,-0.09651940046272559,-2.0359392460709533,-0.0444121467785868,2.0045061200527794,0.6618425882298258,0.06706983625662016
-0.03305857078346357,0.1804320925986114,-0.09664881097952066,-2.036232590576153,-0.044368905027942655,2.0046232660704772,0.6618610134426769,0.06842035135943542
-0.03273729829774273,0.18072852774016274,-0.09677565929503214,-2.0365010094431404,-0.044326719375751784,2.004651722672285,0.6618911292989459,0.06966483217991376
-0.03241109759251115,0.18096155851595958,-0.0968835658989395,-2.036790121632603,-0.04428970513021488,2.0047216205469254,0.6619574632269798,0.07094188451332772
-0.03209700092432061,0.1811570224242874,-0.0969756967740977,-2.0370724531119597,-0.04425619071474211,2.0048040722286955,0.6620535652166172,0.07227977850861106
-0.031787806700434185,0.18135664094095222,-0.0970691126202924,-2.037332920628318,-0.04422227204082342,2.004865871820578,0.6621552556341763,0.0735970712342009
-0.03148202511390771,0.18158493612096657,-0.09717511499001316,-2.037577773601086,-0.044186953969612475,2.0048996848439926,0.6622349006125927,0.0748903668764116
-0.0311745268986186,0.18174526673188032,-0.0972601475613132,-2.0378361609792845,-0.044158119006071125,2.0049110439830486,0.6623701769286524,0.07624761700970362
-0.03087485919110861,0.1819297576509066,-0.0973531299233028,-2.0380769527299303,-0.04412597671648751,2.004940812761265,0.6624881662689482,0.07756765468468946
-0.030582707533856644,0.18209666547818493,-0.09743763612092524,-2.038304029976603,-0.04409612469003066,2.0049632568532623,0.6626197196012015,0.07887393931424808
-0.030298927663723368,0.18224563942884253,-0.0975161586883597,-2.038541913135796,-0.044067862425954354,2.004981088743108,0.6627621178034812,0.08017213058785572
-0.03000920403093747,0.1823731278060425,-0.09758584127432628,-2.038785280295592,-0.044040369643232095,2.0050225300159408,0.6629167362456013,0.08147750966709816
-0.029727073774029552,0.18242883682865044,-0.09763371805661947,-2.0390235326567954,-0.044020265806548976,2.0050804714174886,0.6631261718696704,0.08286523722821953
-0.029446696231173564,0.18252194828831825,-0.0976921532756221,-2.039253869687079,-0.04399689474882815,2.0050914682391783,0.6633170637145249,0.0841827563413885
-0.029178433035441296,0.18263560258709807,-0.09775373125511155,-2.0394726173761843,-0.04397221199009168,2.0051126393242122,0.6634854990901774,0.0854483478036131
-0.028921691357079875,0.18269014963481495,-0.09779785375455718,-2.039670518659054,-0.04395236054757056,2.005121530788232,0.6637003729581081,0.08678015763270946
-0.028656438705483882,0.18277041359851728,-0.09784647365263051,-2.039894678309347,-0.0439299910454968,2.005162629328421,0.6638948929336785,0.08805143708285768
-0.028402748811589367,0.1827599229384158,-0.09786557792081152,-2.0401126875944304,-0.043916489027296765,2.005187501926009,0.6641607661466612,0.08930873709999965
-0.0281547964786943,0.1827739104852178,-0.0978883358415782,-2.0403106339019357,-0.043900482317878936,2.0052411836504107,0.6644020724091755,0.09053575777844386
-0.027910318643655136,0.18274183559341323,-0.09789177275206135,-2.0405066441501147,-0.04388804334966629,2.0053768274385195,0.6646564209716488,0.09173547045516528
-0.02767062468696951,0.182711613284218,-0.09789787249408996,-2.0406966931365536,-0.04387672304371402,2.005496636978479,0.6649117417783009,0.09289098095707743
-0.027434431003346433,0.18265383243845523,-0.097892670683629,-2.0408763954617553,-0.043868223991148814,2.0056313602846294,0.6651825552564194,0.09402164542218902
-0.027195340186496327,0.18248473220572203,-0.09783960757245361,-2.0410832566470893,-0.04386971268891788,2.005885031402949,0.6655157504504632,0.09507485703681853
-0.026968595693629752,0.1822881063225031,-0.09777625695219695,-2.0412853092013523,-0.04387436379997942,2.0061563385638888,0.6658631261815533,0.09615950822648844
-0.026987097136960386,0.18215480807084777,-0.0976607256707538,-2.0412367726442846,-0.04388690329807015,2.0062186473585566,0.6660030423946287,0.09580608891714598
-0.027000015670531462,0.1820387859741767,-0.09755057423792728,-2.041180041603557,-0.0438974247123317,2.006297750052777,0.6661343427853069,0.09544794376709087
-0.027013475483442104,0.1819272034985517,-0.09743762838013587,-2.0411193303850506,-0.04390655047243475,2.0063935976847445,0.6662614064046045,0.09509177950835243
-0.027026636303955655,0.18184855095285868,-0.09733728452744927,-2.0410441572536224,-0.0439124881520424,2.006479339599896,0.6663681398448146,0.09472446566134585
-0.02703656491355577,0.18180150193179742,-0.09724516913386981,-2.040962986840746,-0.04391514898541125,2.0065621731837546,0.6664578313464115,0.0943624719224469
-0.02705941205672695,0.1817651080012468,-0.09715795365996563,-2.040870254101473,-0.04391607193524939,2.0066320123042276,0.6665314610579982,0.09397319848027258
-0.027088177187344107,0.18174009265500685,-0.09707436087548962,-2.0407655628190122,-0.043914437789997145,2.0066907860564824,0.6665979767877892,0.09357837854241158
-0.02711616906176188,0.18174793050450797,-0.09699854758433692,-2.0406508940773245,-0.043909674384922846,2.0067545441206156,0.6666413246501983,0.09317594632220505
-0.027142397912045046,0.18173806467996112,-0.09691716092483318,-2.040541709336241,-0.04390607669864761,2.0068388661433856,0.6666936440340946,0.09276332666094134
-0.02716323458909783,0.18179408063933272,-0.09685799033083979,-2.040421862761471,-0.04389709317762738,2.0069101741180466,0.6667029870635197,0.09234182128719998
-0.027185246615573682,0.18183790682437534,-0.09679310703428659,-2.0403027455857963,-0.04388818451928232,2.0069880919365555,0.6667234911399401,0.09191938206469502
-0.027204742981880862,0.18189580825243815,-0.09672943130087612,-2.0401789818677383,-0.04387716687243109,2.0070791413115074,0.6667344308630573,0.09148754775765955
-0.027215547948506943,0.1819819917108686,-0.09667849690677925,-2.04005375935149,-0.0438640921062129,2.0071772509789247,0.6667231907718199,0.09106015630686287
-0.027231219274147834,0.18205466995169714,-0.0966205570982967,-2.0399315084611844,-0.04385178842554895,2.0072837918693827,0.6667196179720736,0.09063081226319691
-0.02724959184144524,0.18215392014663853,-0.09657249453705848,-2.0398000545353834,-0.04383722389209491,2.0074118172004347,0.6666866802363589,0.09017933883367896
-0.027262510375016317,0.18224196714970564,-0.09651717885617454,-2.03967466092552,-0.04382343258312868,2.007540459450246,0.6666673618235711,0.08975936157609615
-0.0272726451862696,0.18234711491532063,-0.09646788550942548,-2.039547709463269,-0.0438079713017728,2.0076774937536532,0.66663716692306,0.08932444273829615
-0.027271449216681214,0.18248396486381285,-0.09642757147835306,-2.039418857961399,-0.04378970160063131,2.0078150862216515,0.6665943723703459,0.08894147984988782
-0.02727875906528608,0.18261928012848666,-0.09638659173939426,-2.0392939506175995,-0.043770792358350526,2.007975720115684,0.666542535156327,0.0885139186084069
-0.027273588558832846,0.18277593846026352,-0.09635418879506455,-2.0391677645741515,-0.04374967359768548,2.0081588666482424,0.6664773789875015,0.08818537363431239
-0.027259989559806314,0.18297475674893732,-0.09633589730976805,-2.0390387960082297,-0.04372491651100724,2.008323877727756,0.6663963744481197,0.08789460708747165
-0.027243947071189722,0.1831530650845809,-0.09631108807981661,-2.0389146720930875,-0.04370196468426735,2.0085155338222456,0.6663240963930742,0.08764645800238685
-0.02721682124371527,0.18333800544672543,-0.09628569829066194,-2.0388020744846327,-0.043677196368187836,2.0087525579264307,0.6662444988412031,0.08749709879710948
-0.027176653161677836,0.18358838911169748,-0.09628531125119312,-2.0386839118312308,-0.043646601597046635,2.0089786929249,0.6661248969983669,0.08738880063898202
-0.027137000583773333,0.18380920818911076,-0.09627682734603656,-2.0385768252381613,-0.043617974110062185,2.009226948867445,0.6660216098871158,0.08727903096159079
-0.02709055881643822,0.1840468430163628,-0.09627935084337327,-2.0384639394720394,-0.04358772584616033,2.009483822087895,0.6658975736622935,0.0872740504348517
-0.027036095804794807,0.18427437085446793,-0.09628080611177603,-2.0383652724858083,-0.043558448123368704,2.0097462965389825,0.6657843348809525,0.08726539110995307
-0.0269809987230679,0.18448990623473502,-0.09628504032356494,-2.0382691268791646,-0.043529688022502525,2.010020374938158,0.6656677604325916,0.08725412832789542
-0.026921540476376456,0.18470719553936596,-0.09628720000380096,-2.038180959637932,-0.04350035950003846,2.010339987817171,0.6655414082114735,0.08726955098171812
-0.0268515195500014,0.18496184343294772,-0.09630728735223279,-2.038098420476136,-0.04346835944953766,2.010621645503958,0.6653993894215562,0.08724991185923564
-0.026784746299663768,0.1851807331935607,-0.09631567836791682,-2.038021014122787,-0.043438398872201814,2.0109687161639305,0.6652644292824652,0.08724071486383678
-0.026707580486006386,0.1854136543490848,-0.09632601232173436,-2.037946102134245,-0.04340663089599404,2.0113144942322174,0.665126552410838,0.08723980931352054
-0.026622573854487238,0.1856539639109918,-0.09634870831618604,-2.0378906948178,-0.043374737257438664,2.0116979728913376,0.6649695547370283,0.08727218273732457
-0.026528179892707542,0.18589539159968071,-0.09637455481191391,-2.037845436054197,-0.04334220782087775,2.0121113574217313,0.6648045261682136,0.08730399019218088
-0.026433033294893774,0.1861583706339909,-0.09641194282460205,-2.037795359654596,-0.043307810560571376,2.012531772867506,0.6646178078593459,0.087303254432549
-0.026329545840209304,0.18644364643177702,-0.09646073302004166,-2.037740222485964,-0.0432721711145906,2.012930165292818,0.664421454057357,0.08730863113755138
-0.02621063450186775,0.18671223802405165,-0.09650178242610484,-2.037710992492599,-0.04323736745690474,2.0134380656940483,0.664222847494466,0.08731737535779216
-0.026094996614770254,0.1870049022282206,-0.09655356056624374,-2.037671920113913,-0.04320056817419225,2.0138865558395422,0.6640107876015567,0.08731392294721163
-0.02596442457294196,0.18727946812535973,-0.0966069333089942,-2.0376516590279388,-0.04316635058430628,2.0143959153025994,0.6638024111703329,0.08733475060448415
-0.025835094896074013,0.1875226826244944,-0.0966441045795798,-2.0376452295099896,-0.04313406979877361,2.0149551570538913,0.6636098198742715,0.08735107880862303
-0.025690841374557915,0.18779923264857015,-0.0966989016275755,-2.03763690895735,-0.04309843623486017,2.0155473501008077,0.6633837059151033,0.08734977708004349
-0.025533597148892136,0.1880771638880825,-0.09675612154264604,-2.037642284898828,-0.04306305078724157,2.016184862195613,0.6631552048198215,0.08736607698573501
-0.025376837497111306,0.18835399892486737,-0.09681564821295074,-2.0376416455490043,-0.043028258893690385,2.0168132282250064,0.6629300631048322,0.0874047326648576
-0.025205040589773086,0.18863826621614424,-0.09688000513582634,-2.0376498760523734,-0.04299240288068502,2.0175146354770033,0.6626808840357972,0.08743784184829345
-0.025030681626894234,0.18893242125602253,-0.09695382130331993,-2.037659673413058,-0.04295629340405086,2.0181949695675785,0.6624287408076804,0.08747032846588698
-0.024854193631946405,0.18919840388580586,-0.09701475679729114,-2.0376832303023504,-0.0429223185831258,2.0189214844338337,0.6621908176387312,0.08748130826347084
-0.024668179120622146,0.18946011132495225,-0.09707694629914135,-2.037715630030055,-0.04288748818877024,2.019674497429646,0.6619564435562557,0.0875186056171191
-0.024478659181194,0.18971951673837104,-0.09713775794048254,-2.0377471742896853,-0.04285384650674967,2.0204506791521886,0.6617131928053839,0.0875191715860667
-0.02427743472042782,0.19000716033404838,-0.09720912801853318,-2.0377888490923026,-0.04281730229186615,2.021246308504184,0.6614551449723768,0.08753199078273033
-0.024072588843127848,0.1902800161549327,-0.09727679799926188,-2.037825544170234,-0.04278202592985994,2.0220746541351335,0.6612010651603268,0.08753787685978565
-0.023875460062697747,0.19055614962197204,-0.09734736303521738,-2.0378524959170434,-0.04274766930929152,2.0228770108393115,0.6609454202722818,0.08749910798687355
-0.023664422980761355,0.19088179856620935,-0.09743563899726612,-2.037883625950027,-0.04270928828519939,2.0237068547015333,0.6606505378224207,0.08744293556882204
-0.0234548989034551,0.19116247031254024,-0.09750869656740083,-2.037918844219914,-0.042674388910236,2.024556841450857,0.6603883243578509,0.08742754121344676
-0.023226726464140323,0.19143886686823416,-0.0975783791533674,-2.0379634996534013,-0.042639400234795795,2.0254815635012817,0.6601217713643855,0.08739536587877444
-0.02298859190745679,0.19172854940098455,-0.09765430081557137,-2.0380220767041846,-0.04260399553677501,2.0264521431794646,0.6598303510523318,0.08735826661425783
-0.02275304260399987,0.19201530507245268,-0.09772466459100308,-2.0380749806508955,-0.04256817855930741,2.027442444673216,0.6595460051999527,0.08730973477699927
-0.02251280479045401,0.19228410494324552,-0.09779578696379368,-2.038137519869603,-0.042533419819226655,2.028463905460482,0.6592628924377516,0.0872665796447431
-0.022272997422859136,0.19252954473391684,-0.09786862779182583,-2.0381919006243576,-0.04250205396253122,2.0294672699641483,0.6589925927472071,0.08727277700471953
-0.02201731252797021,0.1928234476471678,-0.09795716694071338,-2.0382408964327072,-0.04246671931458505,2.030492588941749,0.6586901694766425,0.08723253661254365
-0.02176268183903311,0.19309023050494217,-0.09803521731999587,-2.038293710330147,-0.042433334839327035,2.031540175748844,0.6584000217768877,0.08718394817839031
-0.021501743957029692,0.19338344281047487,-0.09812588518596194,-2.0383393923253235,-0.042397795923224346,2.0325997875755606,0.6580919073208864,0.08715760232387848
-0.021233826149066482,0.19371882603493173,-0.0982363849543104,-2.0383707384765577,-0.04235912774729961,2.03361823231556,0.6577646957759754,0.08710026966948442
-0.020962707060437808,0.1940646670334083,-0.09835430813967086,-2.03838402074403,-0.04231947726612998,2.034619305406692,0.6574346860648914,0.08704211636011627
-0.02095044321711555,0.19416618636799549,-0.09839010929053683,-2.038281355570166,-0.04231574429230604,2.0345695797962375,0.6573963337985876,0.0872061341611371
-0.02093427185246573,0.1942730222858107,-0.09842574014403652,-2.038185209963523,-0.042311486210289136,2.034506732421701,0.6573598153587025,0.08739191346819397
-0.02091948203889214,0.19439399921880976,-0.09846915049085951,-2.0380794921193726,-0.04230592926085805,2.0344413390332377,0.6573106498400691,0.08756665638077221
-0.020905367535732685,0.19449522257866056,-0.09850518386540676,-2.037981536522382,-0.04230239199945634,2.0343780020406386,0.6572746135700611,0.08774937945551192
-0.020890755571084958,0.194623368677497,-0.09855273553454615,-2.0378736214760194,-0.04229655484972677,2.034314430031369,0.6572147849831582,0.08792927268551354
-0.020875218276518632,0.19472579786034794,-0.09859098277485506,-2.0377663637893346,-0.04229308015213216,2.034286639310126,0.657166133252099,0.08811618393046566
-0.020862206952203633,0.19483170200584485,-0.0986292842006896,-2.0376545856292463,-0.04228980223642657,2.0342698943723794,0.6571118535709969,0.08829115323062292
-0.020847677468217172,0.19491604384369324,-0.09866276311474265,-2.0375442302476396,-0.04228859694735635,2.0342730279279815,0.6570648696734476,0.08847189541404599
-0.020835426512498232,0.194992887654886,-0.09869317667620262,-2.0374348023735243,-0.042288275037853124,2.0342611106243336,0.6570279402035031,0.0886510245859683
-0.02082045627247812,0.19507383126427935,-0.09872443398370462,-2.0373259688245975,-0.042287483632429915,2.0342476461276076,0.6569873430807216,0.08885437722884881
-0.020803063163033274,0.19515264824038148,-0.0987566201859318,-2.0372145238468113,-0.042287370268950374,2.0342196399744172,0.6569509353027754,0.08905580557730747
-0.020788479551112852,0.1952359048375297,-0.09879102799471001,-2.0370938488187487,-0.04228717723019512,2.034188441511458,0.656909690017208,0.08926065803789918
-0.020769622409930497,0.19534325597062682,-0.0988333855941778,-2.0369698329627317,-0.04228479873605834,2.0341440625302485,0.6568560584988917,0.08947043442833524
-0.020755951240325355,0.19542882555552993,-0.09886811851610983,-2.0368434578158148,-0.042284584842700715,2.0340926330489357,0.6568166628485913,0.08966133575436808
-0.020735663575174135,0.1955262560539438,-0.09890462407880904,-2.036712328067389,-0.042283202556877064,2.034046364142004,0.6567716234393995,0.08986120768822076
-0.020719827288210712,0.19560650905561888,-0.09893894673890412,-2.0365809371760775,-0.04228340040823286,2.0340060391983545,0.6567308445148611,0.09004998663070002
-0.02070018658074631,0.19571430963183423,-0.09898162945152572,-2.036441973141075,-0.04228157375895875,2.033931646629898,0.6566801297290811,0.09024459505333976
-0.020691221963874764,0.19579446397526384,-0.09901359117086098,-2.036303333283448,-0.04228183310465487,2.0338768681610357,0.6566361969392798,0.09037991822871616
-0.020676486278235134,0.19587551720492993,-0.09904576963229877,-2.03615988479475,-0.0422826143501436,2.0337964630827683,0.65660053217721,0.09054045532070909
-0.020673844319553897,0.19596236934702413,-0.09908016970028762,-2.036008674058892,-0.04228323784928107,2.0336903530562056,0.6565583225518881,0.09061969097337619
-0.020675586723523185,0.1960229674337964,-0.09910494022629217,-2.035863442594628,-0.04228609974240609,2.033584135313669,0.6565296294919782,0.09066958113610901
-0.020675883138399614,0.19609867119415264,-0.09913459519039325,-2.0357159598985892,-0.04228762587151273,2.0334661765299873,0.6564951029669959,0.09068107030574574
-0.02069254165445505,0.19617343222016329,-0.09916446689659687,-2.0355589860093874,-0.04229008457565863,2.0333218762945284,0.6564587109978981,0.09057616796130402
-0.02071636567795813,0.19624554043557357,-0.09919464049358619,-2.035394159823755,-0.04229316891787557,2.033148081466969,0.6564256942179414,0.09041899838454948
-0.020741499081958836,0.1963187667777658,-0.09922153973666926,-2.035230036022436,-0.04229614791761389,2.032969478590033,0.6563947009705842,0.09027244072556279
-0.020776081676716036,0.19640547641350545,-0.09925143466524101,-2.0350656420733038,-0.042297629663848826,2.0327840014754956,0.65635175623381,0.08999378591420115
-0.020812752063211575,0.19649317263169974,-0.09927972725041184,-2.034893756024825,-0.042299342414910006,2.0325649169771305,0.6563149374258046,0.08974801389869635
-0.02085392022326688,0.19662176817365443,-0.09932151203146579,-2.0347174845768485,-0.04229788312747761,2.032318785976978,0.6562534805275129,0.08945673797980275
-0.02089538479819861,0.19673154191477918,-0.09935509157578072,-2.0345472914546643,-0.042297524856103594,2.032074838673385,0.6562070894617799,0.08915872703043248
-0.02094049398735012,0.19684642396061372,-0.09938918975298387,-2.034373190194119,-0.042297087444187254,2.031824017132191,0.6561534026124941,0.08885004756639953
-0.020988961685927624,0.19698020454146914,-0.09943129964719162,-2.0341891474940557,-0.0422954265622653,2.0315283074070023,0.6560958346909174,0.08850135409776971
-0.02103647570185922,0.1971231384150986,-0.09947834816502153,-2.0340003411875562,-0.042292825619036585,2.031224959640035,0.6560303307274263,0.08817009247272661
-0.021091711969702016,0.19728284419045772,-0.09952838462755075,-2.0338123723392774,-0.04228874774217348,2.0308651687027917,0.6559591039608017,0.08779655296729622
-0.021144940348947077,0.19745493705663678,-0.0995848072413155,-2.033624547569832,-0.042283629274125524,2.0304872814819483,0.6558794352691126,0.08739845040953897
-0.02119974101579755,0.19763720268412638,-0.0996416478577066,-2.033428438267455,-0.042278233814179444,2.0300649565257287,0.6558036950762598,0.08702196786558092
-0.021258856452240602,0.19783188828851778,-0.09970090360038313,-2.0332348503446656,-0.04227136035113219,2.0296417404646343,0.6557191493548286,0.08661693218821531
-0.021318729679759046,0.19803480637539214,-0.09976398329301162,-2.0330402988946767,-0.04226378745680549,2.029188824171853,0.6556268572976641,0.08621206630153405
-0.021381247443479395,0.19823523608207524,-0.09982773643431585,-2.032839534044989,-0.042256695822533455,2.028738493062443,0.6555358299483744,0.0857985410899541
-0.02143996078669876,0.1984832300251015,-0.09990203253075078,-2.0326425512646833,-0.04224424188178577,2.028247905555912,0.6554251363916315,0.08535252926078074
-0.021503305934552453,0.19872852730941823,-0.09997790000742912,-2.0324368517149454,-0.04223256437392627,2.0277304771871805,0.6553193514823276,0.08490289523034256
-0.02157041168505582,0.19898897411542807,-0.1000597975590317,-2.0322315033573637,-0.042219862316883745,2.027186472350002,0.6552042472568711,0.08444774300266505
-0.02162933122992836,0.1992661380130312,-0.10014620025005135,-2.0320291626454337,-0.042205281206694485,2.0266316567459977,0.6550856018493652,0.08402318139660653
-0.021692959905055157,0.19957130989032013,-0.10024079269623126,-2.0318164122377764,-0.042188354755838875,2.026026018787078,0.6549545306869893,0.08355481379400204
-0.02176155288498201,0.1998643139173346,-0.10033298549770449,-2.0316135132203663,-0.04217212345839555,2.0254143781107086,0.6548330080690682,0.08307569278139276
-0.02182020179018476,0.20017528470705165,-0.10042542600443775,-2.0314220324505183,-0.04215382648585096,2.024815193317856,0.6547005773457268,0.08259122336222846
-0.02188851639787984,0.20050182157549817,-0.10052347084267955,-2.031213775501484,-0.04213430123070022,2.024170366329193,0.6545626135254331,0.08210799907474892
-0.021949967068045032,0.20085972080397643,-0.10063195026500077,-2.0309989449556665,-0.0421127750031889,2.023505396453427,0.6544081452673731,0.08161696441579219
-0.02201694136499451,0.20121510972820889,-0.1007423339215086,-2.030787437227949,-0.0420911295301307,2.022843080307562,0.6542514400572597,0.08111848726517423
-0.02208276093268623,0.20156679348722262,-0.10084994637541965,-2.0305772802392963,-0.04206938833979497,2.022165595794112,0.6541000624290687,0.08063229164071967
-0.02215353191757469,0.20193355003373853,-0.10096128988981015,-2.0303678976743744,-0.04204650816732988,2.0214722574477895,0.6539391441608472,0.08013347490873313
-0.022214054680300622,0.2023239735971396,-0.1010780984015004,-2.030164386321921,-0.042020751129204746,2.0207983079767526,0.6537657210935135,0.07965316536133382
-0.022279451534603343,0.20272865875802454,-0.10119947397892275,-2.029954805648603,-0.04199339844663174,2.0201080836013094,0.6535793347704628,0.07913108730560009
-0.022348951801804146,0.2031094138133697,-0.10131458725773956,-2.0297488809756876,-0.04196934186069972,2.019416008469589,0.6534048208925871,0.07864953262651603
-0.022426937267032872,0.20352799882483844,-0.1014443693324247,-2.0295334110800463,-0.04194157850288007,2.0186511663013804,0.6532170433908743,0.07814064164726181
-0.022509155021192908,0.203952612951308,-0.10157381081237728,-2.02931894973624,-0.041913214104725496,2.0178703136225193,0.6530314158925485,0.0776263739630052
-0.02259034176708709,0.20437495793813182,-0.10170476948704764,-2.0290914132382847,-0.04188524968714968,2.017068671760713,0.6528451718491339,0.07716360945298217
-0.022684779546718086,0.20480241122966544,-0.1018364170919725,-2.028858203636257,-0.04185806223719543,2.01623179698311,0.6526567303757868,0.07670387287682895
-0.02277967870254805,0.2052303358883719,-0.10196390789300222,-2.0286365203409167,-0.041829627788966234,2.0153965183603915,0.6524687789767412,0.07622347843408755
-0.022899994789651826,0.2056582934331601,-0.10209579546239775,-2.0283959266986673,-0.041802078324504215,2.014496570983943,0.6522810805192705,0.0757207565163624
-0.023025159193125744,0.20610144434775055,-0.1022313521659577,-2.0281512628293688,-0.04177285942238593,2.0135789483954287,0.6520861416092164,0.07526832093963348
-0.023160216120910484,0.20652677100599295,-0.1023607859051209,-2.0279007817771637,-0.041744775224529844,2.0126844945336444,0.6518878512232942,0.07480032121684499
-0.023301474563414287,0.20696447379302804,-0.10249779013629425,-2.027639692920835,-0.041714908760271355,2.0117464646642738,0.6516766450082003,0.074410255418144
-0.023474714882324697,0.2073579009519023,-0.10261664221637988,-2.027371129975014,-0.04169017413239566,2.0108058300268095,0.6514792083000936,0.07398708043600716
-0.023524218744209378,0.20738892348908852,-0.10265689432113728,-2.0273346960399685,-0.0416851556594924,2.010647996748096,0.6514288887355245,0.07404033811397837
-0.023571737915182304,0.20743500785174962,-0.10270001051796397,-2.0272933814344354,-0.041678803026770954,2.0105056941543333,0.6513677401097773,0.07410372663611198
-0.02362048914103292,0.2074862662912842,-0.10274553410028672,-2.0272467719317673,-0.04167205255240433,2.010359396277179,0.6512992087518109,0.07417503872351233
-0.023665523582085148,0.20754787288456572,-0.10279259035890602,-2.027201963414519,-0.041664041176694505,2.010250877329747,0.6512190420813961,0.07425455736065323
-0.02371754052661784,0.20755712483558522,-0.10281936574935907,-2.02716988786419,-0.041660560062299165,2.010175182377244,0.6511673313381647,0.07431211640262636
-0.023768699156769203,0.20756924883775058,-0.1028483782279419,-2.0271395772795726,-0.041656775219336,2.010102405548394,0.6511080323476844,0.07435926161596329
-0.023821677516509796,0.20756786762231402,-0.10287214245132753,-2.02711511989757,-0.041655080649210224,2.010037824925915,0.6510552624116079,0.07441065159640736
-0.023880774910308194,0.20757117815455084,-0.10289676590233394,-2.0270892577469395,-0.04165267381420355,2.0099872963418375,0.6509917424585954,0.07445397651934776
-0.02394134664592675,0.20758801582844416,-0.1029252442664498,-2.0270614145123473,-0.04164900661258708,2.009928679267363,0.6509176621948283,0.07448281263722911
-0.02400496243345022,0.2075781938520064,-0.10294515357672597,-2.0270375154358247,-0.04164730616039397,2.0098770441464637,0.6508607977670069,0.07449676377178799
-0.02407080262130727,0.20761079492112014,-0.10297849315657023,-2.0270039630774512,-0.04164197486845518,2.009827230404758,0.6507711932140764,0.07450794165850355
-0.024141975699419404,0.2076216802142035,-0.10300422354045748,-2.0269795237053025,-0.041638762190223666,2.009788579954883,0.6506930975028067,0.07451286558834785
-0.02421410246017745,0.20762148289771257,-0.10302462052046435,-2.0269571914860953,-0.041636033980447164,2.0097545417071596,0.6506233804812076,0.07451971381261407
-0.024284984278454488,0.20764523761081594,-0.10305248736221949,-2.026930302773776,-0.04163150692753304,2.0097236174303155,0.6505365266679048,0.07453740034222728
-0.024360812358886933,0.20766057348697267,-0.10307738948164344,-2.0269074482687968,-0.04162745364840606,2.00967193334761,0.650457118822215,0.07455146467057566
-0.024437400807915437,0.20769689068333239,-0.1031087241970392,-2.0268808837338526,-0.041621835739368056,2.009620856391302,0.6503654116924427,0.07456012399547429
-0.024517675111494348,0.20771954919370836,-0.1031348958059209,-2.026860766726712,-0.0416171044182974,2.0095778091712235,0.6502799806754991,0.07457099059926858
-0.024597781876230056,0.20774727216068503,-0.10316262331346726,-2.02684180235024,-0.04161186349630221,2.0095287494413343,0.6501939489223149,0.07458731880340752
-0.024680107886258,0.20780120533487453,-0.10320062284851612,-2.0268200104266585,-0.041604654220683476,2.00944477994357,0.6500937840586297,0.0746142306268669
-0.02476533102951298,0.20785470002797307,-0.10323523191781812,-2.026801622365521,-0.041597613920817275,2.0093603306201038,0.6499934927241571,0.07461816411105288
-0.02484216692052529,0.2079128426206359,-0.10327166781341296,-2.0267844769843233,-0.041589802535396826,2.0092911671725577,0.6498929958746547,0.07465212224791018
-0.02493031812725528,0.2079574799956968,-0.10330408623932143,-2.0267672595637087,-0.041583744540775514,2.009196494623941,0.6498013994068214,0.07466663935141671
-0.025015644371336843,0.20800683104248566,-0.10333856371520402,-2.02675530102052,-0.041577219723901174,2.00907331651171,0.6497127908113423,0.07468684444284679
-0.02510916197609057,0.20801924005736014,-0.10335875169389773,-2.0267465482313796,-0.04157405410220834,2.00895365385717,0.6496487175486345,0.07472759420707559
-0.025198746284310087,0.20804335651736358,-0.10338171861597759,-2.026745251521877,-0.041569759123587235,2.0088241107101235,0.6495818145020569,0.0747552417901669
-0.025291975206749372,0.2080475659358369,-0.10339930568944082,-2.026741289353953,-0.04156745335319205,2.008667589607818,0.6495318585410018,0.07479468982581616
-0.025388147657787654,0.20805043798698278,-0.10341787584315487,-2.0267331488998552,-0.041565456658698624,2.0085054868595975,0.6494820448595826,0.07479222786089401
-0.0254778247567511,0.20804197530192703,-0.10342920061801258,-2.0267331849195633,-0.041563941224259854,2.0083539500691714,0.6494444672268522,0.0748081032898748
-0.025568244181665954,0.20805949262151133,-0.10345087482826656,-2.026723315519462,-0.04156072854602834,2.008139409226428,0.6494038701040707,0.07483982584938897
-0.025658993529225873,0.20806887611685812,-0.10346978557671317,-2.026718110671599,-0.04155736293404612,2.007923203682272,0.6493738174831956,0.07488286778785563
-0.025752170901251873,0.20808310482826015,-0.1034913823790734,-2.026707412818204,-0.04155373423323402,2.007662815004131,0.6493480648690946,0.07493063556703494
-0.025853364362544835,0.20809162232345227,-0.10351353651826874,-2.026696282728309,-0.04155126376495345,2.007390724454291,0.6493225177700234,0.07495157641809691
-0.02595284635011649,0.20811004949130035,-0.10353877923242526,-2.0266723116123697,-0.041548248938077736,2.0070535734562696,0.6493140442272621,0.07496569734334008
-0.026053343880830002,0.2081182162016197,-0.10355923039795777,-2.026645440909904,-0.04154692921606119,2.0066752357868087,0.6493291574863662,0.07499393919382641
-0.026153542419146424,0.2081372353189406,-0.10358504593052814,-2.026618966424231,-0.04154417426961499,2.006273278942,0.6493431483172313,0.07502733136173612
-0.026260901309869158,0.20815128863790622,-0.10361360944332715,-2.0265891240958225,-0.04154198293216613,2.0058301745951965,0.6493623086415347,0.07506813772285964
-0.026366641517614507,0.20817132722376364,-0.10364255999559498,-2.026554311047655,-0.04153962582736511,2.0053408405109066,0.6493967561222749,0.0750955872168193
-0.026480284403717583,0.20820193320391345,-0.10367644917148497,-2.026507125229653,-0.041536709391433904,2.0048021333411667,0.6494293223500514,0.0751171506337237
-0.026592442637917834,0.2082314210572813,-0.10371580334467471,-2.026458966879524,-0.04153365071641987,2.0042194290923074,0.6494705992533156,0.07517289857506443
-0.02670332242186844,0.20828682314312555,-0.1037655224348395,-2.0264046851789668,-0.04152838198828819,2.003604517767279,0.6494988496654692,0.0752036589873677
-0.02681617658664814,0.20833262249307752,-0.10381226132109435,-2.026350349448847,-0.0415243923424351,2.002941349685984,0.649550354893671,0.07525026653020433
-0.026937897422514134,0.20837857531141135,-0.10386119085074273,-2.0262842532839356,-0.04152040804391595,2.0022350364609984,0.649602745417385,0.07527197143934566
-0.02705420546498442,0.20843739754976517,-0.103919680255271,-2.0262129342613058,-0.04151540454354772,2.0015073465113926,0.6496484329893627,0.07529882666591031
-0.02717350343142567,0.20850417821992015,-0.10397807677032675,-2.026141291061301,-0.041509310721789,2.0007294119561854,0.6496996852759895,0.07531249481599539
-0.027294811863985326,0.20854390460676217,-0.10402825256706473,-2.0260661899692893,-0.0415060060694137,1.9999438099821152,0.6497747773060565,0.07535969662622705
-0.027410460061165477,0.20862048532930036,-0.10409575225042715,-2.0259849835367043,-0.041499314415720426,1.9991105975476218,0.6498330171036917,0.07542854674870525
-0.027530701400169975,0.20867616146582646,-0.1041529024983933,-2.0259136284943664,-0.04149537022220583,1.9982866682715983,0.6499062594984918,0.07550200951810654
-0.027652174794052162,0.20876437289930266,-0.10422029381070445,-2.0258306030665074,-0.041488002665502455,1.99741901610257,0.649966823196847,0.07554926792523298
-0.027778076368436166,0.20882010384596517,-0.10428150797309323,-2.0257447500915386,-0.04148379752209156,1.9965402887729617,0.6500484917078629,0.07563164470555933
-0.02790103956926251,0.2088634805878895,-0.10433403696980165,-2.025668676467401,-0.04148092707323224,1.9956791583165292,0.650140878618118,0.07570589983148734
-0.028026173042488455,0.20889749575852162,-0.10438682915334886,-2.025587055808169,-0.04147907796515558,1.9947968861521466,0.6502422449542843,0.07581578270266814
-0.028158477178203373,0.20892031869930672,-0.10443589801720603,-2.025499347818218,-0.041477551836048926,1.99387503326357,0.6503629138943899,0.07593203272450966
-0.028284285961843455,0.20898709936946167,-0.10449955826903774,-2.025411189581912,-0.04147199595608463,1.9929466586623972,0.6504531666101062,0.07603608611552992
-0.028406764588784845,0.20906102728139947,-0.10456815714449162,-2.02531923126637,-0.0414655342377508,1.991986360963532,0.6505458380796332,0.07614220529320903
-0.028534320931435538,0.20912140612762625,-0.10463237473315844,-2.025217223452185,-0.041459812590434346,1.9909927202745925,0.6506543025887468,0.076266209089633
-0.02865780479143613,0.20919781145772806,-0.10470199539281001,-2.025121032820906,-0.041453484555449026,1.9900165491581325,0.6507502622987482,0.07640557894298489
-0.028779206014739708,0.20931284697194444,-0.10478197322864723,-2.0250154770654434,-0.04144392459183,1.9889888310520243,0.6508334326503656,0.07649415308328766
-0.02890531894581821,0.2094653726194389,-0.1048760547827283,-2.0248928659780536,-0.041431515568687426,1.9879135906167442,0.6508984860616763,0.0765414114904141
-0.029025823191930502,0.20963499902948127,-0.10497472662490959,-2.024771929807105,-0.04141681146981753,1.9868390650238357,0.6509562515938585,0.07659319764912148
-0.02913423886612573,0.20983203050770932,-0.10508298930512827,-2.0246482381284636,-0.041400074314583424,1.9857572245370694,0.6510000895305692,0.07665729363243967
-0.02924802609338602,0.21001838497137224,-0.1051846645735876,-2.024523105661486,-0.04138511675208475,1.984637340726826,0.6510680833876887,0.07669495886590394
-0.029363035065441346,0.21020272242201668,-0.10528528709469176,-2.0243911654696216,-0.04137119015556982,1.9835313816542879,0.6511311765017935,0.07667243330178858
-0.029459547749207362,0.21041635040953804,-0.10539598812356402,-2.0242602698493006,-0.04135366908118002,1.9824067779259196,0.6511837883493857,0.076683158413346
-0.029381211741168246,0.210296732767921,-0.10536634864104168,-2.024360368618941,-0.04136619788460287,1.9825879464015044,0.6512686344389372,0.07687439932074741
-0.02930082918172142,0.21019373355965176,-0.10534277793739047,-2.0244549203534876,-0.04137708826490631,1.9827524286935103,0.6513456551485134,0.07707234696017817
-0.029213291424909613,0.21010340645491163,-0.10532471867577527,-2.024549291989492,-0.04138695195709316,1.9829149231361811,0.651416447171806,0.07729480105504094
-0.029124310256525617,0.21000345469022466,-0.10530371791419703,-2.0246499310547583,-0.04139762309670505,1.9830609566195818,0.6514974359023393,0.0775162081073506
-0.02903085966730917,0.20992522966359534,-0.10529099205646218,-2.024741403104237,-0.04140642053050414,1.9831937606229266,0.6515695874865974,0.0777606500958285
-0.028935780085032687,0.20984571111774764,-0.10527551047770933,-2.0248331633113827,-0.04141570243275825,1.9833384525528355,0.6516456596652674,0.0780174868042593
-0.028846200931854495,0.2097154822337291,-0.10524264308601704,-2.024938340859907,-0.041429116754681666,1.9835241255145977,0.6517427259946593,0.07827169175708365
-0.028754662862971198,0.20956734139714434,-0.10520310313388226,-2.0250493716110465,-0.04144463685671089,1.9837003194706648,0.6518592688253234,0.07852569862077635
-0.028661861808962238,0.20939928255700221,-0.1051592205989073,-2.0251630858304615,-0.04146152908462928,1.9839070753862098,0.6519812024733038,0.07879167572771123
-0.028563622186350928,0.20924701999816234,-0.10511985094413881,-2.0252749090151854,-0.04147735398469313,1.9841264830324967,0.6520928603698013,0.07907117949249431
-0.028468083805396147,0.20903320565617733,-0.1050595656764752,-2.0254035353938775,-0.041498122494985065,1.9843883503571869,0.6522366260374708,0.07935614485762188
-0.02836596243666392,0.20880583128645402,-0.10499888562855342,-2.0255340167875517,-0.04151994656899687,1.9846598435729907,0.6523862409790611,0.07964976954764813
-0.02826271211388059,0.20857041078871139,-0.10493298054780253,-2.0256680281126496,-0.04154271337798242,1.9849540942363522,0.652540124309729,0.07995703408931204
-0.02816040000861918,0.20833271018929572,-0.10486685872494911,-2.025805551359316,-0.04156561921765042,1.985260898706843,0.6526915098423441,0.08024468780694083
-0.028054773211783072,0.20807266897829502,-0.10479603050215482,-2.0259465324979886,-0.041590960233194973,1.9856047868494076,0.6528511159761455,0.08053910485349375
-0.027947599902548196,0.2077769573305438,-0.10471112178348481,-2.0260979773619514,-0.04161935243748603,1.9859732831958068,0.653030815156308,0.08085234036755506
-0.027831884689830767,0.20749072783638484,-0.10463091946475568,-2.026249494265331,-0.04164681955300538,1.9863618245056958,0.6532012819689844,0.08118880890691621
-0.02771173614157019,0.2071911027448967,-0.10454397491847967,-2.0264161034265293,-0.0416757197540208,1.986777255639592,0.6533819612977498,0.08153959646065229
-0.027592690772154076,0.2068463031390112,-0.10444314339606235,-2.026585342026441,-0.041708247051648134,1.9872374182797024,0.6535845833081433,0.08188302641806922
-0.027467046949836534,0.20649607732962494,-0.10434132105260487,-2.026758164587338,-0.04174138073694434,1.9877316975064265,0.6537875056866571,0.08223344609198929
-0.027348393363561433,0.2061510365591394,-0.10424180546438154,-2.026925800310226,-0.04177469141899398,1.9882164977274552,0.6539846104089467,0.0825797624910391
-0.027222063920747105,0.20577416206144936,-0.10413230425786264,-2.0271027291178805,-0.041810708921484356,1.9887377451170765,0.6542004169989352,0.08293770955196256
-0.02709317757743347,0.20536530036817294,-0.10401260843173497,-2.0272891311088443,-0.04184965462404061,1.9892979269350488,0.6544303962215456,0.08328747836159284
-0.026956605067497943,0.20494903930648634,-0.10389074518458193,-2.027483403406093,-0.041889279438007326,1.9898803374130707,0.6546671732489833,0.08363917146564509
-0.026820341860042164,0.20453031178866304,-0.10377271362817019,-2.0276648526871517,-0.041929378025761174,1.9904676342793592,0.6548998004537068,0.08397128204410959
-0.026681898070104123,0.20409017543157307,-0.1036495189652444,-2.0278495257321123,-0.041971793078578096,1.9910657321201122,0.6551456912822673,0.08428949808490999
-0.026549800136042367,0.203613108004596,-0.10351330429458744,-2.02804314967461,-0.04201817050584501,1.9916758941499317,0.65541055272895,0.08459831904117981
-0.0264148772393322,0.20312031006848033,-0.1033776082568187,-2.028233946069998,-0.042065961768205824,1.992296396913237,0.6556813503982202,0.08491039431889852
-0.02627711906989094,0.20260329701411575,-0.10323144667181305,-2.028434377737383,-0.04211598714668702,1.9929778179559117,0.6559571041414747,0.0852211112711429
-0.026134391440608303,0.20208349960482352,-0.1030842323394522,-2.0286369165577094,-0.042166501271490395,1.9936715773737679,0.6562328895024261,0.08553819537404805
-0.025995174394470872,0.20153443358270892,-0.10293031448349137,-2.028843183417855,-0.04222001738956802,1.994389024513501,0.6565218989650935,0.08584172452065769
-0.025845023505674126,0.2009743068750746,-0.10277299842099429,-2.029053664583883,-0.04227381424267754,1.9951363677321463,0.6568159119282907,0.08617329742862195
-0.02569113521191368,0.2004033606465205,-0.10261038765856373,-2.029272628391239,-0.042328972527008325,1.9959160649123795,0.6571077432704038,0.08650450245677027
-0.02552942156541545,0.19985045791485992,-0.10245838951836825,-2.0294889807697363,-0.0423818089989421,1.9967222210527245,0.6573757348690766,0.08685715770803343
-0.0253695018732998,0.19925272049164747,-0.10228933067838712,-2.0297150224497926,-0.04243882708601744,1.9975607017775734,0.6576710915843909,0.08720457774653112
-0.02520677268365971,0.1986700558559372,-0.10212554331597135,-2.029937354099884,-0.042494763942169986,1.998375093293734,0.6579578799038531,0.08753889560389133
-0.025042332020298316,0.19807578243334342,-0.10195878349043502,-2.030167790184365,-0.0425517472715747,1.9992069347976518,0.6582472845877314,0.08790156850552744
-0.02486589557576378,0.19747186242674827,-0.10178936857414259,-2.030414020910979,-0.04260957654920883,2.000112845722105,0.6585320968011393,0.08827887170445953
-0.024692418124952226,0.1968485615559322,-0.10160771546984602,-2.030662520879222,-0.04266915814817529,2.0010359324481994,0.6588268843979098,0.0886500907372047
-0.024521335190838104,0.1962210074185337,-0.10142593851291944,-2.0309149650055347,-0.04272904561464316,2.001965893411896,0.6591191821010518,0.08901876290968558
-0.024337508994558107,0.19561435786714726,-0.10125056318880715,-2.031174135812391,-0.04278700590195883,2.0029291092344153,0.6593893790340813,0.08937939832311026
-0.024146202833309382,0.1950112161644886,-0.10107775780676784,-2.03143842141784,-0.042844335738602905,2.0039377909902427,0.6596530469127072,0.08974354274401014
-0.02396633570877024,0.19436944427771535,-0.10088940891966067,-2.0317093526594885,-0.04290513225184067,2.0049598295268227,0.6599399300852601,0.09011674266807201
-0.02376609586089794,0.1937468997867812,-0.10070802674299227,-2.0319850475075723,-0.042964299432426745,2.0060184621174137,0.660211842278345,0.09052293858178023
-0.0235803494117228,0.1931320835250754,-0.10053175348731233,-2.0322518004630465,-0.0430228281413403,2.0070523004493066,0.6604688862494764,0.0908926294983668
-0.02338580330699865,0.19249172573982054,-0.10034455023703287,-2.032534041893132,-0.043083202215196764,2.0081653785684774,0.6607331390554945,0.09123475772720424
-0.023195943134842776,0.19184286142140083,-0.10015533438151553,-2.0328096647017997,-0.043143229781813876,2.0092864472544325,0.660996759507575,0.0915463802297648
-0.02299691472168285,0.19118614829145272,-0.0999629989878795,-2.033098110526657,-0.04320474871986702,2.010420118709323,0.6612701498279885,0.09191615604169356
-0.022795494369346154,0.19054180032827,-0.0997745262481423,-2.0333843411394477,-0.04326492761603465,2.0115660893699507,0.6615285770733581,0.09227014131998362
-0.022597489231890085,0.18990766897450692,-0.09959179717412242,-2.0336592795736554,-0.04332403169808022,2.0126708929438606,0.661785162587885,0.0926319935666457
-0.022396589538727644,0.18929315964956483,-0.09941785389604477,-2.0339351365104275,-0.04338120164943947,2.01376000915504,0.6620299072749339,0.09295629377363301
-0.022185591119601226,0.18868448212313266,-0.0992458535561006,-2.034223951537296,-0.043438220805981594,2.0148678679456613,0.6622661626103733,0.09330560980810523
-0.02196662558410047,0.18805705953006144,-0.09906687102413891,-2.0345115328891517,-0.0434963126377122,2.0160014120998557,0.6625163692545566,0.09365625586960435
-0.021738316536190464,0.18740663860376877,-0.09887743842651904,-2.0348160975335174,-0.04355627336265505,2.017181704986683,0.6627791360288217,0.09402283395697902
-0.02150717737059071,0.1867783828966247,-0.09869909063928621,-2.035117042197189,-0.04361539883403638,2.0183363908488277,0.6630253667476236,0.09436637710818549
-0.021273202932259875,0.18614493118855263,-0.09851928758365061,-2.035425442940499,-0.04367409491450228,2.0194871989359156,0.6632830825948135,0.09469806320993929
-0.021020438368283958,0.18551967907688174,-0.09833905878459931,-2.035740102108144,-0.043730842426480225,2.0206955175606556,0.6635318348249408,0.09504876586833316
-0.020756420349086317,0.18487826893700854,-0.0981526915395725,-2.0360758688249097,-0.04378928343911716,2.021904511858322,0.6637979688839226,0.09544174640711439
-0.020469225264072414,0.18427842680455941,-0.09798151946409162,-2.036423377966614,-0.04384430643589925,2.0231278225881444,0.6640429586081223,0.09581930429207294
-0.020172763992269204,0.18366467385949925,-0.09780603576892806,-2.0367809366069616,-0.043899328897947947,2.0243615425979806,0.6643041682108165,0.09620390849042937
-0.019853445267212156,0.18307793134964293,-0.09764335533939311,-2.037159296628909,-0.04395132797738663,2.0255598730142403,0.664561899866855,0.09665011840873444
-0.019496855593344704,0.18254915604001304,-0.09749724019912372,-2.0375701374229056,-0.04399666053560155,2.026736532935042,0.6648191256397435,0.09714324715279737
-0.01910588694885255,0.1820949773259847,-0.09737691736905657,-2.0380058588304784,-0.04403481643693477,2.02791043140997,0.6650479587208425,0.09759919173700154
-0.018987880320264276,0.1823769645155885,-0.09741408863964215,-2.038087497499564,-0.04400131004246291,2.02802291626371,0.6649641718241361,0.09735503273299748
-0.01887727117598346,0.1826218233188143,-0.09744105754982962,-2.0381795908890123,-0.04397177885604249,2.028121495964467,0.6649073232051633,0.09709123460651092
-0.018772912519314348,0.1828347935846992,-0.0974551844904416,-2.038285110624767,-0.043945360352708907,2.0282275178597784,0.6648742669030854,0.09679155404874515
-0.018670920026615353,0.18303644007640973,-0.09746600611398984,-2.0383884961927983,-0.04392003110129902,2.0283200948430866,0.6648530751417581,0.09650169305222062
-0.018566661893252154,0.18325091214003122,-0.09748307455456486,-2.038497401781142,-0.04389404894041499,2.028378486693252,0.664830587054859,0.09619717345995268
-0.0184626486243521,0.1834660528873164,-0.09750576280822716,-2.0386098913304713,-0.043867958763385353,2.0283914419871927,0.6648149521037566,0.09589333303042188
-0.01835027903345735,0.18373736306235505,-0.09755047360766539,-2.0387061720110213,-0.043836492376811836,2.0283500105067214,0.6647780226338121,0.09556713682746001
-0.01822986757808898,0.18401881311262244,-0.09760006884520014,-2.0388065859531097,-0.04380393299518085,2.028300098841403,0.6647384688950273,0.0952513544531344
-0.01810938652966267,0.18431104979772772,-0.09765100323929703,-2.038904523540246,-0.04377072498194287,2.028228849620909,0.6647022192055655,0.09494607080278716
-0.01798851369809534,0.18460863595214283,-0.09770357093995233,-2.039001038348901,-0.04373702661818254,2.028131670227811,0.6646699138237883,0.09464322081891471
-0.017863491058257967,0.18491559463987747,-0.09776033414844965,-2.039096553610647,-0.043702697803750606,2.0279994341814196,0.6646421455815119,0.09433799376546226
-0.01773265353180122,0.18527567531178332,-0.09782948261994925,-2.0391818842998437,-0.043663187422730225,2.0278471825486215,0.6645911146187632,0.09403367226232598
-0.017608837171634893,0.18564134661759907,-0.09790291174797401,-2.0392625864565113,-0.04362330058940042,2.027669372852947,0.664535815266937,0.0936968641415962
-0.017478120788649378,0.18598307685584775,-0.0979699005392376,-2.0393511589194637,-0.04358518746673872,2.027487313272488,0.6645012729331061,0.09338320415082418
-0.017345770257562492,0.18633802729898924,-0.09803674225550303,-2.039439263126207,-0.04354543912935798,2.027280204831938,0.6644673787620612,0.09307625089208144
-0.01720706356051666,0.18673565291430952,-0.09811776509790607,-2.039515759981919,-0.04350147281496489,2.0270498395334062,0.6644149724294985,0.09276010063793988
-0.01708065421456172,0.18711395247554524,-0.09819064462988511,-2.039588726906208,-0.043459154014158896,2.0267981758491445,0.6643807857947576,0.09241321826994248
-0.016958098262000395,0.18749140796068084,-0.09826699977629416,-2.039645764114457,-0.043417165678590434,2.026503474737165,0.6643458798574127,0.09204075410551249
-0.016827090619179776,0.18789837322323882,-0.09834809228580159,-2.0397078710966636,-0.04337151121087229,2.0262171265093367,0.6642999788659812,0.09168045827345644
-0.016705715171082842,0.1882858151152213,-0.09842254319802404,-2.039761828619845,-0.043327402122662985,2.02589162842121,0.6642706771654067,0.09132856708027254
-0.016585468677037012,0.18866034373907467,-0.0984888507998225,-2.039819757315877,-0.04328378926704336,2.0255838936763997,0.6642496355881394,0.09093071920854173
-0.01646458811290769,0.1890821625485893,-0.09856807003830084,-2.0398667180107024,-0.04323529857340312,2.0252669149425646,0.6641997665757507,0.09053754058062885
-0.016351672087632035,0.18950435406703128,-0.09864456451891868,-2.039896029048412,-0.043186996105917586,2.024948721955934,0.6641476685157326,0.09013785330981827
-0.0162376399959086,0.18997209280879793,-0.09873606064934802,-2.0399110312569597,-0.0431343131024679,2.0245958640104593,0.6640686637956779,0.08971572537023453
-0.016128605716753865,0.19042897914356302,-0.0988188406509395,-2.039923872283004,-0.04308244075484362,2.024236308089886,0.6640031835454594,0.08934391207009434
-0.01602061791098897,0.19090193581031223,-0.09890195350647418,-2.0399412427873793,-0.04302821076768492,2.023924108028344,0.6639166301002769,0.08899490731854331
-0.015900258006033893,0.19143227868984233,-0.09900036216181667,-2.0399398920483143,-0.04296760836266919,2.0236135922529375,0.6638013835951846,0.08869454759804041
-0.015787223414807674,0.19197003189980985,-0.09909213696066356,-2.03993487630392,-0.04290630278324027,2.023315189628404,0.6636856707290635,0.08845072817540489
-0.01567769940672666,0.19252175073252484,-0.09918670618447535,-2.0399268078892385,-0.04284332937035528,2.023015670674687,0.6635580142779495,0.08814346363374104
-0.015577954512047212,0.19306351604447475,-0.09927317080181002,-2.0399036832364463,-0.04278146873766333,2.022730722754518,0.6634370528741478,0.08785728143537602
-0.015465698332061701,0.19363904440042948,-0.09936338970199225,-2.039883422150472,-0.04271609276763882,2.0224707551479115,0.6632975714044044,0.08758227712372657
-0.015356225874393985,0.19423075270864104,-0.09945332219296756,-2.0398642776754583,-0.0426485564747023,2.0222430533716413,0.663149118413174,0.08738537652684891
-0.015255991250788258,0.19480172086124967,-0.09952829173807823,-2.039834543406175,-0.042582347390049846,2.022071099507998,0.6630102772017922,0.08718881551133983
-0.015160950331321744,0.1953524311874554,-0.09958699788470904,-2.0398172359362894,-0.04251735963646942,2.0219721085280677,0.6628778069563297,0.08700430963441513
-0.015063986581439422,0.1959456303313763,-0.09965925815353796,-2.039786006849108,-0.042449018035041454,2.0218495179575124,0.662718516999497,0.08678878865916073
-0.014963996822296839,0.19651073379939316,-0.09971477509494568,-2.0397635845806295,-0.04238203733010137,2.0218532586395117,0.6625671156580335,0.08663054374140566
-0.014868589894895947,0.19707850104003768,-0.0997651057074712,-2.039731653109134,-0.04231466626978361,2.0219063626145997,0.6624043714678177,0.08648820255107875
-0.014776662620392293,0.1976199813392785,-0.09980068237544525,-2.039708330347946,-0.04224888978444695,2.0219594372126033,0.66226670011122,0.0863912803687985
-0.01469398864507462,0.1981572302959914,-0.09983266731714863,-2.0396724817331617,-0.04218390684346708,2.022056753698759,0.662120073041984,0.08624811852349756
-0.014602156738835557,0.1986810507692933,-0.09985506916160401,-2.039645683070113,-0.04211952387335534,2.02220972996629,0.6619857531612545,0.08616868478169881
-0.014528223136091607,0.19918463534024686,-0.09986642489961922,-2.039601937134263,-0.04205695044104911,2.022380792725059,0.6618588476304412,0.08607133812270784
-0.014457240794508653,0.1996691679077977,-0.0998669899772437,-2.0395631258984634,-0.041995836830908656,2.0225578875783614,0.6617460356880079,0.08602382502955502
-0.014380489961678278,0.2001501378164844,-0.09986197394572778,-2.0395295195105274,-0.04193465905276092,2.0227947060429603,0.6616254695054172,0.0859555974729192
-0.014322794739121434,0.20059950420053935,-0.09984235104465854,-2.0394827299093174,-0.04187719232436797,2.023051951373138,0.6615273123654832,0.08588663415665149
-0.014259838796888098,0.20103555172145604,-0.09981549824631172,-2.039444512998706,-0.041820167285758506,2.0233551914241317,0.6614339611154736,0.08583156537804787
-0.014201638380280993,0.2014716102044,-0.09978196514673306,-2.039403504560694,-0.04176306631500709,2.023645329295766,0.6613493363498002,0.08581079431767014
-0.01414008718680988,0.20189118179832338,-0.09974806048926431,-2.039368520418912,-0.04170758986430684,2.0239459058244984,0.6612725685817991,0.08582545291341354
-0.014085724698472388,0.20229722625059035,-0.09970673241478357,-2.039332491705586,-0.0416530663085148,2.0242565293158785,0.6611994684666349,0.08582760359541453
-0.014034107269642718,0.20272507417510585,-0.09966698346133564,-2.039290033474311,-0.04159687919713383,2.0245756231997447,0.6611194203625834,0.08579879577598054
-0.013985082826601655,0.20310417396433258,-0.09961188452255423,-2.039258165037305,-0.041545093476319385,2.024931888886936,0.6610607458216163,0.08579098540450336
-0.0139387750903411,0.20345604407780998,-0.09954333209183662,-2.0392339958129697,-0.041495987839275966,2.025323113303809,0.661016307148665,0.08581962343325306
-0.013897604352765134,0.20379539555614015,-0.0994665047572756,-2.0391999301737513,-0.04144819818111534,2.0257501777628764,0.6609778442204223,0.08584628057068605
-0.01386040815205401,0.2041516833666091,-0.09939362522529656,-2.039170321973448,-0.04139831611118375,2.026175254372609,0.6609302516822082,0.08587155108419736
-0.013840654033680361,0.20448435897032924,-0.09931056655528753,-2.0391300609443848,-0.041351126958624654,2.0266058734588124,0.6608901051116072,0.08589410494676009
-0.01381383235364433,0.20479429932948248,-0.0992101298131284,-2.0391045679957656,-0.04130406935048049,2.0271466859862217,0.6608615148092122,0.08593816562933243
-0.01378278096219766,0.2051070240435634,-0.09911688426429999,-2.039079120071782,-0.04125699035300057,2.027655624377745,0.6608263243125955,0.08598488636595863
-0.013772465724497852,0.20534972332741616,-0.09900302499336215,-2.0390518081278888,-0.04121692384925036,2.028163025368551,0.6608372245135915,0.08607917679263244
-0.013778930146324721,0.2055451543496622,-0.09886627620823824,-2.0390192823312043,-0.04118047856004474,2.028749431129965,0.6608608824552747,0.08616019524748447
-0.013811056363888536,0.20565721915448723,-0.09869741088799153,-2.0389842621697136,-0.04115132489540053,2.02935604832501,0.6609292794380295,0.08629492415546586
-0.013849384096171428,0.20576532666746628,-0.0985259214401462,-2.0389481704218984,-0.0411231455150003,2.0299941381691298,0.6609895980992339,0.0864135795453348
-0.013909860463525398,0.20585121415116034,-0.09834215510034988,-2.038891979676796,-0.041097491145686824,2.0306801909986785,0.6610437987360938,0.08650311583284859
-0.0140031538239813,0.20583380645184876,-0.09812126393470422,-2.038825739433051,-0.04108112509542819,2.0314470308085832,0.6611336957527203,0.08660767859592172
-0.014126570668444614,0.20573964263756261,-0.09787859018775329,-2.0387455055325927,-0.04107198864065727,2.032241563416118,0.6612484521835111,0.08675913188630535
-0.014550302178104737,0.2049531171806324,-0.09765110386955891,-2.038584587485321,-0.04115379964154824,2.031929990065696,0.6615705574703776,0.08616203464656425
-0.014964102500644085,0.20418536967642298,-0.09742824654341165,-2.0384177802157266,-0.04123314872989296,2.031662599849258,0.6618732020648204,0.0855808411342514
-0.015380781913765813,0.20346991104231196,-0.09722352588677333,-2.0382234538889152,-0.04130737079445542,2.0313805406756593,0.6621367039505377,0.08499848738559584
-0.015794332216800693,0.20276419765044779,-0.09702306266429205,-2.0380259037982023,-0.04138082925973116,2.0311134050606143,0.6623873611469014,0.08440571980830414
-0.016210653354550037,0.20206721003229394,-0.09682434886020984,-2.0378141889571615,-0.04145317441008047,2.0308759403001724,0.6626214427656809,0.08381281073877545
-0.016629987613956326,0.20139210262057955,-0.09662839851793502,-2.0375790883204425,-0.04152293252026931,2.03069713178365,0.6628253769104945,0.0832008851126067
-0.01706006497949274,0.20070583586509996,-0.096425287945487,-2.037344266836464,-0.04159392639933183,2.03054299022513,0.66302312979557,0.08258380916901459
-0.017493405486190567,0.20001226839945568,-0.09621885657439651,-2.037101196839262,-0.04166521759016144,2.030414974686439,0.6632213964682195,0.08197980710811253
-0.017932408805788568,0.19933454106322276,-0.0960181069427083,-2.036846384417122,-0.04173538851453049,2.030283424105335,0.6633993013440846,0.0813413375383003
-0.018376270751839372,0.19867558071768343,-0.09582642951616926,-2.0365817836392246,-0.04180403972659363,2.030133130944788,0.663557887807162,0.08068770000069186
-0.01882177457855354,0.19802878822241854,-0.09563654795276556,-2.0363093575796776,-0.04187159259626536,2.030011000615212,0.6636999461192004,0.08003428885066238
-0.019282104304130594,0.19732681288185488,-0.09543048813956513,-2.0360386334513527,-0.04194480561891323,2.029905517299769,0.663868096935581,0.07937595377078865
-0.01973171669878417,0.19666345676337857,-0.09523872556434296,-2.0357618670169435,-0.04201448244962617,2.0297827896361564,0.6640128111341564,0.07873315453852714
-0.020185697990964268,0.1960300817894974,-0.095055686858748,-2.035465721979416,-0.04208192944208588,2.0296589260586377,0.6641349186794696,0.07807487605554814
-0.0206482882021642,0.19540185896843518,-0.09487779577808839,-2.03516122036954,-0.04214910853311516,2.0295493789132744,0.6642401898011994,0.07740092023272005
-0.02112068072445168,0.19474459773712335,-0.09469217938963109,-2.0348570069173313,-0.04221965270139327,2.02943771661788,0.6643581870459194,0.07672653993318124
-0.021584889618628988,0.19412906894364473,-0.09452039579178947,-2.0345449141539103,-0.042286439298111315,2.029326357885684,0.6644426062965633,0.07604604716900809
-0.022047222077762458,0.1935089909088473,-0.09434783037422083,-2.034235351775004,-0.04235352160239628,2.0292291197384187,0.6645304876850143,0.07537738315584025
-0.02252000896071162,0.19291116578941667,-0.09418470097890205,-2.033898873668997,-0.04242013066762749,2.0291057751560464,0.6645973749227435,0.07471369966941144
-0.022990025008946317,0.19235174065152788,-0.09403853165310702,-2.033556164153437,-0.04248369282197934,2.028985054926491,0.664634122590931,0.07401549207717778
-0.023448591710388777,0.1918189532399156,-0.09390326909954337,-2.0332162101455693,-0.04254515347409254,2.028855932850978,0.6646577172972206,0.07335732678798829
-0.023916566362257096,0.1912617424315362,-0.09376402778024023,-2.0328722399402155,-0.04260954606940537,2.0287024277959396,0.6646917142257803,0.07268088070179063
-0.02438027779494614,0.1907351485653339,-0.09363707883446687,-2.0325309351932828,-0.04267090030957314,2.028527986672537,0.664708123810456,0.07200992451438493
-0.024854698825996672,0.19019463292449326,-0.09350927066107272,-2.0321896664660586,-0.042734460859724814,2.028340257314911,0.6647286674089975,0.07134326969098115
-0.025317415335709168,0.18967827759176514,-0.09338940453757877,-2.031852314882123,-0.042795688902811595,2.0281968579766882,0.6647289519682693,0.070687651262056
-0.025779997814347106,0.18920452069702492,-0.0932858637388797,-2.0315053190212633,-0.042853883938087256,2.0279889759395986,0.6647127953251686,0.07001960981473054
-0.02624415258059046,0.1886968692139526,-0.09317733013103285,-2.0311661574469806,-0.04291578253685019,2.0277734166912853,0.6647128901782592,0.06936093515348823
-0.02670580715178913,0.18824916905804334,-0.0930893870229273,-2.030820395261134,-0.04297271078871532,2.0275288916383785,0.6646779526232175,0.06866869853365193
-0.027173890059525366,0.18779474917941497,-0.09300688568975335,-2.030463998256382,-0.04303058765762152,2.0272294020617454,0.6646473941191924,0.06798602678903043
-0.027628188386747212,0.18737249188880936,-0.09294102705373873,-2.0301179569177954,-0.043085725622083335,2.0268857489358507,0.6646043940514487,0.06730250609098754
-0.02809523513117627,0.18693802289982017,-0.09287225788091857,-2.029767106948137,-0.043141935192266855,2.026529189477822,0.6645671642133839,0.06661782515660197
-0.0285684473050351,0.18650731388618608,-0.0928101922316984,-2.0294080084652557,-0.04319922278497279,2.026123668213516,0.6645218639581929,0.0658849802647738
-0.029031478272268676,0.18615404063321758,-0.09278446958860054,-2.029046172484536,-0.04324982460605279,2.025588633179247,0.6644436180628631,0.06515213537294562
-0.029495246410412342,0.18584843027483766,-0.0927829678754615,-2.0286628507477564,-0.04329733566811511,2.024939477966909,0.6643484883174045,0.06441473443108914
-0.02996751521170792,0.18552965452170134,-0.09277792862157745,-2.0282793309025804,-0.04334605041504747,2.0242680940945212,0.6642647409428192,0.06366810819538637
-0.03044404723218277,0.1852472617370884,-0.09279289930823147,-2.0278896877069768,-0.043392238011959496,2.023466902681333,0.6641656826985245,0.06286089498384068
-0.03090925878189862,0.18500951728956358,-0.09283195159063552,-2.0275003506788947,-0.043434364308743624,2.0225857664308555,0.6640578663521967,0.06204824847039786
-0.03137704269723776,0.18478462033800427,-0.09287536193745852,-2.027102224841963,-0.04347591202399538,2.021715773887487,0.6639337036565869,0.061199832719465275
-0.03183462478578633,0.18463779494469246,-0.09295496821540566,-2.0266978675954785,-0.04351034457670576,2.0207012362996286,0.663779093118891,0.060357444537824934
-0.032306687385428745,0.18451624798627514,-0.09304949099448119,-2.026276527056484,-0.043543161165099285,2.0196001440306346,0.6636090136230013,0.059449800136523734
-0.03277448676589187,0.18440691272624138,-0.09315355816685786,-2.025863074833629,-0.04357547029150185,2.018407150451259,0.663450608961681,0.058543372568459984
-0.03323122342766245,0.18435061175416062,-0.09328002718368988,-2.025446074669496,-0.043602867891679956,2.0171945721493727,0.6632539152694507,0.05762378622236397
-0.033684392800833185,0.18434986633630596,-0.09342837167129969,-2.0250187908786157,-0.043625340062565375,2.015912056803401,0.6630345912106854,0.05669058832307766
-0.0341356341885468,0.18437688773353708,-0.09359272411133995,-2.024596693925745,-0.04364499525793088,2.014533351092818,0.6628068410357043,0.055724507627934516
-0.03457899867310933,0.18443368199684518,-0.09376838584465916,-2.0241720215637233,-0.04366254734685754,2.0131227810387102,0.662567028709367,0.05476985950553337
-0.03502224974676263,0.18449981590739098,-0.09395629350677187,-2.0237408836640447,-0.04367944385264308,2.011679230311895,0.6623196044225084,0.053817362065133156
-0.035461747950328235,0.18465498340345854,-0.09416873173041848,-2.0232882239885974,-0.04368894285665518,2.010204226520727,0.6620200030313893,0.052800315866256664
-0.035906968249769286,0.18481409722934483,-0.09438637950531542,-2.022835654362421,-0.04369850121607402,2.008673347516236,0.6617260612080101,0.051741472860598325
-0.03634722939945162,0.18493633479548044,-0.0945991892868521,-2.0223983390827516,-0.04371117493224666,2.0071387082450234,0.6614495170223338,0.050742396175808835
-0.03676765910514036,0.1851652219249676,-0.09484556313112495,-2.0219465799000145,-0.043713566794718293,2.005599172793183,0.6611122984763633,0.049705342974633915
-0.03719672866009692,0.18538399110328058,-0.09509240916354977,-2.021488481248599,-0.043718155876706126,2.0040146316490133,0.6607876479648989,0.04864899023234509
-0.03761671503223135,0.18565187016378237,-0.09536063525623227,-2.0210345428735033,-0.04371725431620374,2.0023722176498246,0.6604346363793416,0.04756827252686119
-0.03804544435446018,0.18590438046204563,-0.095626028220003,-2.020570591019473,-0.04371886225951968,2.0007057536113924,0.6600886281136412,0.04647374517905528
-0.03846147680989509,0.1862288893554464,-0.09592596832676072,-2.0200948607207962,-0.04371395928902953,1.9989661798038283,0.6597071447920524,0.04536996423895573
-0.03887790620351235,0.18657166098628616,-0.09624004311491978,-2.0196215617524365,-0.043708398061731296,1.997116422347419,0.6593275743411241,0.0442580899429052
-0.03930027935978221,0.18691380778157127,-0.09654990691365807,-2.019130487057982,-0.04370328601048407,1.995300996909571,0.6589466917557757,0.04315572392517475
