jkw0701/act-for-franka/real/actions_250418_1729.csv
joint1,joint2,joint3,joint4,joint5,joint6,joint7,gripper
-0.15490481849491355,-0.26471244204406624,0.0652046235816068,-2.0843898060844865,-0.08626893953630951,1.7809878265657448,0.993339659010028,-0.022627412825861504
-0.1540554532653428,-0.2603850063851042,0.06358691471377462,-2.0830226780522114,-0.08591674915044588,1.7830607127657179,0.9896532094522807,-0.02161995980064718
-0.15334228422769056,-0.25777803898278734,0.06265239243472696,-2.0825246155343273,-0.08567574480974258,1.7831461804947546,0.9880773360137184,-0.02006405456673993
-0.15271392592998698,-0.25559221074429406,0.061715424066236355,-2.081589489874733,-0.08549073561113174,1.7847100597566756,0.986203971665303,-0.018156371333438337
-0.15167175184462003,-0.2522906892938782,0.06048606286063005,-2.080912922686952,-0.08518160837495864,1.7866460879157442,0.9838444694186581,-0.015868073982860997
-0.15042580928559093,-0.24828525222407116,0.05892174221712708,-2.079957193754153,-0.0848161459062544,1.788571344477432,0.9810076506112103,-0.01287273992446708
-0.14903011277594744,-0.2431951664035823,0.05699833409524113,-2.078504599958775,-0.08434373034193723,1.7901317376587462,0.9776178857120458,-0.00918734822668521
-0.14796421519038333,-0.23901385456818658,0.05538959680229623,-2.077290762800518,-0.08395938964548906,1.7916031770304173,0.9746761910040791,-0.006459519391384783
-0.14672176774937545,-0.23472415020710263,0.053778243122542105,-2.0761319907714753,-0.08356470934413333,1.7933094763944357,0.971743380868933,-0.0032120178683779366
-0.14589153803321886,-0.23117473347190604,0.05246499498246347,-2.0750564422786884,-0.0832403486230302,1.795070456303704,0.969035198661202,-0.0013024669375491515
-0.14497605424355928,-0.22754016370884272,0.05105108561733382,-2.073920641818677,-0.08291368640939904,1.7970849800305957,0.9661880408668776,0.0006404195642945587
-0.14419978750003715,-0.22439756972984953,0.04983563461023695,-2.072893701922374,-0.08263145198508004,1.7992473292429976,0.963586094120631,0.0022729286952624106
-0.14333933893160855,-0.2208341215997418,0.04851613965313155,-2.071900251349955,-0.08231053708596825,1.8014835911981546,0.9607064333339239,0.0037399768043930304
-0.14245671337538154,-0.21764206695368704,0.047306029790704404,-2.071015706365879,-0.08202244198365034,1.8036265907047158,0.9581926999619454,0.005549605917519185
-0.14177062892487313,-0.21355051219761317,0.045757732581210644,-2.0696831122290313,-0.08166343267754564,1.8052869443097244,0.9549200153942918,0.006110452846165071
-0.14106452229384195,-0.21001196979347264,0.04442979242289556,-2.0686255555805895,-0.08135284241080637,1.8074419688359074,0.9519517460121055,0.006884188994458862
-0.1403687360555519,-0.20612544879553707,0.04298210999371656,-2.0673991295342473,-0.08101211456997783,1.8096967187691144,0.9486351918900443,0.007255945697704325
-0.1396607632995595,-0.20298677922230807,0.04178519043638686,-2.0665192581073364,-0.08073603385755768,1.8119179396573832,0.9459212710703314,0.007980329353765525
-0.13899939211718346,-0.19908863847546177,0.04031735873246102,-2.0652674291616457,-0.0803955070764853,1.8141036926131855,0.9426120048273987,0.008271520377316988
-0.1383270510068588,-0.19483988824827458,0.03874003743320034,-2.06389570861655,-0.08002214338715041,1.8162928924801494,0.9390033506128009,0.008513698490004384
-0.13769771325130264,-0.19047237541759776,0.037117358978588505,-2.0624526870586783,-0.0796387352657415,1.8185048889641158,0.9353066569212677,0.008621119396262977
-0.13703080555453898,-0.18604382601905772,0.03548221398268593,-2.0610540868061897,-0.07924953705114168,1.8206966348450062,0.9315846058368444,0.008933364464665972
-0.13636924879067508,-0.18181976227729224,0.03391692574051092,-2.0597337303652705,-0.0788747231648421,1.8230236524042776,0.9279933413555254,0.009624752131080827
-0.1356961138039857,-0.17774408053671156,0.03244683372608716,-2.0585308161835854,-0.07851015263143916,1.8255001013963055,0.9245475340886582,0.010799477278764735
-0.1350562082137046,-0.17340370968556587,0.03089048609564191,-2.057146560779967,-0.07812114050406048,1.8279163861207803,0.9208817625046641,0.012719187352203343
-0.13442965418046623,-0.1687502194873574,0.029231518820433396,-2.055578289691066,-0.07770220041808298,1.8302203328769342,0.9170157560463903,0.015128856743598151
-0.13361975594731212,-0.1639513070353282,0.027529141198401882,-2.0541596714856345,-0.07726681621077133,1.8330315827002819,0.9130870833129195,0.018109475609353942
-0.13293355808589447,-0.15918102739853945,0.025848317804389034,-2.052630085563554,-0.07683727984785713,1.8355881527921007,0.9091451469556117,0.020868857213484304
-0.132233286961648,-0.1541470890817495,0.024035715212031922,-2.0510599324448893,-0.07638706855299494,1.8382504803854771,0.9049482217774688,0.022961074622158018
-0.13149404372495244,-0.14925495554977977,0.022290217522779033,-2.049631066632419,-0.07594648887602659,1.8411251259555916,0.9008457070421807,0.024858032743902192
-0.1307743690251427,-0.14435142150944474,0.020542219558557565,-2.048204542100994,-0.07550535735419556,1.8437765448585297,0.8967832440244031,0.02684800786218805
-0.13011458559549605,-0.1396190047148614,0.018841599095714503,-2.046813361908436,-0.07508208378879261,1.8465263182379164,0.8927693774067152,0.028447011631456687
-0.1294702466696718,-0.13479463843550132,0.01711050701549115,-2.0454083051232166,-0.07464910374282065,1.8494128517345947,0.8886279412865797,0.02980052636969438
-0.12880733928497964,-0.13005478938642598,0.015420336618306264,-2.0440597812703296,-0.07422369124384143,1.8522695968683345,0.8845748292026516,0.03128132752425217
-0.12809870668369713,-0.12560806494666515,0.013846785083471907,-2.0429546966166554,-0.07381697730218575,1.8553328433162266,0.880709486716012,0.03245078916072325
-0.12738740377100607,-0.12127082923531993,0.012308078712015526,-2.0418707915515197,-0.07342115694923389,1.8584011034530814,0.8769346340778154,0.0335932540783927
-0.1266590686017632,-0.11687175672812042,0.01074730335004696,-2.0407950539552635,-0.07302040849332235,1.861483190404029,0.8731075648132374,0.0345625607965373
-0.12601741029743016,-0.11262889310957955,0.00923120008356974,-2.03972741178847,-0.07263665600360765,1.8643518234643326,0.8693823361502787,0.035368528876398186
-0.12530693219135178,-0.10827885375037796,0.007681435994489141,-2.0387079729964412,-0.07223955870731077,1.867478093549264,0.8655430466458602,0.035925215933279075
-0.12462581720068475,-0.10411876439978524,0.006199218033507221,-2.0377762782140714,-0.07185893975528526,1.8705915552256736,0.8618247422585162,0.03646860271989083
-0.12388642962283197,-0.10025993348274453,0.004828945433289815,-2.0370563432973783,-0.07150217632943562,1.873875834851821,0.8583349152531813,0.03693116914078215
-0.12321654231218002,-0.09629819105365281,0.0034121390777360344,-2.0362106095491024,-0.07114002492990741,1.8770250386468126,0.8547392638164214,0.03713203152029315
-0.12254556213276627,-0.09236269171785572,0.0020119773545389068,-2.0353674962346124,-0.0707785579891236,1.8801392053732324,0.8511828025149324,0.037434004252296815
-0.12191239933654383,-0.08871474828151779,0.0007116872958764162,-2.034649974638382,-0.07044224276826284,1.8832048215725483,0.8478037481105827,0.03754569822410997
-0.12126791606956236,-0.08520297514798106,-0.0005289444990619653,-2.0340185851698602,-0.07011899857048651,1.8863114285960791,0.8445576540259969,0.0377656337571558
-0.12064512521649431,-0.08180534960445152,-0.0017407108904156608,-2.0334282671738397,-0.0698040812411225,1.8893947885539897,0.8413686377886862,0.037782499631794975
-0.12004762499618754,-0.0782691530741477,-0.0030058577653091813,-2.0327510246165263,-0.06947841577053787,1.8924479488697887,0.8380612844164143,0.037674852337957254
-0.1194636206740807,-0.0751737944706794,-0.004114358155986677,-2.032256825212368,-0.0691901559703346,1.8953520106931143,0.8351340469003414,0.037675078725536326
-0.11894913723934,-0.07210906377141549,-0.005234274275797056,-2.0317176281874927,-0.06890870011783735,1.8981583251663892,0.8321866372936655,0.03742531662895082
-0.11839118649611113,-0.06911372270479779,-0.006306723875151198,-2.0312638158813767,-0.06862825170305452,1.900948952276933,0.8293367801384708,0.03733128088830345
-0.1178692076312777,-0.06628595814912219,-0.007326441282075789,-2.030818882433381,-0.06836612218488543,1.9036348011220448,0.8266332654932403,0.03722343550533408
-0.11738281917178134,-0.06360000934029406,-0.008303973322096207,-2.03042873496186,-0.06811573968991708,1.906261151580169,0.8240256670836781,0.03699767049212771
-0.11689192520616323,-0.06085065616571141,-0.00931511393439172,-2.0299921400763585,-0.06786094136658055,1.9088165661733598,0.821367606829911,0.036738400117222125
-0.11643987963200225,-0.058248117422413336,-0.010273585248171364,-2.0296132127440036,-0.06761923866406461,1.9112944252654085,0.8188244195971918,0.03632586535130056
-0.11600963988266397,-0.05565906197266265,-0.011231897875768792,-2.0292405528409097,-0.06737930806801656,1.9137388532361312,0.8162651962638412,0.035784233068426485
-0.11557860625696098,-0.053121089570010126,-0.01217391904452486,-2.0288468574281113,-0.06714557075413853,1.9160336930963178,0.8137907953067695,0.03538165935598303
-0.11516385225177572,-0.05055947207452697,-0.013120788850226588,-2.028479510432007,-0.06690892128219646,1.9183718347779752,0.8112556231602069,0.034766734094391905
-0.11475943925949691,-0.04809198550724814,-0.014032223257360385,-2.0281743694723064,-0.06667897308914875,1.9206709245229465,0.8088077257375367,0.03412243504441914
-0.11437041922062721,-0.04585375877838379,-0.014863539526849512,-2.027993748644541,-0.06646936615441112,1.9229397167021938,0.8065345437555599,0.033432688687952405
-0.11398854406903985,-0.04363075830540342,-0.015697548623442963,-2.027779521428839,-0.06626227781395952,1.9251042006493493,0.8042869602514117,0.032742517854774944
-0.11360769992571831,-0.04141599031490605,-0.01653080105787487,-2.027599224778449,-0.06605678725688938,1.9272238159972328,0.8020451558694195,0.032032311720851636
-0.11326233277682463,-0.03937570491253354,-0.01731038563196135,-2.0274902111309805,-0.0658667141330368,1.9292579048619125,0.7999342003378722,0.031169407164859997
-0.1129096248490781,-0.03752125875854204,-0.01801881687009973,-2.027477099957123,-0.06569221565401966,1.9312034707808439,0.7979911812151986,0.030469728053362455
-0.11294176137672457,-0.03724303154429332,-0.018122820180964033,-2.0273792344094037,-0.0656669024446116,1.9309358259630132,0.7978214218484897,0.030282052750331023
-0.1129744546488346,-0.036997624639703804,-0.01821596316433321,-2.0272932553654557,-0.06564461261781354,1.9306870608176827,0.7976704038716007,0.030112262066044504
-0.11300771497549086,-0.03675510074828744,-0.01830827304524575,-2.0272061597105475,-0.06562254417064065,1.930437668961232,0.7975216070379169,0.02993986792459885
-0.11304414049752326,-0.03652632323907302,-0.018393097582831287,-2.027125133376505,-0.06560164678960075,1.930191175643713,0.797380875681094,0.029772624100576628
-0.11308108152368859,-0.03631543575837024,-0.01847192687904478,-2.027050932777203,-0.06558256001583312,1.9299458182400993,0.7972514555553265,0.029600909121868135
-0.11311853805398683,-0.036091043060065546,-0.018555325176187715,-2.026973238266187,-0.06556197171069499,1.9296863794210006,0.7971123455935213,0.02942608131394775
-0.11315913915949591,-0.03588482540298162,-0.018633022381954904,-2.02690287376583,-0.06554307530201565,1.929427097279682,0.7969818672629616,0.02924678235134115
-0.11320465817443309,-0.03570179243358281,-0.018703053303443424,-2.026838704655318,-0.0655263606055841,1.9291691664842165,0.7968673855109124,0.029061710505468796
-0.11324365090704747,-0.035483001331215284,-0.01878607568850226,-2.0267661789724567,-0.06550636371557979,1.92890896386094,0.7967283387845009,0.028889231468681054
-0.11328452007470566,-0.03528017094055911,-0.018863018167305252,-2.0266989842064387,-0.06548734004035267,1.9286558117377672,0.7966024114261846,0.02871256426168084
-0.11332681203377074,-0.03506203755982803,-0.018946332283363714,-2.026628529656811,-0.06546722123113452,1.928399956922888,0.7964604459911307,0.028523813617648996
-0.11337157841267387,-0.03483421374698648,-0.01903390044698386,-2.0265552115403653,-0.06544600407952497,1.928113158246442,0.7963146014598921,0.028323743594664663
-0.11341842742827399,-0.034621177708937946,-0.01911440562409735,-2.0264852612666546,-0.06542639861436511,1.927848764492548,0.7961761090312289,0.028125428075417958
-0.11346271954337481,-0.03439768389686974,-0.019201123752284097,-2.026414248411547,-0.06540586378256638,1.9275791416177437,0.7960286045709046,0.027924112920748867
-0.11350838289946921,-0.034183639352311966,-0.019283041139659448,-2.0263480621973637,-0.06538607757751934,1.9272991192552864,0.7958922186712953,0.027726646354923612
-0.11355672687705481,-0.03394684312014642,-0.019373331158344078,-2.026271862504246,-0.06536440269412447,1.9270159045830597,0.7957374994477665,0.02750716359703581
-0.11360245209364517,-0.03369896427840655,-0.01946609484303381,-2.0261966533531095,-0.06534122307095871,1.9267287533816084,0.795576545609636,0.027282247537250892
-0.11365541498826176,-0.03345566208305371,-0.01955730746705224,-2.0261185085957387,-0.06531873432333808,1.9264299688549857,0.7954201466959608,0.027046578067461136
-0.11370510958667562,-0.03320171575921752,-0.019653102638381516,-2.026041390400057,-0.065294970771306,1.9261282466199865,0.7952510354920378,0.026790788401583443
-0.1137578044191431,-0.032960649817428626,-0.01974202979433656,-2.0259725387274528,-0.0652723633128719,1.925813696391743,0.7950976451998305,0.026523028492463574
-0.11381162305062037,-0.03272013197700346,-0.019832088073139232,-2.025903380887327,-0.06524981467511112,1.9254917627231127,0.7949448536677577,0.026235006895018786
-0.11387256594921463,-0.03247669823732332,-0.019923522277253563,-2.0258299367019017,-0.0652271173814668,1.9251576277723583,0.7947878046151907,0.02590448102960763
-0.11393762257078963,-0.032229405864042625,-0.020017455788737808,-2.0257524943288443,-0.06520375274054671,1.9248152672381496,0.7946258409868664,0.025532809221704367
-0.11400316376624958,-0.031995541974172946,-0.020106356335729367,-2.025680472921901,-0.06518153456802347,1.9244673838121926,0.794477535215537,0.025135357528236923
-0.11406520984368829,-0.03175089144946535,-0.0202007368778001,-2.025604921583535,-0.06515784801760013,1.9241121169458493,0.7943278688951892,0.02470369301188574
-0.11412517328443,-0.03152445981408764,-0.020290237335968336,-2.0255394017339574,-0.06513571861082032,1.923747606090481,0.7941977057535453,0.02429127143975368
-0.11419319920981064,-0.03129000397474515,-0.020383232276740687,-2.0254630939817146,-0.0651132106127975,1.9233688767265698,0.7940588645421635,0.023855135768716285
-0.1142568227298961,-0.031046641488242287,-0.020475350573116162,-2.0253863179732625,-0.06508929198808115,1.9229847419792458,0.7939229390752649,0.023500103447873066
-0.11432482803511143,-0.03078361312480935,-0.020575940679664798,-2.0252997265942723,-0.06506386220679318,1.9225894831095356,0.7937725238107225,0.023087851666425296
-0.11439767907917622,-0.030532418269819027,-0.020673223050153018,-2.025215800673703,-0.06503938425094664,1.9221992379287882,0.793625813745032,0.02268969251177333
-0.11447287051200453,-0.030250754460019798,-0.02077958633417846,-2.0251174308500657,-0.06501238663134729,1.9218044882618635,0.7934573566322131,0.022282591047748934
-0.11454274194218103,-0.02997787123406729,-0.020884392751940564,-2.0250304432542827,-0.06498589807793909,1.921415085224184,0.79330088657872,0.0218904594623891
-0.11461176794557953,-0.029674091534242185,-0.02099790949294849,-2.024928021213451,-0.06495663960554963,1.9210175936961076,0.7931256533982404,0.02149501695868572
-0.11468152596484679,-0.02935852765509723,-0.021112603801540307,-2.0248172426002706,-0.0649266774240136,1.9205916651509458,0.7929498916093913,0.021136051153656576
-0.11475478941221795,-0.029062552918691413,-0.021222341585934532,-2.0247187647175084,-0.06489799967209012,1.9201884352991738,0.7927813119779968,0.020721563794865727
-0.11482949627116126,-0.0287586087884572,-0.02133943457163437,-2.024618539878889,-0.06486826421751317,1.9197910221099876,0.7925971383997007,0.020298502006518337
-0.11490084204315795,-0.028443012023230414,-0.021455419656854706,-2.024513074172697,-0.0648374229342773,1.9193881643679434,0.7924135887768912,0.019906342122711196
-0.11497244556722108,-0.028091229605971206,-0.02158387515376046,-2.024394551322211,-0.06480355612949784,1.9189692079839953,0.7922056905633325,0.019524199889276894
-0.11504520382054195,-0.027747197341994913,-0.021712060690636713,-2.024280729043671,-0.06476958023910599,1.9185715010239714,0.791995546505243,0.019098761031349554
-0.11512263254130711,-0.027377771541837743,-0.021848996706103678,-2.0241518145073116,-0.06473372208716704,1.918158282963719,0.7917655396171477,0.01867182235571102
-0.11520129847199131,-0.027008981539262462,-0.021986884354864608,-2.0240224317147435,-0.06469765325027084,1.9177752841303006,0.7915222631768971,0.01822991380140787
-0.1152746031596931,-0.02664058616966907,-0.022121912749549624,-2.02389654283389,-0.0646615159675002,1.9173848431023282,0.7912931218232536,0.017828302236175375
-0.11534590769135913,-0.02625242078388649,-0.022264444388137072,-2.0237596859518288,-0.06462328252982483,1.9169982406799677,0.7910476360964342,0.017433850178130317
-0.11541336656219353,-0.025866354626326936,-0.02240418160175963,-2.0236338511005374,-0.06458450259462073,1.9166418770691638,0.7907992899561012,0.017025050807263076
-0.11548188737154177,-0.02547498832858027,-0.02254596577037292,-2.0235001819626697,-0.06454530556736927,1.9162916826459506,0.7905416946513805,0.016615374184526965
-0.11555233616634716,-0.02507001815498621,-0.02269357101259728,-2.023362370558336,-0.06450515992307675,1.9159434466949885,0.790269614489281,0.016191520039652962
-0.11562077449503413,-0.0246708249697657,-0.022836132162944226,-2.0232255677058375,-0.06446496294437838,1.9155992451968638,0.7900056225292622,0.015784984544576164
-0.11568740855925588,-0.024237123322685718,-0.02299419230882012,-2.0230761759652536,-0.06442207090937396,1.915263406375251,0.7897102351843042,0.01536911056186363
-0.11575131045157314,-0.023794158762558977,-0.023155835956377963,-2.022926964323212,-0.0643785970844368,1.9149309165411876,0.7894089788043647,0.014938747774091987
-0.11581464528934418,-0.02335061321498668,-0.023312185387801665,-2.0227775185530654,-0.06433448906569428,1.9146050071738876,0.7891114335515953,0.014527741124328974
-0.1158797947016631,-0.0228981555392404,-0.023472313292039734,-2.022624921058434,-0.06428962493393256,1.9142761209287662,0.7888004833834059,0.014075701725863421
-0.1159428099268717,-0.02245842477715957,-0.023626118664654944,-2.0224759255346427,-0.06424636821075339,1.9139535605490157,0.7885034290694843,0.013651451402726056
-0.11600400026744978,-0.022000102416821536,-0.023784393617436034,-2.022317474837396,-0.06420125489323003,1.9136251247525118,0.7881987382172223,0.013256405077286038
-0.11606620099612838,-0.02152614820559038,-0.023949610123090433,-2.022155314110185,-0.06415488388276384,1.9132969631421233,0.7878731164496321,0.012804705260189009
-0.11612605102596085,-0.02105116356379543,-0.02411091462731372,-2.021998484299817,-0.06410836100801375,1.9129738935595875,0.7875569236720804,0.012391434734635498
-0.11618790121182906,-0.020587913772197604,-0.02426703425405281,-2.0218390250507356,-0.06406320491181887,1.9126434992908325,0.787249135273578,0.011982210887057532
-0.116241276509752,-0.020109503496879448,-0.024424518194919496,-2.0216812947476575,-0.06401617190141083,1.912321898562485,0.7869400564778222,0.01160581323844162
-0.11629906452305275,-0.019618179953432173,-0.02458512312530289,-2.021515766177711,-0.06396812717542123,1.911996517982693,0.7866145967509284,0.011190901402940046
-0.11634519183286679,-0.019119594066915678,-0.02474642134013481,-2.021355298376794,-0.06391890389703113,1.9116882152809302,0.7862884602077109,0.010800920499581201
-0.11639442247756102,-0.01861103821659322,-0.02491325180037419,-2.0211871403681347,-0.06386954372689214,1.9113640293692113,0.7859511827490787,0.010389432776212737
-0.11643793102637981,-0.018093805921683158,-0.025080112739971745,-2.0210164789897416,-0.06381921675877669,1.9110425265644764,0.7856106413807779,0.009989377625586215
-0.11647434623832956,-0.0175370555184493,-0.025265091480904157,-2.0208257006042074,-0.06376553380388011,1.9107181448055321,0.7852373450665723,0.009574069611821279
-0.11650533834680094,-0.017016797704011537,-0.02543161472856516,-2.0206544629104797,-0.06371395769855613,1.910407981555131,0.7848946981572703,0.009203869323181846
-0.11652587603145662,-0.01734717128200406,-0.025276558250866988,-2.0207904373096848,-0.06374181089158598,1.9104133673538213,0.7851983182070642,0.009347116063824934
-0.116544702242391,-0.01764874761434703,-0.025130509633006295,-2.0209179470774163,-0.06376695619470832,1.9104077857079058,0.7854856882427462,0.00948003387117391
-0.11656276550720865,-0.01794768209811689,-0.024985862098022733,-2.0210440700863748,-0.0637918533815358,1.9104132890149312,0.7857671072350455,0.009605650679098576
-0.11658127210558061,-0.018234043136603144,-0.024847062245613727,-2.021164483971552,-0.06381597199654153,1.9104064931162201,0.7860416577767262,0.009717514441596076
-0.11659797443948736,-0.018508411717251323,-0.02471219556085678,-2.0212785583880506,-0.06383879548726684,1.9104111151107326,0.78630374032427,0.009835264281148781
-0.11661774917802631,-0.018799508351520076,-0.02457210559704334,-2.0213956944797635,-0.06386327665151374,1.9104200457441975,0.7865749601391959,0.0099502974697529
-0.11663859616516176,-0.01907195857739525,-0.024436570906353174,-2.021508796364136,-0.06388574400979861,1.9104175388997162,0.7868385418101952,0.010070565871122594
-0.11665562842171356,-0.0193248963947222,-0.024306417455202716,-2.0216159910163305,-0.06390639541347726,1.9104167359260933,0.7870894205774502,0.010187212071227414
-0.11667371230669654,-0.01957974160479487,-0.024176395657946576,-2.0217205022002496,-0.06392713023556536,1.9104131519218739,0.7873438274350522,0.01031353634033666
-0.11668645556886242,-0.019814339950491942,-0.024053215750900518,-2.021816674821674,-0.06394617743906182,1.910419791142805,0.7875803129868468,0.010448916112607787
-0.11669913697053236,-0.020059955133599656,-0.023925975316027193,-2.0219146304186646,-0.0639664096117595,1.9104210837344906,0.7878305655754959,0.010588710442670402
-0.11671244728724445,-0.020323482269273573,-0.023790743483721382,-2.022017898922644,-0.063987884504865,1.9104399829917134,0.7880917420784137,0.010725844718679156
-0.11672146860957061,-0.02054701992945087,-0.02367403705369103,-2.0221021490205886,-0.0640056675986179,1.9104667161379405,0.7883170917785652,0.01087412858295611
-0.11673240760727124,-0.020781969060020715,-0.02355045849599209,-2.022189983079519,-0.06402431909940275,1.9104901002966181,0.7885551248684137,0.011018252575468013
-0.11674549110216487,-0.021017806114799774,-0.023425609481236745,-2.0222752957588614,-0.06404311390873721,1.9105150512330966,0.7887921879372028,0.011164583846875631
-0.11675386288928355,-0.021255632777529114,-0.02330212526440833,-2.022355655728299,-0.06406194614940924,1.9105632492351954,0.7890259326299,0.01132220619878832
-0.11676229653689818,-0.021500732745354932,-0.023176291718004168,-2.022434232722171,-0.06408099656130606,1.9106201232693665,0.7892636463316074,0.011485629732414127
-0.11676712165558234,-0.021751450752158848,-0.02304880212647279,-2.02251760033726,-0.064100541066859,1.9106793866396836,0.7895069899594638,0.011645261274090879
-0.11677685437361196,-0.02200774843084536,-0.022919913387261622,-2.0225891714978483,-0.06412065880661036,1.9107440945628589,0.7897506072780087,0.011812108919849795
-0.11678666957230283,-0.022255309373794267,-0.022795252328548322,-2.0226526922536094,-0.06414006000361368,1.9108184381695095,0.7899853084060363,0.011955299063598102
-0.11679524756107468,-0.02249496121406478,-0.02267351825581798,-2.022709279215504,-0.06415887513281711,1.9108924292511547,0.7902146908446184,0.012109921780088406
-0.11680483593794705,-0.022749532373455596,-0.02254604487156436,-2.022769198000425,-0.06417919500179144,1.9109607407632718,0.7904567480274334,0.012261941039419633
-0.11681176431349355,-0.023010395736501855,-0.022415754081877386,-2.0228294769824307,-0.06420055760088417,1.9110321466615456,0.7907037178098996,0.012412884957750392
-0.11681944532507413,-0.023255906780350465,-0.022291955637380224,-2.0228784457759987,-0.06422053203208593,1.9111212375642466,0.7909292915510752,0.012568950895057107
-0.11682836354657372,-0.023508345825436434,-0.022163256305609107,-2.0229199945096368,-0.06424149465059992,1.911222999782412,0.7911650321108873,0.012812119453402826
-0.11683001315979907,-0.023743240145869905,-0.02203830907958855,-2.0229464149657472,-0.06426019320792344,1.9113383342132773,0.7913905749754057,0.01320260972881454
-0.11682801300376333,-0.0239423270042119,-0.0219245368925312,-2.0229480538624793,-0.06427557641820378,1.9114657132484867,0.7915887151772678,0.013686032105425738
-0.11682612625863681,-0.02416190189152955,-0.021804984271007005,-2.022955960188473,-0.06429286007096663,1.9116135583187197,0.7917966539010006,0.01420315793286786
-0.11682501276970969,-0.024397157958863068,-0.021676505067933782,-2.0229565545136614,-0.0643116527413675,1.9117558804972046,0.7920169936782778,0.014746261735005817
-0.11682886874062398,-0.024633773317578593,-0.021547828958530798,-2.0229547535282415,-0.0643309929787639,1.9118934435881194,0.7922368463454126,0.015226769371536775
-0.1168247137773126,-0.024858067357637827,-0.02142242381643869,-2.02294612680808,-0.06434882740692263,1.9120409361333472,0.7924497816533039,0.01576783568546325
-0.11683147719153658,-0.0251263410511215,-0.021279965957249986,-2.0229452623350785,-0.0643708894372948,1.9121747977117076,0.7926910839636062,0.01629404531451467
-0.11683595176741035,-0.025396708491814572,-0.02113709033733462,-2.0229357171123525,-0.06439317070835854,1.9123342565223893,0.7929267533836004,0.016813435017747236
-0.11683780758228887,-0.02566895043917155,-0.02099542566715733,-2.022926982333066,-0.06441509584698182,1.9125089914166293,0.7931578026676394,0.017357755653122586
-0.11684370494956953,-0.025934308233400254,-0.020857528826209018,-2.0229020927145624,-0.06443689906639127,1.9126604596605268,0.7933852159165382,0.017881333526567567
-0.11684747843982252,-0.02621385637193554,-0.020709704422885437,-2.022880192731856,-0.06446059845041606,1.9128277915296579,0.7936285042134251,0.018395063540323886
-0.11685533472280829,-0.02650263453743578,-0.020562024191763992,-2.022859949655736,-0.06448472562115609,1.9130038581850288,0.7938666921805856,0.018919150785821737
-0.11685844836777115,-0.026834153647278473,-0.020398562910100698,-2.022854834857143,-0.06451231572535607,1.9132071084352444,0.7941355819194602,0.019451897356218217
-0.11687084108712664,-0.02714312386701794,-0.02024375776615759,-2.022822543188564,-0.06453913153560144,1.913377025487747,0.7943883140271811,0.019953402440705925
-0.1168841307836734,-0.027479356648588575,-0.020078561580075305,-2.022794753983534,-0.06456839107745768,1.9135494102152857,0.7946640618421175,0.02047915929459926
-0.11689924536485075,-0.027820242810737146,-0.019910233760890923,-2.0227730881289325,-0.06459841314913384,1.913715175306616,0.7949493186793876,0.020948941819572797
-0.11691251444123221,-0.028172573329360066,-0.019741014783329576,-2.022744434450901,-0.06462955602200396,1.9138846614952232,0.7952396797985962,0.02146323780227677
-0.11693126848158797,-0.0285344079256298,-0.019565833946550374,-2.0227101616983596,-0.06466189669767676,1.9140466663198312,0.7955370709150934,0.021981438970719358
-0.11695855927038498,-0.02891662093060244,-0.019385407757369973,-2.022675528748734,-0.06469700087553008,1.9141825451246102,0.7958528072121466,0.022470379544569874
-0.11697689059735175,-0.029310420798404006,-0.019200073907724918,-2.022656870539784,-0.06473244942168918,1.9143354038838059,0.7961808497096534,0.023010540308180172
-0.11700439789788455,-0.02970516888156479,-0.019015727976324028,-2.022624092605141,-0.06476871290154082,1.9144777848164585,0.796505103023801,0.02348533165834016
-0.11704085435016495,-0.03013671649028537,-0.018819252227970283,-2.0225917829267073,-0.06480886068476693,1.9146051050975001,0.7968589544544313,0.02399979743172842
-0.11707119692342885,-0.030544153120016147,-0.01863130779710803,-2.0225504863310277,-0.06484671873959966,1.914736303153599,0.7971948934717316,0.024475720719783656
-0.11710725128248553,-0.030975432159068512,-0.018432076327736274,-2.0225110807700397,-0.06488673390894403,1.9148774306640108,0.7975480354802883,0.024970037998636563
-0.11713899602699099,-0.031410350591175924,-0.018237291941861276,-2.022470198401007,-0.06492751053864156,1.9150078453312094,0.7979024738144168,0.025483994399971954
-0.11716587441248164,-0.03184014975654626,-0.018042210503193958,-2.022431801391854,-0.06496730646729437,1.9151523609986156,0.7982590226298113,0.026030494015795658
-0.11718927830011638,-0.03224288915759,-0.017860227447750225,-2.022381571908492,-0.0650048768355611,1.915306394841162,0.7985927553247019,0.02653794177423341
-0.11721841459370924,-0.032681194856125174,-0.017663435294630714,-2.0223407975985843,-0.06504570373019766,1.9154613099962212,0.7989520291903454,0.027088629560269473
-0.1172440042188676,-0.033126165467243125,-0.017465680380832516,-2.0222994109536345,-0.0650872610706505,1.915632970089027,0.7993143759009036,0.02763592153261979
-0.11727316113262576,-0.033561938937477935,-0.01727427678471767,-2.0222415993216543,-0.06512854890547275,1.9158057856804611,0.7996638383999871,0.028202173464715485
-0.11730006013828173,-0.03400830172605971,-0.017078775408226683,-2.022192522468961,-0.06517032976448431,1.9159782683316124,0.8000255369477594,0.0288031758901951
-0.11733451643452639,-0.03449229715427412,-0.016872449505391435,-2.0221445442173738,-0.06521643447772026,1.9161561563661769,0.8004067475667128,0.02938552963885066
-0.11735976582695698,-0.03496204194703196,-0.0166741314491661,-2.022087921235771,-0.06526145047376589,1.9163458735731376,0.8007792593668147,0.0300287533478229
-0.1173904280127833,-0.03544666221080101,-0.016473553082442846,-2.0220283446380796,-0.06530875298980453,1.9165365112620565,0.8011541326136518,0.03065253602344431
-0.11742090461712176,-0.0359191584724047,-0.01627715377438419,-2.0219634731432534,-0.06535478177089851,1.916735315780262,0.8015211409583922,0.03129839148802299
-0.1174568249451039,-0.03643315696926883,-0.01606870108966777,-2.0219087592061955,-0.06540477720430965,1.9169371755151794,0.8019180912620688,0.03195819808716055
-0.11749509597193217,-0.03692154817042024,-0.015870492372092378,-2.021839673405487,-0.06545337377516192,1.9171439510154469,0.8022920851417116,0.032641435800729646
-0.11754128514224216,-0.037469441255616485,-0.01565244014095052,-2.0217914069962326,-0.06550796470736162,1.917351353226835,0.8027089466899924,0.03328898917215123
-0.11751291179476603,-0.03748170776413642,-0.015694574225125074,-2.0217829423647586,-0.06551165222884706,1.9175582070659924,0.8026050627947128,0.0330791844832678
-0.11748521891274535,-0.03750059533713001,-0.015733294621184623,-2.0217765308566635,-0.06551603811214515,1.917761222299538,0.8025079371821393,0.03287475649938676
-0.11745964990775232,-0.03750271100839395,-0.01577537355223487,-2.021766697476271,-0.06551896631221102,1.9179436735744473,0.8024067170778211,0.032674261999691756
-0.11743380253052751,-0.03750574748994893,-0.015814881573613472,-2.021761366559428,-0.06552192124894661,1.9181182126214622,0.8023128332672298,0.03247178660868
-0.1174102955420662,-0.03749749308341139,-0.015858279341653722,-2.021751172981951,-0.06552415857346736,1.9182781218807619,0.8022156029210353,0.032267160535667305
-0.11738840723658223,-0.03747867128258143,-0.01590401095769097,-2.02173860210372,-0.0655256665216386,1.918437482767831,0.8021120510115729,0.032053139378124096
-0.11736641583027171,-0.037467051533670685,-0.015947446462079434,-2.0217272018660117,-0.0655277477040083,1.918594571827089,0.8020098072843185,0.03182960994226086
-0.11734634209933564,-0.03745679107614195,-0.015992102108393358,-2.021715495460782,-0.06553005133546991,1.9187437878278977,0.8019093805865811,0.03160282618494881
-0.11732248456806393,-0.03744804337837707,-0.016035288939923106,-2.021708561666915,-0.06553229614625818,1.9188955890120778,0.8018123201855073,0.031378193109637686
-0.1173062049475462,-0.03743929568061218,-0.01607735335699327,-2.0216993766412736,-0.0655347163495997,1.9190239081139677,0.8017173682895936,0.03113448688079168
-0.11728649206950317,-0.037417547018499996,-0.016123121741780058,-2.02168640954625,-0.06553567245290828,1.9191564966853647,0.8016121742360001,0.030889818504734767
-0.11726666578055092,-0.03737921280912181,-0.01617629225640805,-2.0216673911402157,-0.06553522541579085,1.9192773344232554,0.8014955820026847,0.03064175431499211
-0.117250210888628,-0.03737065146582059,-0.016213835084883707,-2.021666256519401,-0.06553768946727068,1.9193907887207597,0.8014089396327296,0.03038729467614132
-0.11723008560727866,-0.03734658981595352,-0.01625966829878152,-2.021657215572593,-0.06553874396152376,1.9195031071043585,0.8013096403034963,0.030141098183925796
-0.1172078983093976,-0.03732054403914981,-0.01630621173010462,-2.0216497594929543,-0.06553970862056666,1.919623788164469,0.8012073096275755,0.029888732630181214
-0.11718787612887485,-0.037279874917962204,-0.016355551521589955,-2.021642231373899,-0.06553932040412257,1.9197279397187808,0.8010995752896489,0.02962414214716802
-0.11716744154504574,-0.03722838627585486,-0.01640698519660161,-2.0216326141117564,-0.06553829371600597,1.9198322087814275,0.8009850629079558,0.029359947842418133
-0.11714589347228951,-0.03717342267110158,-0.016459434850218918,-2.0216221683963207,-0.06553686490837704,1.9199372612329748,0.8008699883240902,0.029101724510065652
-0.11712296384845705,-0.03710933865965609,-0.01651376938604939,-2.021615378681288,-0.06553490243682084,1.920042548701192,0.8007509842533355,0.02884103921279102
-0.11709923003817724,-0.037036309633954774,-0.016571523415586896,-2.0216050770446854,-0.06553225443705345,1.920144604690195,0.800623202319487,0.028589239627994034
-0.11707722832178405,-0.03697600752191891,-0.0166242643164045,-2.0216027357636395,-0.06553057858259645,1.9202611729585786,0.8005016046095359,0.028344486356594978
-0.11705180365794823,-0.03690548880046341,-0.016679593543669838,-2.021600070305218,-0.06552795304163161,1.9203739417907948,0.8003791749589358,0.028122456738442936
-0.1170234303104721,-0.036818965519187445,-0.016742144927423385,-2.0215923981073294,-0.06552377249595684,1.9204961112898165,0.8002454241967502,0.02790702065853068
-0.11699380944299431,-0.03675448687476008,-0.016794784230380416,-2.021597404846797,-0.06552153944930325,1.9206079400553522,0.8001359291483291,0.027710855821284963
-0.11696259051270444,-0.03666680161859303,-0.016857234016273398,-2.0215999622460927,-0.06551737066776314,1.9207205913792336,0.8000016132198119,0.027479714103076147
-0.11693324801745841,-0.03659973593572894,-0.01691164305720162,-2.0216160990754557,-0.06551592688759918,1.9208362587503816,0.7998808316416611,0.027163450655145083
-0.11689746172055082,-0.03654013539343862,-0.016963003194714197,-2.0216446627042157,-0.06551489485214865,1.9209677114078731,0.7997668458922315,0.026812663101409062
-0.11686447976612635,-0.03647591983766584,-0.017015676363624756,-2.0216727940964754,-0.06551382966322768,1.9210755057205717,0.7996523631521292,0.026422767093392363
-0.11683044618327071,-0.03638660123943493,-0.017079405314962187,-2.02169631496606,-0.0655104234115075,1.9212015921640953,0.7995160750697696,0.026016090106078638
-0.11679014407015872,-0.03630666613655082,-0.017137840533964818,-2.0217297052357455,-0.06550747809997301,1.9213247800686875,0.79939504252615,0.0256702830790817
-0.11674969761588952,-0.03624659422708771,-0.017190952025073817,-2.021772190481802,-0.06550651130199656,1.9214670043235598,0.7992815409227038,0.0252921026282808
-0.11670662209054239,-0.03615010646301942,-0.01725644200599439,-2.021801654603272,-0.06550238422966119,1.9216045869991971,0.7991462329889472,0.024903112170580277
-0.11666463943395708,-0.03606528229597097,-0.017315430691437435,-2.021843239356618,-0.06549976082762993,1.9217397019997982,0.7990214586885136,0.024526544731280076
-0.1166196668534008,-0.035976424102885575,-0.01737715574592505,-2.02188875025818,-0.06549715025920012,1.921882024178283,0.7988917925375423,0.02411471742654303
-0.11657184869003079,-0.03586111453798733,-0.017446610946203693,-2.021928407957127,-0.06549160186550335,1.922024992652611,0.798746032978864,0.02372269903497276
-0.11652165920764931,-0.03575461844301762,-0.017512800500964158,-2.0219748913908155,-0.06548651975932619,1.9221790656646023,0.7986032859938658,0.023377967348976292
-0.11646752096360963,-0.03564810042399335,-0.01757880137398357,-2.022024580578552,-0.06548154246089427,1.9223390728475143,0.7984644329258476,0.023009238579600633
-0.11641356830105781,-0.035527671592358014,-0.017650776201204244,-2.022073981608621,-0.06547516202203633,1.9224933221220084,0.7983125909127339,0.02263278433408994
-0.11635634734230327,-0.03539690556900301,-0.017723475759830284,-2.0221265883927373,-0.06546759233611,1.922654308541046,0.7981597865359717,0.022295325349070416
-0.11629084738717396,-0.035285060004723444,-0.017787492087973318,-2.022194845740153,-0.06546101404589627,1.9228432227743837,0.7980152185692443,0.02195670612770828
-0.11622534743204466,-0.03513463906646564,-0.017867051921184214,-2.022242986080428,-0.06545064235698506,1.9230243814576073,0.7978411671001853,0.02165170546183487
-0.1161617960825378,-0.03500679990439289,-0.01793585205716188,-2.022311837753032,-0.06544206309441074,1.9232312352967649,0.7976783102719244,0.021332442378481364
-0.11608969767450705,-0.03485951410593554,-0.018011690505880057,-2.0223822742928057,-0.06543151173507913,1.9234419277415347,0.797503851725018,0.021016122333655518
-0.11601536197853943,-0.03469612508941226,-0.01809120969994673,-2.0224492169208648,-0.0654190984340694,1.9236563021141362,0.797315194856111,0.020708801195096826
-0.1159446760518329,-0.03453617814945311,-0.018170605041383375,-2.022509009636807,-0.06540771502957662,1.923863469308854,0.7971278777871088,0.020369474512550167
-0.11586304081734305,-0.03437271239873891,-0.018247438181536426,-2.0225804367185614,-0.06539505682067241,1.9240900645483023,0.796943044683417,0.02010757238203814
-0.11577585875838298,-0.03419454656944989,-0.018326700961955003,-2.022660706638728,-0.06538077943905098,1.924339299726973,0.7967445734837908,0.019808769076141153
-0.11569103770835168,-0.03403309783175416,-0.018401194448519027,-2.022744506490318,-0.0653679297955917,1.924579232162451,0.7965589696987377,0.019551422995657486
-0.11560280402096043,-0.033870278840649144,-0.018477453802659548,-2.022831602145226,-0.0653549464687839,1.924815325992317,0.7963738451194029,0.019310857894470845
-0.11551275575902129,-0.03369547835373333,-0.018553809916667278,-2.02292193957389,-0.06534014932630343,1.9250716116710915,0.7961749223795432,0.019039787067007374
-0.11542957401213266,-0.03353008328621885,-0.018629657073773506,-2.0230053612185417,-0.06532714461015987,1.9253133850704856,0.7959799814933832,0.01876353762367311
-0.11534723769202207,-0.033390503792935324,-0.018692601302587906,-2.0231053879487653,-0.06531581681794008,1.9255453269391793,0.7958098575351072,0.01850814413605878
-0.11526613858183046,-0.03323723272758621,-0.01876182040879057,-2.0231984808851218,-0.06530370189816423,1.9257871199232959,0.7956238002337147,0.018210387872714895
-0.11517889466237444,-0.033061719708897576,-0.01883823844911331,-2.0232869993185116,-0.06528932826453188,1.9260251918101354,0.7954282941812232,0.01796481394634175
-0.11508971244737859,-0.03288113127158094,-0.01891493128745891,-2.0233815330432043,-0.06527398569398947,1.9262635378830901,0.7952293793457877,0.01768511209242707
-0.11500615953751428,-0.03271760522971672,-0.01898420070879252,-2.0234830005617637,-0.0652605136208595,1.9265123813673106,0.7950371170713844,0.01737283872557671
-0.11491705980317973,-0.03253050534819916,-0.01905838746657751,-2.023584107883239,-0.06524393902457717,1.926757307907029,0.7948302059227998,0.017071290470283773
-0.11482309370983035,-0.032350508860355336,-0.01912727178363964,-2.0236975339449867,-0.06522727245415108,1.9270058380356891,0.7946356207357296,0.01677537360601966
-0.11473537552657204,-0.032141594544561926,-0.019205960778045688,-2.0237948591970802,-0.06520765094698941,1.9272423431447279,0.794421805072591,0.016482994047678223
-0.11464310028677865,-0.03195132115614845,-0.019277734344742573,-2.0239036387164444,-0.06518961652854131,1.9274836660955044,0.7942238259233723,0.016185860350176773
-0.1145453503930936,-0.031733889345162934,-0.019354142709078592,-2.0240106172503887,-0.0651685298518799,1.9277330971214,0.7940070935276974,0.01586894603795591
-0.11445238437776212,-0.03154820356516375,-0.019418993107276936,-2.0241239352530114,-0.06514985803122608,1.927975320969412,0.7938149784731952,0.015523450293880137
-0.11434638641795031,-0.031297129292473434,-0.019502377858038458,-2.0242196216083723,-0.06512374699959408,1.9282260054175482,0.7935760366215749,0.015200338621682796
-0.11436964596442784,-0.03138300581414021,-0.01945689104446524,-2.0242730928654904,-0.06512919700234635,1.9282668983181506,0.7936410495227115,0.015258180648129782
-0.11439394682925386,-0.03144747897755395,-0.01941909760793352,-2.0243240967725833,-0.06513243962564794,1.9282870705823365,0.7936954141763739,0.015304731594071641
-0.11441565986333263,-0.031503653886321044,-0.019383624473017377,-2.024374686453029,-0.06513486089845624,1.9283238898606565,0.7937377878184984,0.015343726854562811
-0.11444044530204361,-0.03155603593365123,-0.01935073482655562,-2.024421818241469,-0.06513675064627086,1.9283524835555221,0.7937769186705875,0.015370978259390822
-0.11446104484719524,-0.03158551830600543,-0.01932418053239913,-2.0244695083353887,-0.06513616885633812,1.9283810380809427,0.7938012554047004,0.015399163512982372
-0.11448201555532259,-0.031614194969354976,-0.019298068914635105,-2.024515217345347,-0.06513529831037258,1.9284087112938502,0.7938238561296445,0.01541625577520056
-0.1145059761874209,-0.03163535168199435,-0.019274829129729734,-2.0245602419808453,-0.06513373154152799,1.9284326829942033,0.793838369640561,0.015414020197857425
-0.1145254416234801,-0.03163416230203509,-0.019257651834304113,-2.0246037898082996,-0.06512987504429002,1.9284427299568512,0.7938439417656079,0.01541934030596509
-0.11455049512434021,-0.03163566958078531,-0.01924018087268152,-2.024643141339725,-0.06512649873763993,1.928455988813991,0.7938470096702573,0.015405672155880012
-0.11456901203279482,-0.03162169299601058,-0.01922810717645164,-2.024682222723338,-0.0651211161112953,1.9284661728696966,0.7938452746491416,0.015418802635464857
-0.11459041576439383,-0.03160916887984971,-0.019215417119867663,-2.0247241856836222,-0.06511603293565135,1.928473634648973,0.7938436720271315,0.015415350224884328
-0.11460270538292272,-0.03157541131685853,-0.01920919449280769,-2.02476495999353,-0.06510878622869504,1.9284832703324484,0.793834699023565,0.015433631021892547
-0.11462112950063344,-0.031526372687847005,-0.01920959894905261,-2.024792226912788,-0.06509984976421349,1.928469991890586,0.7938117149340463,0.015442007362317323
-0.11463536772478478,-0.03147771224877643,-0.019208583938045625,-2.0248259233499946,-0.06509077854691664,1.9284662707933091,0.7937906634762488,0.015449704540004994
-0.11465141021340139,-0.031427418467642,-0.019205608572129062,-2.024861780969706,-0.06508110628928486,1.9284497804569551,0.7937729170558273,0.015463118004063636
-0.11466439060746841,-0.031379717205957926,-0.01920428779994171,-2.0248983589835845,-0.06507136558577865,1.9284225381079427,0.7937610179332207,0.015488473412917092
-0.11467906185509141,-0.031337425704733725,-0.019201225833943996,-2.024937512406614,-0.06506180883056,1.9283864042949106,0.7937558484397825,0.015516319085140118
-0.1146891451159314,-0.03128798696172668,-0.01920105166618303,-2.0249776563716244,-0.06505163606247137,1.9283604349528614,0.7937436143671998,0.015541306614177575
-0.11470450713909255,-0.031247284954457243,-0.019197919549281593,-2.025019943509285,-0.06504166435413893,1.9283149004730242,0.7937398083869389,0.015568558019005585
-0.11472098265118078,-0.031212447631779543,-0.019192909807157037,-2.0250658326177846,-0.06503229796400854,1.9282613754264026,0.7937435027172076,0.015584348552644234
-0.11473670552723497,-0.031183617500048173,-0.01918311480579984,-2.025116710455898,-0.06502306525722669,1.9281928288976153,0.7937579095183972,0.015596347094333829
-0.11474912917683844,-0.031153208836389286,-0.019176319360326013,-2.0251680745600744,-0.06501346358440294,1.9281301186161361,0.7937668681951948,0.01558508431227612
-0.11476626453421682,-0.031127097287421933,-0.01916739616537234,-2.0252229866055287,-0.06500436135256922,1.9280504675496852,0.7937771617316322,0.015499283419816656
-0.11478909105722271,-0.031127108249449205,-0.01915163204780725,-2.0252876780018125,-0.06499763119807157,1.927951780132954,0.7938025961926582,0.015334982634322036
-0.11481587665196943,-0.03113349911135011,-0.019135593132219297,-2.025353035762702,-0.06499162186418911,1.9278428303216273,0.7938399070510713,0.01513179978212581
-0.11485534364838607,-0.031148297848170407,-0.019117795122245554,-2.0254189878487803,-0.06498622854317661,1.9276993722292366,0.7938871972450591,0.01488616925885794
-0.11489860475522104,-0.031151312405670838,-0.019107215398365324,-2.02547444018986,-0.06497964490562894,1.9275396196477173,0.7939222464500929,0.014639972766642417
-0.11492898856881559,-0.03110817682834651,-0.019107817728538676,-2.025512152824554,-0.06496774494867749,1.927403349148488,0.7939346109456752,0.014612013900629883
-0.11496611517646876,-0.031117494551529658,-0.01909320892378802,-2.025570991018223,-0.06496074635801603,1.9272361152029696,0.793983172763909,0.014481727848887349
-0.11500054054246542,-0.03109862890259061,-0.019087679097377235,-2.0256100183722734,-0.06495055861739238,1.9270676082504878,0.7940154820978983,0.01443509200760329
-0.11503336784565002,-0.031049157273501736,-0.019088375768421113,-2.025639698611994,-0.06493713253133429,1.9268922466451275,0.7940340337815369,0.014469078442908012
-0.11506739111842298,-0.031018419749024632,-0.019082760309527852,-2.0256721703791154,-0.0649253363126613,1.9267261877829596,0.7940603061115301,0.014565123373319389
-0.11509832136639842,-0.030960025029734488,-0.01908771538232744,-2.025695835327533,-0.06491033383255752,1.9265398979024382,0.7940739343269343,0.014683269391135456
-0.1151333653373546,-0.030901411069898875,-0.019088470109291638,-2.025718311625574,-0.06489581689037556,1.9263427189162008,0.7940891839373561,0.01480953706334992
-0.11517045070467713,-0.030875178938631502,-0.019081720140955397,-2.0257447500915386,-0.06488419392532224,1.9261403303937756,0.7941300804402048,0.014965914283577852
-0.11520989708092849,-0.030813632636500006,-0.019089197259693685,-2.0257520080627813,-0.06486964489913663,1.9259236058544729,0.794145274719657,0.015069373407203102
-0.11525012702346185,-0.03075391151190967,-0.019093977197133627,-2.025760994980027,-0.06485543168552249,1.925696423073349,0.7941614135778033,0.015187830707940386
-0.1152918313078154,-0.030692107602137232,-0.019096129136580275,-2.025766163808182,-0.0648413403911222,1.9254640307560376,0.7941823929077297,0.015333963890216351
-0.11533603063217229,-0.030677429447616957,-0.019085143021257783,-2.0257809318886255,-0.06483101148088251,1.9252135813245714,0.7942400013394806,0.015498208078816189
-0.11538531282727982,-0.030624576033113977,-0.01908879522244545,-2.0257780683218076,-0.06481801211207289,1.924937475906616,0.7942733125592395,0.015647369194961958
-0.11544032742834545,-0.030596776331946372,-0.01908455520506451,-2.0257734217794243,-0.0648073773343318,1.9246626239109015,0.7943232033087948,0.015773750060965874
-0.1154991670700774,-0.030551503159303557,-0.019088290135938636,-2.025754439393098,-0.06479584527395549,1.9243394368200306,0.7943674898215799,0.015909016639447493
-0.11556451237396684,-0.0305238130784087,-0.01908698194253402,-2.0257336019917895,-0.06478638370128097,1.9240079262220926,0.7944224621278541,0.016041283582506727
-0.115628084343639,-0.030494840440322767,-0.019086869701088062,-2.025709810974392,-0.06477685154379843,1.923684210343714,0.794479714860515,0.016192368993074413
-0.11569404825248794,-0.030455322331998942,-0.019090178888546486,-2.0256845251390962,-0.06476647985488723,1.9233483911068237,0.7945276808827734,0.01634846322882849
-0.11576490945059967,-0.030425516579840155,-0.019092357920755948,-2.025651729194599,-0.06475732094131374,1.9229899515154336,0.7945883157209465,0.016480277396729637
-0.11583629646292698,-0.030386042319625446,-0.01910014031687527,-2.0256090638500006,-0.0647473941505864,1.9226118292779204,0.7946449588248896,0.016641578546801872
-0.11591169409740842,-0.03034217228647374,-0.019108040276233248,-2.0255654439831297,-0.06473723421609924,1.9222388186529824,0.7946968345729766,0.01677095904822823
-0.11599211274214455,-0.030309867192096406,-0.019111389135237224,-2.0255234450031367,-0.06472787317330281,1.9218635949544005,0.79475523048299,0.016884549016015937
-0.11607308813134423,-0.030252020574169987,-0.01912683104244452,-2.0254703159332488,-0.06471722449249348,1.921469432829151,0.7947975092720239,0.017007251083860364
-0.11615173344186311,-0.03018519605590591,-0.019144513908176293,-2.0254194561049896,-0.06470483685868665,1.9210868061054605,0.7948291170883639,0.017120501470279492
-0.11623943100495612,-0.03012669171634303,-0.019161697009193946,-2.0253629772022204,-0.06469284492759145,1.9206966980177704,0.7948638036779366,0.017225007636457845
-0.11632076724704885,-0.030053410564014414,-0.019184344623712022,-2.025304697314031,-0.06467982523891284,1.9202946236646268,0.7948927259661488,0.017348247374802506
-0.11641166093576599,-0.03001371706325421,-0.019194609878023836,-2.0252573313974866,-0.06466912201529731,1.9198903949920068,0.7949432629023839,0.017452527153401842
-0.1165055960988674,-0.029963478092256142,-0.019209022260244065,-2.0251997358837572,-0.06465803592257165,1.9194787241248326,0.7949864003094983,0.01754780802573397
-0.11659094296311429,-0.02987292078494324,-0.019240150877122685,-2.0251289571567535,-0.06464360346826593,1.9190545386199742,0.7950024285057056,0.01767028370599938
-0.11668069223265634,-0.029778022514829715,-0.019276580967125485,-2.0250500739953603,-0.06462941164398756,1.9186230088441745,0.795017703805506,0.017791316165448268
-0.1167730705732763,-0.02969371356306317,-0.019309164852406874,-2.024974540666848,-0.06461600587779845,1.9181845264918833,0.7950402353667382,0.017895624242495023
-0.11686432511488648,-0.029599067419576956,-0.019346109704903205,-2.0248917673769475,-0.06460220013103057,1.9177437135576134,0.7950533685675757,0.01796823805847486
-0.1169615079540253,-0.0295213411651886,-0.019376559551313382,-2.024816936432749,-0.06458963068786978,1.9172923836273552,0.7950779908490135,0.018053671071118382
-0.11705562869861455,-0.029428585971407205,-0.019416935508700814,-2.0247340370738693,-0.06457616182314017,1.916826972281612,0.7950928709276031,0.018166525279274204
-0.11715200735130599,-0.029352849324969142,-0.01945014688172103,-2.0246619436275095,-0.06456391428948259,1.916359504540005,0.7951218129768758,0.018282775301115717
-0.11725198422284525,-0.029247449432726856,-0.019500481848440568,-2.0245758745342903,-0.06455091599013976,1.9158757227245466,0.7951238394736345,0.01838798892847865
-0.11721003249650791,-0.02899754809695488,-0.019574258344388605,-2.024500125087528,-0.06452706474183106,1.9157274859598636,0.7950223466666808,0.01844764205555799
-0.11716663735859836,-0.02877862545026006,-0.019637707175910478,-2.0244287340254816,-0.06450618875012692,1.915618085699919,0.794934581868487,0.018517312833010224
-0.11712667547821412,-0.028570511362457675,-0.019699828945853634,-2.0243570187860596,-0.0644862025547905,1.9154911962827725,0.794856406124922,0.018585455494303904
-0.11708430103848777,-0.028364266300305564,-0.019762130205350455,-2.0242847632510115,-0.06446637891840586,1.915379994228357,0.7947756861448121,0.018659823814021426
-0.11704492683281503,-0.028211883159165667,-0.019807921812505368,-2.024225510830696,-0.06445135932683348,1.9152866142714262,0.7947266273359057,0.018743898501190626
-0.11700390301391694,-0.028073761615509625,-0.01984875931445937,-2.0241726699184746,-0.06443783912769803,1.9152045542841065,0.7946867425993568,0.018842546888761136
-0.1169578581847642,-0.027932658400434983,-0.01989185567551328,-2.024114426049994,-0.06442434031789836,1.9151254320051634,0.794647586057889,0.0189560519612067
-0.11691652506338635,-0.027823931532914938,-0.019923881256360895,-2.0240614590687933,-0.06441396221218643,1.9150618012417262,0.7946246162951391,0.01906268051093868
-0.11687411969341205,-0.027723497439027904,-0.019953624271941136,-2.024010977447473,-0.0644045017089787,1.9150060043672934,0.7946058437816489,0.019173242544856584
-0.11683528161203754,-0.027642203044761775,-0.01997789358183357,-2.023961576417404,-0.06439700260786038,1.9149578651193622,0.794597526351266,0.019287709764513106
-0.11679708275578787,-0.027591624250918205,-0.019991128396469916,-2.0239159574567167,-0.06439234187159774,1.914936498187103,0.7946057123705963,0.01940710091401393
-0.11676617312797777,-0.027570977272547086,-0.019993318556064107,-2.0238752912059343,-0.0643907611996849,1.9149238660410837,0.79462884170391,0.01951941745166952
-0.11672970636561472,-0.027545123331220674,-0.01999955376190682,-2.0238325898416276,-0.06438875487999038,1.914928253018926,0.794646716571225,0.019641044178513423
-0.11669998239731033,-0.02753065893623225,-0.02000149089444827,-2.0237874031174417,-0.06438816025645619,1.914926216207785,0.7946707835668615,0.019749653619562046
-0.11667035121974986,-0.027523204757685736,-0.020002186597893473,-2.0237415140089414,-0.06438844794302219,1.9149257461744447,0.794700372790867,0.019862507827717868
-0.11664439043161581,-0.027539521735283505,-0.01999307955919211,-2.02369656141286,-0.0643912745437432,1.914951108390096,0.7947391202783816,0.019975814811031778
-0.11661929569042509,-0.02756814358849668,-0.01997953511298071,-2.023654454373742,-0.06439534172593843,1.9149818564044379,0.7947853423870469,0.02008357529865895
-0.11660121180544211,-0.0276090648363116,-0.019960557600225734,-2.02360860128495,-0.06440052115359331,1.9150102346673556,0.7948385480545085,0.020187628689679216
-0.11657861210425474,-0.027649755881553766,-0.019941691361318042,-2.0235597585603613,-0.0644061315763638,1.9150515976012983,0.7948915027565011,0.02029221975119977
-0.11655739395414358,-0.027705300473752588,-0.019916955185066337,-2.0235134552252148,-0.06441301359514535,1.9151052793257,0.7949519607331823,0.020397489975457428
-0.11654007301527736,-0.02776296073721534,-0.019893287721547918,-2.0234614967958495,-0.06442079610496251,1.9151538494375264,0.7950129651031875,0.0204945536499746
-0.11652782463707909,-0.027810338619094828,-0.019871355646247826,-2.0234018301488867,-0.0644277315970835,1.915203575047981,0.7950642875415793,0.020577383205459043
-0.11652137052533487,-0.027889035012896947,-0.019838561792054604,-2.0233463057683903,-0.06443737818751236,1.9152467006069493,0.795136423316989,0.02066700438831498
-0.11651125633424689,-0.027947868213278056,-0.019813141523541758,-2.023282694963358,-0.06444564409631776,1.915308392482858,0.7951915280223688,0.020769529663176634
-0.1165063899752321,-0.02803013822797159,-0.01977630697729404,-2.0232259639226298,-0.0644560831616366,1.9153767823338652,0.7952590960286338,0.02087010234516906
-0.11650296702778948,-0.028108450950819118,-0.019743067060113,-2.023164190122726,-0.06446675750964885,1.9154472481654585,0.7953155286772821,0.020964336174948084
-0.11650855509259037,-0.028218849527498487,-0.019698969718232852,-2.0231084856436876,-0.06448093543085899,1.9155160884650835,0.7953903895029407,0.02103513889029557
-0.11651939098946443,-0.02835078848777183,-0.019648651684490072,-2.023059678938807,-0.06449719774283917,1.9155934481190007,0.7954726488696671,0.021083076460159167
-0.11652862882352644,-0.028456999570032414,-0.019603771555284234,-2.022990755226786,-0.06451174249115764,1.9156705727562475,0.7955435061044596,0.02118647898688969
-0.11653153626683613,-0.028567518729011802,-0.0195560486211799,-2.022935194826581,-0.06452667545592018,1.91576700792989,0.7956178067040518,0.021311643019656268
-0.11654535177759848,-0.02869249680196597,-0.01950620180799041,-2.0228797604953552,-0.06454353987770209,1.9158572347464966,0.795692545999188,0.021385898145584226
-0.11655628046521646,-0.028802434973499817,-0.01945929601096463,-2.022816113670615,-0.06455884822530726,1.915946599835313,0.7957600428656351,0.02147566082067709
-0.11657811722028713,-0.028959740064885865,-0.019396129234455658,-2.0227654339408976,-0.06457878736410501,1.916030402862936,0.7958578907449715,0.021522862630908746
-0.1166042429697437,-0.0291259846895141,-0.019329559413417075,-2.0227013908993645,-0.06459931150123586,1.9161245466240446,0.7959592234873348,0.021591627858044804
-0.11662275987819834,-0.02924436910306278,-0.019279370554097015,-2.0226337458869916,-0.06461533959998944,1.9162288352714139,0.7960228313770668,0.02163444340893239
-0.11663777135854908,-0.029377722164854507,-0.019220267692010667,-2.022575790176178,-0.06463257726568039,1.9163324776229402,0.7961056974083517,0.021695285070801706
-0.11665818532221287,-0.02953356930661307,-0.01915547825252866,-2.022520139726702,-0.06465190360000855,1.9164407419689793,0.7961988461074908,0.021750806624563412
-0.11668101184521873,-0.02968818870131692,-0.019091579971423616,-2.0224587441337363,-0.06467098395697544,1.9165521398706198,0.7962890345997604,0.021787764396843157
-0.11669400254936843,-0.029811467660043577,-0.019035450540056488,-2.022396033821414,-0.06468706125120127,1.9166813207003002,0.7963585599390721,0.021835475579127683
-0.11671492170708248,-0.029959323483919185,-0.01897118360385739,-2.0223346742481567,-0.06470542399595333,1.9168009833548403,0.7964472021283542,0.02188222461420125
-0.11671941690312157,-0.030070577098725952,-0.01891717031078604,-2.0222770967442814,-0.06472034412711443,1.916925738037233,0.7965178014813066,0.021967487836160482
-0.11672958264462283,-0.030205267527845144,-0.01885175096456853,-2.0222188348659462,-0.06473685241645588,1.9170699991032467,0.7966003147776608,0.02202142467686885
-0.11673773792000569,-0.030343071172710227,-0.018786279368022726,-2.0221676328504574,-0.06475369224050165,1.9172260501722116,0.796681589055519,0.022065824940809775
-0.11674869753787165,-0.030481751779757253,-0.018720171091550716,-2.022118898184994,-0.06477055345388319,1.917368117749304,0.7967652356486955,0.022110508189224498
-0.11676009017920927,-0.030625650311786858,-0.01864893938011018,-2.022063968129686,-0.06478759968501906,1.9175207610765521,0.7968553174312382,0.022162633929300457
-0.1167686990982291,-0.030769866742607406,-0.018576779741543148,-2.022012405917113,-0.0648045860260148,1.917678692278878,0.7969465423911333,0.022224522633722932
